; generated by PrusaSlicer 2.9.1 on 2025-04-16 at 17:17:08 UTC

; v1.0.0

; external perimeters extrusion width = 0.42mm
; perimeters extrusion width = 0.44mm
; infill extrusion width = 0.44mm
; solid infill extrusion width = 0.44mm
; top infill extrusion width = 0.40mm
; support material extrusion width = 0.35mm
; first layer extrusion width = 0.42mm

M190 S60 ; set bed temperature and wait for it to be reached
M104 S220 ; set temperature
;TYPE:Custom
G28 ; home all axes
G1 Z0.28 F5000
M109 S220 ; set temperature and wait for it to be reached
G21 ; set units to millimeters
G90 ; use absolute coordinates
M83 ; use relative distances for extrusion
; Filament gcode
M107
;LAYER_CHANGE
;Z:0.15
;HEIGHT:0.15
G1 E-2 F2100
G1 Z.35 F1800
G1 X98.499 Y110.029 F15000
G1 Z.15 F1800
G1 E2 F2100
;TYPE:Skirt/Brim
;WIDTH:0.42
G1 F1080
G1 X100 Y109.622 E.03648
G1 X120 Y109.622 E.46919
G1 X121.477 Y110.015 E.03586
G1 X122.562 Y111.091 E.03585
G1 X122.97 Y112.591 E.03647
G1 X122.97 Y113.185 E.01393
G1 X122.576 Y114.662 E.03586
G1 X121.501 Y115.748 E.03585
G1 X120 Y116.155 E.03648
G1 X100 Y116.155 E.46919
G1 X98.523 Y115.761 E.03586
G1 X97.438 Y114.686 E.03583
G1 X97.03 Y113.185 E.03649
G1 X97.03 Y112.591 E.01393
G1 X97.424 Y111.114 E.03586
G1 X98.457 Y110.071 E.03444
M204 T2500
G1 X98.74 Y110.386 F15000
G1 F1080
G1 X98.868 Y110.271 E.00404
G1 X100 Y110.009 E.02726
G1 X120 Y110.009 E.46919
G1 X121.368 Y110.402 E.03339
G1 X122.32 Y111.459 E.03337
G1 X122.582 Y112.591 E.02726
G1 X122.582 Y113.185 E.01393
G1 X122.189 Y114.553 E.03339
G1 X121.132 Y115.505 E.03337
G1 X120 Y115.767 E.02726
G1 X100 Y115.767 E.46919
G1 X98.632 Y115.375 E.03338
G1 X97.68 Y114.317 E.03339
G1 X97.418 Y113.185 E.02726
G1 X97.418 Y112.591 E.01393
G1 X97.811 Y111.223 E.03339
G1 X98.696 Y110.426 E.02794
G1 X98.951 Y110.754 F15000
G1 F1080
G1 X99.23 Y110.537 E.00829
G1 X100 Y110.397 E.01836
G1 X120 Y110.397 E.46919
G1 X121.25 Y110.788 E.03073
G1 X122.054 Y111.822 E.03073
G1 X122.194 Y113.185 E.03214
G1 X121.803 Y114.435 E.03073
G1 X120.77 Y115.24 E.03072
G1 X120 Y115.379 E.01836
G1 X100 Y115.379 E.46919
G1 X98.75 Y114.988 E.03073
G1 X97.946 Y113.955 E.03071
G1 X97.806 Y113.185 E.01836
G1 X97.806 Y112.591 E.01393
G1 X98.197 Y111.341 E.03073
G1 X98.904 Y110.791 E.02101
;WIPE_START
G1 F12000
G1 X98.951 Y110.754 E-.00994
G1 X99.23 Y110.537 E-.05876
G1 X100 Y110.397 E-.13011
G1 X110.834 Y110.397 E-1.80119
;WIPE_END
G1 Z.35 F1800
G1 X100.082 Y112.977 F15000
G1 Z.15 F1800
G1 E2 F2100
;TYPE:External perimeter
;WIDTH:0.37219
G1 F270
G1 X119.915 Y112.977 E.40791
M106 S127.5
;LAYER_CHANGE
;Z:0.39
;HEIGHT:0.24
;BEFORE_LAYER_CHANGE
G92 E0
;0.39


;WIPE_START
G1 F12000
G1 X107.885 Y112.977 E-2
;WIPE_END
G1 Z.39 F1800
;AFTER_LAYER_CHANGE
;0.39
M104 S200 ; set temperature
G1 Z.59
G1 X107.885 Y113.034 F15000
G1 X108.984 Y113.034
G1 X122.819 Y113.751
G1 Z.39 F1800
G1 E2 F2100
;TYPE:Skirt/Brim
;WIDTH:0.42
G1 F1209
G1 X122.576 Y114.662 E.03363
G1 X121.501 Y115.748 E.0545
G1 X120 Y116.155 E.05547
G1 X100 Y116.155 E.71331
G1 X98.523 Y115.761 E.05452
G1 X97.438 Y114.686 E.05447
G1 X97.03 Y113.185 E.05548
G1 X97.03 Y112.591 E.02119
G1 X97.424 Y111.114 E.05452
G1 X98.499 Y110.029 E.05447
G1 X100 Y109.622 E.05547
G1 X120 Y109.622 E.71331
G1 X121.477 Y110.015 E.05451
G1 X122.562 Y111.091 E.0545
G1 X122.97 Y112.591 E.05544
G1 X122.97 Y113.185 E.02119
G1 X122.834 Y113.693 E.01876
G1 X122.466 Y113.587 F15000
G1 F1209
G1 X122.189 Y114.553 E.03584
G1 X121.132 Y115.505 E.05073
G1 X120 Y115.767 E.04144
G1 X100 Y115.767 E.71331
G1 X98.632 Y115.375 E.05075
G1 X97.68 Y114.317 E.05076
G1 X97.418 Y113.185 E.04144
G1 X97.418 Y112.591 E.02119
G1 X97.811 Y111.223 E.05076
G1 X98.868 Y110.271 E.05073
G1 X100 Y110.009 E.04144
G1 X120 Y110.009 E.71331
G1 X121.368 Y110.402 E.05076
G1 X122.32 Y111.459 E.05073
G1 X122.582 Y112.591 E.04144
G1 X122.582 Y113.185 E.02119
G1 X122.483 Y113.529 E.01277
G1 X122.122 Y113.416 F15000
G1 F1209
G1 X121.803 Y114.435 E.03808
G1 X120.77 Y115.24 E.04671
G1 X120 Y115.379 E.02791
G1 X100 Y115.379 E.71331
G1 X98.75 Y114.988 E.04671
G1 X97.946 Y113.955 E.04669
G1 X97.806 Y113.185 E.02791
G1 X97.806 Y112.591 E.02119
G1 X98.197 Y111.341 E.04671
G1 X99.23 Y110.537 E.04669
G1 X100 Y110.397 E.02791
G1 X120 Y110.397 E.71331
G1 X121.25 Y110.788 E.04671
G1 X122.054 Y111.822 E.04671
G1 X122.194 Y113.185 E.04887
G1 X122.139 Y113.359 E.00651
G1 E-2 F2100
G1 Z.59 F1800
G1 X119.703 Y112.888 F15000
G1 Z.39 F1800
G1 E2 F2100
;TYPE:External perimeter
;WIDTH:0.593864
G1 F1209
G1 X100.297 Y112.888 E1.01869
M106 S255
;LAYER_CHANGE
;Z:0.63
;HEIGHT:0.24
;BEFORE_LAYER_CHANGE
G92 E0
;0.63


;WIPE_START
G1 F12000
G1 X112.327 Y112.888 E-2
;WIPE_END
G1 Z.63 F1800
;AFTER_LAYER_CHANGE
;0.63
G1 Z.83
G1 X119.385 Y112.682 F15000
G1 Z.63 F1800
G1 E2 F2100
;WIDTH:0.499201
G1 F600
G1 X119.403 Y112.679 E.00079
G1 X119.463 Y112.591 E.00462
G1 X119.548 Y112.467 E.00651
G1 X119.75 Y112.467 E.00875
G1 X119.75 Y112.591 E.00537
G1 X119.75 Y113.09 E.02162
G1 X119.28 Y113.108 E.02038
;WIDTH:0.462168
G1 X118.433 Y113.108 E.03367
G1 X101.566 Y113.108 E.67041
G1 X100.719 Y113.108 E.03367
;WIDTH:0.498972
G1 X100.249 Y113.09 E.02037
G1 X100.249 Y112.591 E.02161
G1 X100.249 Y112.467 E.00537
G1 X100.451 Y112.467 E.00875
G1 X100.536 Y112.591 E.00651
G1 X100.596 Y112.679 E.00461
G1 X100.719 Y112.697 E.00538
;WIDTH:0.462168
G1 X101.537 Y112.697 E.03251
G1 X118.462 Y112.697 E.67272
G1 X119.28 Y112.697 E.03251
;WIDTH:0.499201
G1 X119.326 Y112.69 E.00202
;LAYER_CHANGE
;Z:0.87
;HEIGHT:0.24
;BEFORE_LAYER_CHANGE
G92 E0
;0.87


;WIPE_START
G1 F12000
G1 X119.385 Y112.682 E-.0099
G1 X119.403 Y112.679 E-.00303
G1 X119.463 Y112.591 E-.01771
G1 X119.548 Y112.467 E-.02499
G1 X119.75 Y112.467 E-.03358
G1 X119.75 Y112.591 E-.02062
G1 X119.75 Y113.09 E-.08296
G1 X119.28 Y113.108 E-.07819
G1 X118.433 Y113.108 E-.14081
G1 X108.88 Y113.108 E-1.58821
;WIPE_END
G1 Z.87 F1800
;AFTER_LAYER_CHANGE
;0.87
G1 Z1.07
G1 X109.83 Y112.994 F15000
G1 X119.263 Y112.703
G1 X119.211 Y112.703
G1 X119.211 Y112.631
G1 Z.87 F1800
G1 E2 F2100
;WIDTH:0.527624
G1 F600
G1 X119.226 Y112.629 E.0007
;WIDTH:0.561291
G1 X119.285 Y112.621 E.00294
G1 X119.514 Y112.217 E.02291
G1 X119.566 Y112.124 E.00526
G1 X119.719 Y112.124 E.00755
G1 X119.719 Y112.217 E.00459
G1 X119.719 Y113.213 E.04914
G1 X119.53 Y113.213 E.00933
G1 X119.349 Y113.03 E.0127
G1 X119.268 Y113.038 E.00402
;WIDTH:0.527624
G1 X119.187 Y113.045 E.00375
;WIDTH:0.493957
G1 X119.106 Y113.053 E.00349
;WIDTH:0.460289
G1 X118.468 Y113.053 E.02524
G1 X101.531 Y113.053 E.67011
G1 X100.893 Y113.053 E.02524
;WIDTH:0.493836
G1 X100.812 Y113.045 E.00348
;WIDTH:0.527382
G1 X100.731 Y113.038 E.00374
;WIDTH:0.560928
G1 X100.65 Y113.03 E.00401
G1 X100.469 Y113.213 E.01269
G1 X100.28 Y113.213 E.00932
G1 X100.28 Y112.217 E.04911
G1 X100.28 Y112.124 E.00459
G1 X100.433 Y112.124 E.00754
G1 X100.46 Y112.174 E.0028
G1 X100.484 Y112.217 E.00243
G1 X100.714 Y112.621 E.02292
G1 X100.774 Y112.629 E.00298
;WIDTH:0.527382
G1 X100.833 Y112.637 E.00274
;WIDTH:0.493836
G1 X100.893 Y112.644 E.00259
;WIDTH:0.460289
G1 X101.635 Y112.644 E.02936
G1 X118.364 Y112.644 E.66188
G1 X119.106 Y112.644 E.02936
;WIDTH:0.493957
G1 X119.152 Y112.638 E.00199
;LAYER_CHANGE
;Z:1.11
;HEIGHT:0.24
;BEFORE_LAYER_CHANGE
G92 E0
;1.11


;WIPE_START
G1 F12000
G1 X119.211 Y112.631 E-.00988
G1 X119.226 Y112.629 E-.00252
G1 X119.285 Y112.621 E-.0099
G1 X119.514 Y112.217 E-.0772
G1 X119.566 Y112.124 E-.01771
G1 X119.719 Y112.124 E-.02544
G1 X119.719 Y112.217 E-.01546
G1 X119.719 Y113.213 E-.16559
G1 X119.53 Y113.213 E-.03142
G1 X119.349 Y113.03 E-.04279
G1 X119.268 Y113.038 E-.01353
G1 X119.187 Y113.045 E-.01352
G1 X119.106 Y113.053 E-.01353
G1 X118.468 Y113.053 E-.10607
G1 X109.713 Y113.053 E-1.45544
;WIPE_END
G1 Z1.11 F1800
;AFTER_LAYER_CHANGE
;1.11
G1 Z1.31
G1 X109.713 Y112.942 F15000
G1 X119.09 Y112.651
G1 X119.038 Y112.651
G1 X119.038 Y112.578
G1 Z1.11 F1800
G1 E2 F2100
;WIDTH:0.541706
G1 F600
G1 X119.064 Y112.575 E.00124
;WIDTH:0.582435
G1 X119.129 Y112.566 E.00337
G1 X119.19 Y112.441 E.00715
;WIDTH:0.554443
G1 X119.512 Y111.844 E.03302
G1 X119.564 Y111.747 E.00536
G1 X119.723 Y111.747 E.00774
G1 X119.723 Y111.844 E.00472
G1 X119.723 Y112.448 E.0294
;WIDTH:0.582435
G1 X119.589 Y112.772 E.01802
G1 X119.673 Y112.897 E.00774
;WIDTH:0.533996
G1 X119.757 Y113.022 E.00703
;WIDTH:0.485556
G1 X119.757 Y113.101 E.00332
G1 X119.757 Y113.405 E.01277
G1 X119.512 Y113.405 E.01029
;WIDTH:0.533996
G1 X119.352 Y113.19 E.01252
;WIDTH:0.582435
G1 X119.193 Y112.975 E.01374
G1 X119.106 Y112.983 E.00449
;WIDTH:0.541706
G1 X119.019 Y112.992 E.00415
;WIDTH:0.500977
G1 X118.933 Y113.001 E.00376
;WIDTH:0.460248
G1 X118.295 Y113.001 E.02524
G1 X101.704 Y113.001 E.65636
G1 X101.066 Y113.001 E.02524
;WIDTH:0.502554
G1 X100.993 Y112.993 E.00321
;WIDTH:0.54486
G1 X100.919 Y112.985 E.00355
;WIDTH:0.587166
G1 X100.845 Y112.977 E.00386
;WIDTH:0.629472
G1 X100.771 Y112.969 E.00416
G1 X100.453 Y113.333 E.02704
G1 X100.315 Y113.333 E.00772
G1 X100.315 Y111.844 E.08329
G1 X100.315 Y111.785 E.0033
G1 X100.376 Y111.785 E.00341
G1 X100.43 Y111.817 E.00351
G1 X100.444 Y111.844 E.0017
G1 X100.835 Y112.561 E.04569
G1 X100.893 Y112.568 E.00327
;WIDTH:0.587166
G1 X100.951 Y112.576 E.00304
;WIDTH:0.54486
G1 X101.009 Y112.584 E.0028
;WIDTH:0.502554
G1 X101.066 Y112.592 E.00251
;WIDTH:0.460248
G1 X101.809 Y112.592 E.02939
G1 X118.19 Y112.592 E.64805
G1 X118.933 Y112.592 E.02939
;WIDTH:0.500977
G1 X118.978 Y112.586 E.00197
;LAYER_CHANGE
;Z:1.35
;HEIGHT:0.24
;BEFORE_LAYER_CHANGE
G92 E0
;1.35


;WIPE_START
G1 F12000
G1 X119.038 Y112.578 E-.01006
G1 X119.064 Y112.575 E-.00435
G1 X119.129 Y112.566 E-.01091
G1 X119.19 Y112.441 E-.02312
G1 X119.512 Y111.844 E-.11277
G1 X119.564 Y111.747 E-.0183
G1 X119.723 Y111.747 E-.02643
G1 X119.723 Y111.844 E-.01613
G1 X119.723 Y112.448 E-.10041
G1 X119.589 Y112.772 E-.05829
G1 X119.673 Y112.897 E-.02504
G1 X119.757 Y113.022 E-.02504
G1 X119.757 Y113.101 E-.01313
G1 X119.757 Y113.405 E-.05054
G1 X119.512 Y113.405 E-.04073
G1 X119.352 Y113.19 E-.04456
G1 X119.193 Y112.975 E-.04446
G1 X119.106 Y112.983 E-.01452
G1 X119.019 Y112.992 E-.01454
G1 X118.933 Y113.001 E-.01438
G1 X118.295 Y113.001 E-.10607
G1 X110.919 Y113.001 E-1.22622
;WIPE_END
G1 Z1.35 F1800
;AFTER_LAYER_CHANGE
;1.35
G1 Z1.55
G1 X110.919 Y112.89 F15000
G1 X100.451 Y112.661
G1 X100.754 Y112.249
G1 X100.959 Y112.467
G1 X100.749 Y112.666
G1 Z1.35 F1800
G1 E2 F2100
;TYPE:Perimeter
;WIDTH:0.618934
G1 F600
G1 X100.713 Y112.727 E.00389
G1 X100.643 Y112.727 E.00384
G1 X100.607 Y112.666 E.00389
G1 X100.643 Y112.605 E.00389
G1 X100.713 Y112.605 E.00384
G1 E-2 F2100
G1 Z1.55 F1800
G1 X118.864 Y112.526 F15000
G1 Z1.35 F1800
G1 E2 F2100
;TYPE:External perimeter
;WIDTH:0.541652
G1 F600
G1 X118.89 Y112.522 E.00125
;WIDTH:0.582374
G1 X118.955 Y112.514 E.00336
G1 X119.016 Y112.388 E.00719
;WIDTH:0.554443
G1 X119.512 Y111.47 E.05079
G1 X119.564 Y111.373 E.00536
G1 X119.723 Y111.373 E.00774
G1 X119.723 Y111.47 E.00472
G1 X119.723 Y112.075 E.02945
G1 X119.693 Y112.194 E.00597
;WIDTH:0.582374
G1 X119.416 Y112.72 E.03055
G1 X119.586 Y112.948 E.01461
;WIDTH:0.533965
G1 X119.757 Y113.176 E.01331
;WIDTH:0.485555
G1 X119.757 Y113.255 E.00332
G1 X119.757 Y113.559 E.01277
G1 X119.512 Y113.559 E.01029
G1 X119.374 Y113.395 E.009
;WIDTH:0.533965
G1 X119.197 Y113.159 E.01378
;WIDTH:0.582374
G1 X119.019 Y112.923 E.01519
G1 X118.933 Y112.931 E.00444
;WIDTH:0.541652
G1 X118.846 Y112.94 E.00415
;WIDTH:0.50093
G1 X118.759 Y112.948 E.0038
;WIDTH:0.460208
G1 X118.121 Y112.948 E.02524
G1 X101.878 Y112.948 E.64253
G1 X101.24 Y112.948 E.02524
;WIDTH:0.470224
G1 X101.112 Y112.943 E.00519
G1 X101.042 Y112.989 E.00339
;WIDTH:0.445112
G1 X100.971 Y113.034 E.0032
;WIDTH:0.419999
G1 X100.502 Y113.591 E.02597
G1 X100.21 Y113.591 E.01041
G1 X100.21 Y111.47 E.07565
G1 X100.21 Y111.306 E.00585
G1 X100.475 Y111.306 E.00945
G1 X100.563 Y111.47 E.00664
G1 X101.078 Y112.423 E.03863
;WIDTH:0.442633
G1 X101.106 Y112.477 E.0023
;WIDTH:0.460208
G1 X101.24 Y112.54 E.00586
G1 X101.983 Y112.54 E.02939
G1 X118.016 Y112.54 E.63422
G1 X118.759 Y112.54 E.02939
;WIDTH:0.50093
G1 X118.804 Y112.534 E.00197
;LAYER_CHANGE
;Z:1.59
;HEIGHT:0.24
;BEFORE_LAYER_CHANGE
G92 E0
;1.59


;WIPE_START
G1 F12000
G1 X118.864 Y112.526 E-.01006
G1 X118.89 Y112.522 E-.00437
G1 X118.955 Y112.514 E-.01089
G1 X119.016 Y112.388 E-.02327
G1 X119.512 Y111.47 E-.17347
G1 X119.564 Y111.373 E-.0183
G1 X119.723 Y111.373 E-.02643
G1 X119.723 Y111.47 E-.01613
G1 X119.723 Y112.075 E-.10058
G1 X119.693 Y112.194 E-.0204
G1 X119.416 Y112.72 E-.09883
G1 X119.586 Y112.948 E-.04728
G1 X119.757 Y113.176 E-.04738
G1 X119.757 Y113.255 E-.01313
G1 X119.757 Y113.559 E-.05054
G1 X119.512 Y113.559 E-.04073
G1 X119.374 Y113.395 E-.03563
G1 X119.197 Y113.159 E-.04904
G1 X119.019 Y112.923 E-.04914
G1 X118.933 Y112.931 E-.01436
G1 X118.846 Y112.94 E-.01454
G1 X118.759 Y112.948 E-.01452
G1 X118.121 Y112.948 E-.10607
G1 X112.016 Y112.948 E-1.01491
;WIPE_END
G1 Z1.59 F1800
;AFTER_LAYER_CHANGE
;1.59
G1 Z1.79
G1 X112.016 Y112.837 F15000
G1 X100.526 Y112.55
G1 X100.508 Y112.422
G1 X100.704 Y112.395
G1 Z1.59 F1800
G1 E2 F2100
;TYPE:Perimeter
;WIDTH:0.693944
G1 F600
G1 X100.805 Y112.606 E.01455
G1 E-2 F2100
G1 Z1.79 F1800
G1 X118.69 Y112.474 F15000
G1 Z1.59 F1800
G1 E2 F2100
;TYPE:External perimeter
;WIDTH:0.541603
G1 F600
G1 X118.716 Y112.47 E.00125
;WIDTH:0.58232
G1 X118.782 Y112.462 E.00342
G1 X118.842 Y112.336 E.00717
;WIDTH:0.554448
G1 X119.512 Y111.096 E.06861
G1 X119.564 Y111 E.00531
G1 X119.723 Y111 E.00774
G1 X119.723 Y111.096 E.00467
G1 X119.723 Y111.701 E.02945
G1 X119.693 Y111.82 E.00597
;WIDTH:0.58232
G1 X119.242 Y112.667 E.0493
G1 X119.291 Y112.751 E.005
;WIDTH:0.533879
G1 X119.34 Y112.834 E.0045
;WIDTH:0.485556
G1 X119.757 Y113.33 E.02722
G1 X119.757 Y113.713 E.01609
G1 X119.512 Y113.713 E.01029
G1 X119.008 Y113.114 E.03289
;WIDTH:0.533878
G1 X118.927 Y112.992 E.00684
;WIDTH:0.58232
G1 X118.846 Y112.87 E.00752
G1 X118.759 Y112.879 E.00449
;WIDTH:0.541603
G1 X118.672 Y112.887 E.00414
;WIDTH:0.500886
G1 X118.585 Y112.896 E.0038
;WIDTH:0.460168
G1 X117.947 Y112.896 E.02524
G1 X102.052 Y112.896 E.6287
G1 X101.414 Y112.896 E.02524
;WIDTH:0.470182
G1 X101.286 Y112.891 E.00519
G1 X101.215 Y112.936 E.00341
;WIDTH:0.445091
G1 X101.145 Y112.982 E.00319
;WIDTH:0.419999
G1 X100.502 Y113.746 E.03561
G1 X100.21 Y113.746 E.01041
G1 X100.21 Y112.961 E.028
G1 X100.275 Y112.885 E.00357
G1 X100.316 Y112.741 E.00534
G1 X100.21 Y112.52 E.00874
G1 X100.21 Y111.096 E.05079
G1 X100.21 Y110.932 E.00585
G1 X100.475 Y110.932 E.00945
G1 X100.563 Y111.096 E.00664
G1 X101.138 Y112.16 E.04313
;WIDTH:0.440152
G1 X101.276 Y112.42 E.01107
;WIDTH:0.460168
G1 X101.414 Y112.487 E.00607
G1 X102.156 Y112.487 E.02935
G1 X117.843 Y112.487 E.62047
G1 X118.585 Y112.487 E.02935
;WIDTH:0.500886
G1 X118.631 Y112.481 E.00202
;LAYER_CHANGE
;Z:1.83
;HEIGHT:0.24
;BEFORE_LAYER_CHANGE
G92 E0
;1.83


;WIPE_START
G1 F12000
G1 X118.69 Y112.474 E-.00988
G1 X118.716 Y112.47 E-.00437
G1 X118.782 Y112.462 E-.01105
G1 X118.842 Y112.336 E-.0232
G1 X119.512 Y111.096 E-.23432
G1 X119.564 Y111 E-.01815
G1 X119.723 Y111 E-.02643
G1 X119.723 Y111.096 E-.01596
G1 X119.723 Y111.701 E-.10058
G1 X119.693 Y111.82 E-.0204
G1 X119.242 Y112.667 E-.15953
G1 X119.291 Y112.751 E-.01617
G1 X119.34 Y112.834 E-.01602
G1 X119.757 Y113.33 E-.10773
G1 X119.757 Y113.713 E-.06367
G1 X119.512 Y113.713 E-.04073
G1 X119.008 Y113.114 E-.13014
G1 X118.927 Y112.992 E-.02435
G1 X118.846 Y112.87 E-.02435
G1 X118.759 Y112.879 E-.01454
G1 X118.672 Y112.887 E-.01452
G1 X118.585 Y112.896 E-.01454
G1 X117.947 Y112.896 E-.10607
G1 X113.115 Y112.896 E-.8033
;WIPE_END
G1 Z1.83 F1800
;AFTER_LAYER_CHANGE
;1.83
G1 Z2.03
G1 X113.115 Y112.785 F15000
G1 X101.335 Y112.78
G1 X100.413 Y113.214
G1 X100.463 Y113.155
G1 X100.574 Y113.248
G1 Z1.83 F1800
G1 E2 F2100
;TYPE:Perimeter
;WIDTH:0.411364
G1 F600
G1 X100.727 Y113.067 E.00825
G1 X100.704 Y112.021 F15000
;WIDTH:0.680724
G1 F600
G1 X100.955 Y112.498 E.03283
;WIDTH:0.693868
G1 X100.978 Y112.554 E.00376
G1 E-2 F2100
G1 Z2.03 F1800
G1 X118.517 Y112.421 F15000
G1 Z1.83 F1800
