; generated by PrusaSlicer 2.9.1 on 2025-05-17 at 06:27:17 UTC

; v1.0.0

; external perimeters extrusion width = 0.42mm
; perimeters extrusion width = 0.44mm
; infill extrusion width = 0.44mm
; solid infill extrusion width = 0.44mm
; top infill extrusion width = 0.40mm
; support material extrusion width = 0.35mm
; first layer extrusion width = 0.42mm

M190 S60 ; set bed temperature and wait for it to be reached
M104 S220 ; set temperature
;TYPE:Custom
G28 ; home all axes
G1 Z0.28 F5000
M109 S220 ; set temperature and wait for it to be reached
G21 ; set units to millimeters
G90 ; use absolute coordinates
M83 ; use relative distances for extrusion
; Filament gcode
M107
;LAYER_CHANGE
;Z:0.15
;HEIGHT:0.15
G1 E-2 F2100
G1 Z.35 F1800
G1 X98.423 Y97.515 F15000
G1 Z.15 F1800
G1 E2 F2100
;TYPE:Skirt/Brim
;WIDTH:0.42
G1 F1080
G1 X98.499 Y97.438 E.00254
G1 X100 Y97.03 E.03649
G1 X120 Y97.03 E.46919
G1 X121.477 Y97.424 E.03586
G1 X122.562 Y98.499 E.03583
G1 X122.97 Y100 E.03649
G1 X122.97 Y120 E.46919
G1 X122.576 Y121.477 E.03586
G1 X121.501 Y122.562 E.03583
G1 X120 Y122.97 E.03649
G1 X100 Y122.97 E.46919
G1 X98.523 Y122.576 E.03586
G1 X97.438 Y121.501 E.03583
G1 X97.03 Y120 E.03649
G1 X97.03 Y100 E.46919
G1 X97.424 Y98.523 E.03586
G1 X98.381 Y97.557 E.0319
M204 T2500
G1 X98.66 Y97.867 F15000
G1 F1080
G1 X98.868 Y97.68 E.00656
G1 X100 Y97.418 E.02726
G1 X120 Y97.418 E.46919
G1 X121.368 Y97.811 E.03339
G1 X122.32 Y98.868 E.03337
G1 X122.582 Y100 E.02726
G1 X122.582 Y120 E.46919
G1 X122.189 Y121.368 E.03339
G1 X121.132 Y122.32 E.03337
G1 X120 Y122.582 E.02726
G1 X100 Y122.582 E.46919
G1 X98.632 Y122.189 E.03339
G1 X97.68 Y121.132 E.03337
G1 X97.418 Y120 E.02726
G1 X97.418 Y100 E.46919
G1 X97.811 Y98.632 E.03339
G1 X98.615 Y97.907 E.0254
G1 X98.866 Y98.229 F15000
G1 F1080
G1 X99.23 Y97.946 E.01082
G1 X100 Y97.806 E.01836
G1 X120 Y97.806 E.46919
G1 X121.25 Y98.197 E.03073
G1 X122.054 Y99.23 E.03071
G1 X122.194 Y100 E.01836
G1 X122.194 Y120 E.46919
G1 X121.803 Y121.25 E.03073
G1 X120.77 Y122.054 E.03071
G1 X120 Y122.194 E.01836
G1 X100 Y122.194 E.46919
G1 X98.75 Y121.803 E.03073
G1 X97.946 Y120.77 E.03071
G1 X97.806 Y120 E.01836
G1 X97.806 Y100 E.46919
G1 X98.197 Y98.75 E.03073
G1 X98.818 Y98.266 E.01847
;WIPE_START
G1 F12000
G1 X98.866 Y98.229 E-.01008
G1 X99.23 Y97.946 E-.07665
G1 X100 Y97.806 E-.13011
G1 X110.726 Y97.806 E-1.78316
;WIPE_END
G1 Z.35 F1800
G1 X100.262 Y119.72 F15000
G1 Z.15 F1800
G1 E2 F2100
;TYPE:External perimeter
;WIDTH:0.466114
G1 F270
G1 X100.207 Y119.72 E.00144
G1 X100.18 Y119.767 E.00142
G1 X100.207 Y119.814 E.00142
G1 X100.262 Y119.814 E.00144
G1 X100.289 Y119.767 E.00142
;WIPE_START
G1 F12000
G1 X100.262 Y119.814 E-.00901
G1 X100.207 Y119.814 E-.00914
G1 X100.18 Y119.767 E-.00901
G1 X100.207 Y119.72 E-.00901
G1 X100.262 Y119.72 E-.00914
;WIPE_END
G1 E-1.95469 F2100
G1 Z.35 F1800
G1 X100.364 Y119.634 F15000
G1 X100.217 Y100.065
G1 X100.26 Y100.188
G1 Z.15 F1800
G1 E2 F2100
;WIDTH:0.466116
G1 F270
G1 X100.206 Y100.188 E.00142
G1 X100.179 Y100.235 E.00142
G1 X100.206 Y100.282 E.00142
G1 X100.26 Y100.282 E.00142
G1 X100.287 Y100.235 E.00142
;WIPE_START
G1 F12000
G1 X100.26 Y100.282 E-.00901
G1 X100.206 Y100.282 E-.00898
G1 X100.179 Y100.235 E-.00901
G1 X100.206 Y100.188 E-.00901
G1 X100.26 Y100.188 E-.00898
;WIPE_END
G1 E-1.95501 F2100
G1 Z.35 F1800
G1 X100.217 Y100.065 F15000
G1 X119.831 Y100.082
G1 X119.794 Y100.186
G1 Z.15 F1800
G1 E2 F2100
;WIDTH:0.466896
G1 F270
G1 X119.739 Y100.186 E.00145
G1 X119.712 Y100.233 E.00143
G1 X119.739 Y100.281 E.00145
G1 X119.794 Y100.281 E.00145
G1 X119.821 Y100.233 E.00145
;WIPE_START
G1 F12000
G1 X119.794 Y100.281 E-.00916
G1 X119.739 Y100.281 E-.00914
G1 X119.712 Y100.233 E-.00916
G1 X119.739 Y100.186 E-.00901
G1 X119.794 Y100.186 E-.00914
;WIPE_END
G1 E-1.95439 F2100
G1 Z.35 F1800
G1 X119.831 Y100.082 F15000
G1 X119.939 Y119.77
G1 X119.794 Y119.719
G1 Z.15 F1800
G1 E2 F2100
G1 F270
G1 X119.739 Y119.719 E.00145
G1 X119.712 Y119.767 E.00145
G1 X119.739 Y119.814 E.00143
G1 X119.794 Y119.814 E.00145
G1 X119.821 Y119.767 E.00143
M106 S127.5
;LAYER_CHANGE
;Z:0.39
;HEIGHT:0.24
;BEFORE_LAYER_CHANGE
G92 E0
;0.39


;WIPE_START
G1 F12000
G1 X119.794 Y119.814 E-.00901
G1 X119.739 Y119.814 E-.00914
G1 X119.712 Y119.767 E-.00901
G1 X119.739 Y119.719 E-.00916
G1 X119.794 Y119.719 E-.00914
;WIPE_END
G1 E-1.95454 F2100
G1 Z.39 F1800
;AFTER_LAYER_CHANGE
;0.39
M104 S200 ; set temperature
G1 Z.59
G1 X119.718 Y119.709 F15000
G1 X122.819 Y120.565
G1 Z.39 F1800
G1 E2 F2100
;TYPE:Skirt/Brim
;WIDTH:0.42
G1 F2532
G1 X122.576 Y121.477 E.03366
G1 X121.501 Y122.562 E.05447
G1 X120 Y122.97 E.05548
G1 X100 Y122.97 E.71331
G1 X98.523 Y122.576 E.05452
G1 X97.438 Y121.501 E.05447
G1 X97.03 Y120 E.05548
G1 X97.03 Y100 E.71331
G1 X97.424 Y98.523 E.05452
G1 X98.499 Y97.438 E.05447
G1 X100 Y97.03 E.05548
G1 X120 Y97.03 E.71331
G1 X121.477 Y97.424 E.05452
G1 X122.562 Y98.499 E.05447
G1 X122.97 Y100 E.05548
G1 X122.97 Y120 E.71331
G1 X122.835 Y120.507 E.01871
G1 X122.467 Y120.401 F15000
G1 F2532
G1 X122.189 Y121.368 E.03589
G1 X121.132 Y122.32 E.05073
G1 X120 Y122.582 E.04144
G1 X100 Y122.582 E.71331
G1 X98.632 Y122.189 E.05076
G1 X97.68 Y121.132 E.05073
G1 X97.418 Y120 E.04144
G1 X97.418 Y100 E.71331
G1 X97.811 Y98.632 E.05076
G1 X98.868 Y97.68 E.05073
G1 X100 Y97.418 E.04144
G1 X120 Y97.418 E.71331
G1 X121.368 Y97.811 E.05076
G1 X122.32 Y98.868 E.05073
G1 X122.582 Y100 E.04144
G1 X122.582 Y120 E.71331
G1 X122.483 Y120.344 E.01277
G1 X122.122 Y120.231 F15000
G1 F2532
G1 X121.803 Y121.25 E.03808
G1 X120.77 Y122.054 E.04669
G1 X120 Y122.194 E.02791
G1 X100 Y122.194 E.71331
G1 X98.75 Y121.803 E.04671
G1 X97.946 Y120.77 E.04669
G1 X97.806 Y120 E.02791
G1 X97.806 Y100 E.71331
G1 X98.197 Y98.75 E.04671
G1 X99.23 Y97.946 E.04669
G1 X100 Y97.806 E.02791
G1 X120 Y97.806 E.71331
G1 X121.25 Y98.197 E.04671
G1 X122.054 Y99.23 E.04669
G1 X122.194 Y100 E.02791
G1 X122.194 Y120 E.71331
G1 X122.14 Y120.174 E.0065
;WIPE_START
G1 F12000
G1 X122.122 Y120.231 E-.00994
G1 X121.803 Y121.25 E-.17752
G1 X120.77 Y122.054 E-.21762
G1 X120 Y122.194 E-.13011
G1 X111.189 Y122.194 E-1.46481
;WIPE_END
G1 Z.59 F1800
G1 X100.466 Y118.236 F15000
G1 X100.322 Y118.243
G1 Z.39 F1800
G1 E2 F2100
;TYPE:Overhang perimeter
;WIDTH:0.4
;HEIGHT:0.4
G1 F1500
G1 X100.309 Y117.936 E.01557
;WIPE_START
G1 F12000
G1 X100.322 Y118.243 E-.05108
;WIPE_END
G1 E-1.94892 F2100
G1 Z.59 F1800
G1 X100.466 Y118.236 F15000
G1 X100.497 Y118.932
G1 X100.529 Y119.471
G1 X101.068 Y119.503
G1 X101.795 Y119.536
G1 X102.069 Y119.548
G1 X102.063 Y119.694
G1 Z.39 F1800
G1 E2 F2100
G1 F1500
G1 X101.809 Y119.683 E.01288
G1 X100.226 Y119.774 F15000
;TYPE:External perimeter
;WIDTH:0.451318
;HEIGHT:0.24
G1 F2532
G1 X100.212 Y119.548 E.00876
;WIDTH:0.422046
G1 X100.203 Y119.398 E.00539
G1 X100.198 Y119.321 E.00277
;WIDTH:0.392774
G1 F1500
G1 X100.194 Y119.111 E.00694
;TYPE:Overhang perimeter
;WIDTH:0.4
;HEIGHT:0.4
G1 X100.185 Y118.642 E.02377
G1 X100.208 Y118.576 E.00354
G1 X100.23 Y118.509 E.00357
G1 X100.253 Y118.443 E.00354
G1 X100.276 Y118.376 E.00359
G1 X100.299 Y118.309 E.00359
G1 X100.322 Y118.243 E.00354
G1 X100.351 Y118.307 E.00356
G1 X100.379 Y118.372 E.00359
G1 X100.408 Y118.436 E.00356
G1 X100.437 Y118.5 E.00356
G1 X100.465 Y118.564 E.00354
G1 X100.494 Y118.629 E.00361
G1 X100.531 Y119.031 E.02046
G1 X100.568 Y119.433 E.02046
G1 X100.631 Y119.447 E.00327
G1 X100.694 Y119.462 E.00328
G1 X101.423 Y119.511 E.03703
G1 X101.488 Y119.539 E.00359
G1 X101.552 Y119.568 E.00356
G1 X101.616 Y119.597 E.00356
G1 X101.681 Y119.625 E.00359
G1 X101.745 Y119.654 E.00356
G1 X101.809 Y119.683 E.00356
G1 X101.743 Y119.706 E.00354
G1 X101.676 Y119.728 E.00357
G1 X101.609 Y119.751 E.00359
G1 X101.543 Y119.774 E.00354
G1 X101.476 Y119.797 E.00359
G1 X101.41 Y119.82 E.00354
G1 X100.883 Y119.799 E.02673
;TYPE:External perimeter
;WIDTH:0.451318
;HEIGHT:0.24
G1 F1977.568
G1 X100.594 Y119.788 E.01119
G1 F1800
G1 X100.286 Y119.777 E.01193
;WIPE_START
G1 F12000
G1 X100.226 Y119.774 E-.00999
G1 X100.212 Y119.548 E-.03764
G1 X100.203 Y119.398 E-.02498
G1 X100.198 Y119.321 E-.01283
G1 X100.194 Y119.111 E-.03492
;WIPE_END
G1 E-1.87964 F2100
G1 Z.59 F1800
G1 X100.212 Y119.11 F15000
G1 X100.205 Y117.58
G1 X100.463 Y101.816
G1 X100.317 Y101.809
G1 Z.39 F1800
G1 E2 F2100
;TYPE:Overhang perimeter
;WIDTH:0.4
;HEIGHT:0.4
G1 F1500
G1 X100.306 Y102.063 E.01288
;WIPE_START
G1 F12000
G1 X100.317 Y101.809 E-.04227
;WIPE_END
G1 E-1.95773 F2100
G1 Z.59 F1800
G1 X100.463 Y101.816 F15000
G1 X100.497 Y101.069
G1 X100.529 Y100.53
G1 X101.068 Y100.498
G1 X101.795 Y100.465
G1 X102.069 Y100.452
G1 X102.063 Y100.309
G1 Z.39 F1800
G1 E2 F2100
G1 F1500
G1 X101.767 Y100.322 E.01502
G1 X100.226 Y100.226 F15000
;TYPE:External perimeter
;WIDTH:0.451561
;HEIGHT:0.24
G1 F2532
G1 X100.452 Y100.213 E.00877
;WIDTH:0.422397
G1 X100.602 Y100.203 E.0054
G1 X100.679 Y100.199 E.00277
;WIDTH:0.393232
G1 F1500
G1 X100.889 Y100.194 E.00695
;TYPE:Overhang perimeter
;WIDTH:0.4
;HEIGHT:0.4
G1 X101.368 Y100.185 E.02428
G1 X101.434 Y100.208 E.00354
G1 X101.501 Y100.23 E.00357
G1 X101.567 Y100.253 E.00354
G1 X101.634 Y100.276 E.00359
G1 X101.7 Y100.299 E.00354
G1 X101.767 Y100.322 E.00359
G1 X101.703 Y100.351 E.00356
G1 X101.638 Y100.379 E.00359
G1 X101.574 Y100.408 E.00356
G1 X101.51 Y100.437 E.00356
G1 X101.446 Y100.465 E.00354
G1 X101.381 Y100.494 E.00361
G1 X100.974 Y100.531 E.02071
G1 X100.567 Y100.568 E.02071
G1 X100.553 Y100.631 E.00327
G1 X100.538 Y100.694 E.00328
G1 X100.489 Y101.423 E.03703
G1 X100.461 Y101.488 E.00359
G1 X100.432 Y101.552 E.00356
G1 X100.403 Y101.616 E.00356
G1 X100.375 Y101.681 E.00359
G1 X100.346 Y101.745 E.00356
G1 X100.317 Y101.809 E.00356
G1 X100.294 Y101.743 E.00354
G1 X100.272 Y101.676 E.00357
G1 X100.249 Y101.609 E.00359
G1 X100.226 Y101.543 E.00354
G1 X100.203 Y101.476 E.00359
G1 X100.18 Y101.41 E.00354
G1 X100.201 Y100.884 E.02668
;TYPE:External perimeter
;WIDTH:0.451561
;HEIGHT:0.24
G1 F1979.579
G1 X100.212 Y100.593 E.01128
G1 F1800
G1 X100.223 Y100.286 E.01189
;WIPE_START
G1 F12000
G1 X100.226 Y100.226 E-.00999
G1 X100.452 Y100.213 E-.03763
G1 X100.602 Y100.203 E-.02499
G1 X100.679 Y100.199 E-.01282
G1 X100.889 Y100.194 E-.03492
;WIPE_END
G1 E-1.87965 F2100
G1 Z.59 F1800
G1 X100.89 Y100.213 F15000
G1 X102.406 Y100.205
G1 X118.174 Y100.463
G1 X118.181 Y100.317
G1 Z.39 F1800
G1 E2 F2100
;TYPE:Overhang perimeter
;WIDTH:0.4
;HEIGHT:0.4
G1 F1500
G1 X117.939 Y100.306 E.01228
;WIPE_START
G1 F12000
G1 X118.181 Y100.317 E-.04027
;WIPE_END
G1 E-1.95973 F2100
G1 Z.59 F1800
G1 X118.174 Y100.463 F15000
G1 X118.931 Y100.497
G1 X119.471 Y100.529
G1 X119.502 Y101.069
G1 X119.535 Y101.796
G1 X119.537 Y101.826
G1 X119.683 Y101.819
G1 Z.39 F1800
G1 E2 F2100
G1 F1500
G1 X119.694 Y102.061 E.01228
G1 X119.774 Y100.226 F15000
;TYPE:External perimeter
;WIDTH:0.452169
;HEIGHT:0.24
G1 F2532
G1 X119.774 Y100.426 E.00776
G1 X119.788 Y100.553 E.00495
;WIDTH:0.423176
G1 X119.794 Y100.598 E.00163
G1 X119.803 Y100.679 E.00293
;WIDTH:0.394183
G1 F1500
G1 X119.808 Y100.891 E.00703
;TYPE:Overhang perimeter
;WIDTH:0.4
;HEIGHT:0.4
G1 X119.82 Y101.42 E.02682
G1 X119.797 Y101.486 E.00354
G1 X119.774 Y101.553 E.00359
G1 X119.751 Y101.619 E.00354
G1 X119.728 Y101.686 E.00359
G1 X119.706 Y101.753 E.00357
G1 X119.683 Y101.819 E.00354
G1 X119.654 Y101.755 E.00356
G1 X119.625 Y101.691 E.00356
G1 X119.597 Y101.626 E.00359
G1 X119.568 Y101.562 E.00356
G1 X119.539 Y101.498 E.00356
G1 X119.511 Y101.434 E.00354
G1 X119.471 Y101.001 E.02204
G1 X119.432 Y100.568 E.02203
G1 X119.369 Y100.554 E.00327
G1 X119.306 Y100.539 E.00328
G1 X118.566 Y100.489 E.03759
G1 X118.502 Y100.461 E.00354
G1 X118.438 Y100.432 E.00356
G1 X118.374 Y100.403 E.00356
G1 X118.309 Y100.375 E.00359
G1 X118.245 Y100.346 E.00356
G1 X118.181 Y100.317 E.00356
G1 X118.247 Y100.294 E.00354
G1 X118.314 Y100.272 E.00357
G1 X118.381 Y100.249 E.00359
G1 X118.447 Y100.226 E.00354
G1 X118.514 Y100.203 E.00359
G1 X118.58 Y100.18 E.00354
G1 X119.117 Y100.201 E.02723
;TYPE:External perimeter
;WIDTH:0.422833
;HEIGHT:0.24
G1 F1726.794
G1 X119.407 Y100.212 E.01043
G1 F2532
G1 X119.445 Y100.214 E.00137
;WIDTH:0.452169
G1 F1800.011
G1 X119.714 Y100.224 E.01044
;WIPE_START
G1 F12000
G1 X119.774 Y100.226 E-.00998
G1 X119.774 Y100.426 E-.03325
G1 X119.788 Y100.553 E-.02124
G1 X119.794 Y100.598 E-.00755
G1 X119.803 Y100.679 E-.01355
G1 X119.808 Y100.891 E-.03525
;WIPE_END
G1 E-1.87918 F2100
G1 Z.59 F1800
G1 X119.787 Y100.892 F15000
G1 X119.685 Y102.315
G1 X118.184 Y119.537
G1 X118.191 Y119.683
G1 Z.39 F1800
G1 E2 F2100
;TYPE:Overhang perimeter
;WIDTH:0.4
;HEIGHT:0.4
G1 F1500
G1 X117.937 Y119.694 E.01288
;WIPE_START
G1 F12000
G1 X118.191 Y119.683 E-.04227
;WIPE_END
G1 E-1.95773 F2100
G1 Z.59 F1800
G1 X118.184 Y119.537 F15000
G1 X118.931 Y119.503
G1 X119.47 Y119.471
G1 X119.502 Y118.932
G1 X119.535 Y118.205
G1 X119.548 Y117.932
G1 X119.694 Y117.939
G1 Z.39 F1800
G1 E2 F2100
G1 F1500
G1 X119.683 Y118.181 E.01228
G1 X119.774 Y119.774 F15000
;TYPE:External perimeter
;WIDTH:0.451926
;HEIGHT:0.24
G1 F2532
G1 X119.547 Y119.789 E.00882
;WIDTH:0.422827
G1 X119.397 Y119.798 E.0054
G1 X119.321 Y119.803 E.00274
;WIDTH:0.393727
G1 F1500
G1 X119.108 Y119.808 E.00706
;TYPE:Overhang perimeter
;WIDTH:0.4
;HEIGHT:0.4
G1 X118.59 Y119.82 E.02626
G1 X118.524 Y119.797 E.00354
G1 X118.457 Y119.774 E.00359
G1 X118.391 Y119.751 E.00354
G1 X118.324 Y119.728 E.00359
G1 X118.257 Y119.706 E.00357
G1 X118.191 Y119.683 E.00354
G1 X118.255 Y119.654 E.00356
G1 X118.319 Y119.625 E.00356
G1 X118.384 Y119.597 E.00359
G1 X118.448 Y119.568 E.00356
G1 X118.512 Y119.539 E.00356
G1 X118.577 Y119.511 E.00359
G1 X119.004 Y119.472 E.02173
G1 X119.432 Y119.433 E.02178
G1 X119.446 Y119.377 E.00293
G1 X119.46 Y119.321 E.00293
G1 X119.511 Y118.566 E.03835
G1 X119.539 Y118.502 E.00354
G1 X119.568 Y118.438 E.00356
G1 X119.597 Y118.374 E.00356
G1 X119.625 Y118.309 E.00359
G1 X119.654 Y118.245 E.00356
G1 X119.683 Y118.181 E.00356
G1 X119.706 Y118.247 E.00354
G1 X119.728 Y118.314 E.00357
G1 X119.751 Y118.381 E.00359
G1 X119.774 Y118.447 E.00354
G1 X119.797 Y118.514 E.00359
G1 X119.82 Y118.58 E.00354
G1 X119.799 Y119.117 E.02723
;TYPE:External perimeter
;WIDTH:0.422686
;HEIGHT:0.24
G1 F1725.422
G1 X119.788 Y119.407 E.01043
G1 F2532
G1 X119.787 Y119.446 E.0014
;WIDTH:0.451926
G1 F1800.003
G1 X119.776 Y119.714 E.0104
M106 S255
;LAYER_CHANGE
;Z:0.63
;HEIGHT:0.24
;BEFORE_LAYER_CHANGE
G92 E0
;0.63


;WIPE_START
G1 F12000
G1 X119.774 Y119.774 E-.00998
G1 X119.547 Y119.789 E-.03782
G1 X119.397 Y119.798 E-.02498
G1 X119.321 Y119.803 E-.01266
G1 X119.108 Y119.808 E-.03542
;WIPE_END
G1 E-1.87914 F2100
G1 Z.63 F1800
;AFTER_LAYER_CHANGE
;0.63
G1 Z.83
G1 X119.099 Y119.675 F15000
G1 X115.3 Y119.554
G1 X115.685 Y119.538
G1 X115.691 Y119.683
G1 Z.63 F1800
G1 E2 F2100
;TYPE:Overhang perimeter
;WIDTH:0.4
;HEIGHT:0.4
G1 F1500
G1 X115.409 Y119.695 E.0143
;WIPE_START
G1 F12000
G1 X115.691 Y119.683 E-.04692
;WIPE_END
G1 E-1.95308 F2100
G1 Z.83 F1800
G1 X115.685 Y119.538 F15000
G1 X115.942 Y119.527
G1 X116.388 Y119.508
G1 X116.93 Y119.484
G1 X118.645 Y119.406
G1 X119.361 Y119.362
G1 X119.406 Y118.646
G1 X119.484 Y116.931
G1 X119.508 Y116.389
G1 X119.531 Y115.845
G1 X119.549 Y115.404
G1 X119.694 Y115.41
G1 Z.63 F1800
G1 E2 F2100
G1 F1500
G1 X119.683 Y115.679 E.01364
G1 E-2 F2100
G1 Z.83 F1800
G1 X119.715 Y119.715 F15000
G1 Z.63 F1800
G1 E2 F2100
;TYPE:External perimeter
;WIDTH:0.569735
;HEIGHT:0.24
G1 F600
G1 X119.422 Y119.734 E.01473
;WIDTH:0.532096
G1 X119.128 Y119.753 E.0137
;WIDTH:0.494457
G1 X118.138 Y119.775 E.04245
;WIDTH:0.45181
G1 X117.426 Y119.79 E.02759
G1 X117.148 Y119.796 E.01077
;TYPE:Overhang perimeter
;WIDTH:0.4
;HEIGHT:0.4
G1 F1500
G1 X116.09 Y119.82 E.05363
G1 X116.024 Y119.797 E.00354
G1 X115.957 Y119.774 E.00359
G1 X115.891 Y119.751 E.00354
G1 X115.824 Y119.728 E.00359
G1 X115.757 Y119.705 E.00359
G1 X115.691 Y119.683 E.00353
G1 X115.755 Y119.654 E.00356
G1 X115.819 Y119.625 E.00356
G1 X115.884 Y119.597 E.00359
G1 X115.948 Y119.568 E.00356
G1 X116.012 Y119.54 E.00354
G1 X116.077 Y119.511 E.00361
G1 X116.79 Y119.464 E.03621
