; generated by PrusaSlicer 2.9.1 on 2025-05-18 at 09:41:02 UTC

; v1.0.0

; external perimeters extrusion width = 0.42mm
; perimeters extrusion width = 0.44mm
; infill extrusion width = 0.44mm
; solid infill extrusion width = 0.44mm
; top infill extrusion width = 0.40mm
; support material extrusion width = 0.35mm
; first layer extrusion width = 0.42mm

M190 S60 ; set bed temperature and wait for it to be reached
M104 S220 ; set temperature
;TYPE:Custom
G28 ; home all axes
G1 Z0.28 F5000
M109 S220 ; set temperature and wait for it to be reached
G21 ; set units to millimeters
G90 ; use absolute coordinates
M83 ; use relative distances for extrusion
; Filament gcode
M107
;LAYER_CHANGE
;Z:0.15
;HEIGHT:0.15
G1 E-2 F2100
G1 Z.35 F1800
G1 X88.428 Y88.509 F15000
G1 Z.15 F1800
G1 E2 F2100
;TYPE:Skirt/Brim
;WIDTH:0.42
G1 F1080
G1 X89.267 Y87.744 E.02664
G1 X90.168 Y87.105 E.02591
G1 X91.796 Y86.309 E.04251
G1 X92.589 Y86.084 E.01934
G1 X93.674 Y85.898 E.02582
G1 X125.866 Y85.863 E.7552
G1 X127.577 Y86.088 E.04048
G1 X128.941 Y86.56 E.03386
G1 X129.815 Y87.015 E.02312
G1 X130.536 Y87.497 E.02035
G1 X131.606 Y88.408 E.03297
G1 X132.725 Y89.756 E.0411
G1 X133.582 Y91.31 E.04163
G1 X134.039 Y92.786 E.03625
G1 X134.192 Y94.135 E.03185
G1 X134.092 Y95.524 E.03267
G1 X129.291 Y131.525 E.85204
G1 X128.706 Y132.936 E.03583
G1 X127.497 Y133.87 E.03584
G1 X126.522 Y134.096 E.02348
G1 X125.716 Y134.138 E.01893
G1 X95.133 Y134.069 E.71746
G1 X93.657 Y133.673 E.03585
G1 X92.303 Y131.978 E.05089
G1 X89.03 Y121.239 E.26337
G1 X85.961 Y94.925 E.62149
G1 X85.962 Y93.55 E.03226
G1 X86.161 Y92.442 E.02641
G1 X86.613 Y91.147 E.03218
G1 X87.253 Y89.972 E.03139
G1 X88.391 Y88.555 E.04263
M204 T2500
G1 X88.656 Y88.833 F15000
G1 F1080
G1 X89.262 Y88.253 E.01968
G1 X90.386 Y87.426 E.03274
G1 X91.932 Y86.672 E.04035
G1 X93.703 Y86.285 E.04253
G1 X125.848 Y86.251 E.7541
G1 X127.499 Y86.468 E.03906
G1 X128.766 Y86.906 E.03145
G1 X130.318 Y87.817 E.04222
G1 X131.33 Y88.68 E.0312
G1 X132.404 Y89.974 E.03945
G1 X133.225 Y91.462 E.03987
G1 X133.663 Y92.88 E.03482
G1 X133.805 Y94.162 E.03026
G1 X133.708 Y95.473 E.03084
G1 X128.907 Y131.473 E.85201
G1 X128.337 Y132.777 E.03339
G1 X126.499 Y133.709 E.04834
G1 X125.717 Y133.75 E.01837
G1 X95.134 Y133.681 E.71746
G1 X93.767 Y133.286 E.03338
G1 X92.674 Y131.864 E.04207
G1 X89.415 Y121.194 E.26173
G1 X86.347 Y94.88 E.62149
G1 X86.346 Y93.603 E.02996
G1 X86.643 Y92.164 E.03447
G1 X87.135 Y90.951 E.03071
G1 X87.785 Y89.876 E.02947
G1 X88.553 Y88.931 E.02857
G1 X88.612 Y88.874 E.00192
G1 X88.88 Y89.154 F15000
G1 F1080
G1 X89.529 Y88.535 E.02104
G1 X90.605 Y87.746 E.0313
G1 X92.068 Y87.036 E.03815
G1 X93.733 Y86.672 E.03998
G1 X125.83 Y86.638 E.75297
G1 X127.42 Y86.848 E.03762
G1 X128.592 Y87.252 E.02908
G1 X130.099 Y88.137 E.041
G1 X131.054 Y88.952 E.02945
G1 X132.082 Y90.191 E.03777
G1 X132.868 Y91.613 E.03812
G1 X133.287 Y92.974 E.03341
G1 X133.418 Y94.189 E.02867
G1 X133.323 Y95.422 E.02901
G1 X128.522 Y131.422 E.85201
G1 X127.97 Y132.609 E.03071
G1 X126.476 Y133.322 E.03883
G1 X125.718 Y133.363 E.01781
G1 X95.135 Y133.294 E.71746
G1 X93.886 Y132.9 E.03072
G1 X93.044 Y131.749 E.03346
G1 X89.8 Y121.149 E.26005
G1 X86.736 Y94.88 E.62043
G1 X86.731 Y93.655 E.02874
G1 X86.92 Y92.601 E.02512
G1 X87.336 Y91.429 E.02917
G1 X88.091 Y90.115 E.03555
G1 X88.825 Y89.207 E.02739
G1 X88.837 Y89.196 E.00038
;WIPE_START
G1 F12000
G1 X88.88 Y89.154 E-.00999
G1 X89.529 Y88.535 E-.1491
G1 X90.605 Y87.746 E-.22182
G1 X92.068 Y87.036 E-.27035
G1 X93.733 Y86.672 E-.28334
G1 X100.141 Y86.665 E-1.0654
;WIPE_END
G1 Z.35 F1800
G1 X126.142 Y95.897 F15000
G1 Z.15 F1800
G1 E2 F2100
;TYPE:Perimeter
;WIDTH:0.419999
G1 F270
G1 X125.956 Y95.947 E.00452
G1 X125.629 Y95.937 E.00767
G1 X125.065 Y95.784 E.01371
G1 X124.521 Y95.372 E.01601
G1 X124.239 Y94.929 E.01232
G1 X124.111 Y94.44 E.01186
G1 X124.155 Y93.866 E.01351
G1 X124.258 Y93.601 E.00667
G1 X124.526 Y93.212 E.01108
G1 X124.906 Y92.888 E.01171
G1 X125.239 Y92.72 E.00875
G1 X125.649 Y92.631 E.00984
G1 X126.097 Y92.652 E.01052
G1 X126.478 Y92.791 E.00951
G1 X126.867 Y93.059 E.01108
G1 X127.143 Y93.394 E.01018
G1 X127.356 Y93.815 E.01107
G1 X127.403 Y94.144 E.0078
G1 X127.413 Y94.519 E.0088
G1 X127.399 Y94.637 E.00279
G1 X127.225 Y95.075 E.01106
G1 X126.868 Y95.532 E.0136
G1 X126.612 Y95.717 E.00741
G1 X126.338 Y95.845 E.00709
G1 X126.2 Y95.882 E.00335
G1 X126.217 Y96.303 F15000
G1 F270
G1 X126.192 Y96.312 E.00062
G1 X125.817 Y96.352 E.00885
G1 X125.422 Y96.302 E.00934
G1 X124.885 Y96.134 E.0132
G1 X124.231 Y95.639 E.01924
G1 X123.879 Y95.086 E.01538
G1 X123.72 Y94.475 E.01481
G1 X123.773 Y93.78 E.01635
G1 X123.858 Y93.56 E.00553
G1 X124.112 Y93.09 E.01253
G1 X124.39 Y92.787 E.00965
G1 X124.779 Y92.5 E.01134
G1 X125.206 Y92.324 E.01083
G1 X125.635 Y92.243 E.01024
G1 X126.185 Y92.271 E.01292
G1 X126.657 Y92.443 E.01179
G1 X127.132 Y92.771 E.01354
G1 X127.469 Y93.181 E.01245
G1 X127.73 Y93.697 E.01357
G1 X127.823 Y94.346 E.01538
G1 X127.798 Y94.564 E.00515
G1 X127.669 Y95.08 E.01248
G1 X127.475 Y95.418 E.00914
G1 X127.133 Y95.819 E.01236
G1 X126.675 Y96.134 E.01304
G1 X126.274 Y96.282 E.01003
G1 X126.29 Y96.689 F15000
;TYPE:External perimeter
G1 F270
G1 X126.281 Y96.693 E.00023
G1 X125.813 Y96.742 E.01104
G1 X125.339 Y96.682 E.01121
G1 X124.705 Y96.484 E.01558
G1 X123.941 Y95.906 E.02247
G1 X123.519 Y95.243 E.01844
G1 X123.328 Y94.51 E.01777
G1 X123.39 Y93.694 E.0192
G1 X123.496 Y93.42 E.00689
G1 X123.8 Y92.857 E.01501
G1 X124.13 Y92.497 E.01146
G1 X124.719 Y92.096 E.01672
G1 X125.334 Y91.877 E.01531
G1 X125.807 Y91.84 E.01113
G1 X126.274 Y91.891 E.01102
G1 X126.837 Y92.096 E.01406
G1 X127.397 Y92.483 E.01597
G1 X127.796 Y92.968 E.01473
G1 X128.105 Y93.579 E.01606
G1 X128.214 Y94.341 E.01806
G1 X128.183 Y94.609 E.00633
G1 X128.027 Y95.235 E.01513
G1 X127.794 Y95.642 E.011
G1 X127.398 Y96.106 E.01431
G1 X126.842 Y96.485 E.01579
G1 X126.346 Y96.669 E.01241
G1 E-2 F2100
G1 Z.35 F1800
G1 X126.152 Y92.796 F15000
G1 Z.15 F1800
G1 E2 F2100
;TYPE:Solid infill
;WIDTH:0.474759
G1 F360
G1 X126.897 Y93.554 E.02845
G1 X127.074 Y93.904 E.0105
G1 X127.134 Y94.403 E.01346
G1 X125.653 Y92.922 E.05607
G1 X125.537 Y92.931 E.00311
G1 X125.168 Y93.064 E.0105
G1 X126.995 Y94.891 E.06917
G1 X126.918 Y95.025 E.00414
G1 X126.727 Y95.249 E.00788
G1 X124.811 Y93.332 E.07256
G1 X124.659 Y93.498 E.00603
G1 X124.543 Y93.69 E.00601
G1 X126.374 Y95.521 E.06932
G1 X126.036 Y95.646 E.00965
G1 X125.889 Y95.662 E.00396
G1 X124.422 Y94.195 E.05554
G1 X124.405 Y94.413 E.00585
G1 X124.509 Y94.812 E.01104
G1 X124.677 Y95.076 E.00838
G1 X125.353 Y95.752 E.02559
;WIPE_START
G1 F12000
G1 X124.677 Y95.076 E-.15894
G1 X124.509 Y94.812 E-.05202
G1 X124.405 Y94.413 E-.06855
G1 X124.422 Y94.195 E-.03635
G1 X125.889 Y95.662 E-.34491
G1 X126.036 Y95.646 E-.02458
G1 X126.374 Y95.521 E-.05991
G1 X124.543 Y93.69 E-.43049
G1 X124.659 Y93.498 E-.03729
G1 X124.811 Y93.332 E-.03742
G1 X126.727 Y95.249 E-.45059
G1 X126.918 Y95.025 E-.04894
G1 X126.995 Y94.891 E-.02569
G1 X126.041 Y93.937 E-.22432
;WIPE_END
G1 Z.35 F1800
G1 X125.977 Y96.441 F15000
G1 X125.284 Y123.595
G1 X125.766 Y123.778
G1 X125.766 Y124.453
G1 X125.262 Y124.453
G1 Z.15 F1800
G1 E2 F2100
;TYPE:Perimeter
;WIDTH:0.419999
G1 F270
G1 X125.262 Y127.287 E.06648
G1 X124.897 Y127.113 E.00949
G1 X124.459 Y126.708 E.01399
G1 X124.306 Y126.472 E.0066
G1 X124.13 Y125.989 E.01206
G1 X124.127 Y125.46 E.01241
G1 X124.279 Y125.017 E.01099
G1 X124.49 Y124.663 E.00967
G1 X124.788 Y124.373 E.00975
G1 X125.262 Y124.125 E.01255
G1 X125.262 Y124.393 E.00629
G1 X125.65 Y123.855 F15000
G1 F270
G1 X125.65 Y127.752 E.09142
G1 X125.425 Y127.734 E.0053
G1 X125.056 Y127.631 E.00899
G1 X124.747 Y127.478 E.00809
G1 X124.426 Y127.234 E.00946
G1 X124.173 Y126.97 E.00858
G1 X123.923 Y126.588 E.01071
G1 X123.743 Y126.053 E.01324
G1 X123.739 Y125.396 E.01541
G1 X123.948 Y124.789 E.01506
G1 X124.221 Y124.364 E.01185
G1 X124.592 Y124.027 E.01176
G1 X125.049 Y123.791 E.01207
G1 X125.381 Y123.688 E.00815
G1 X125.65 Y123.663 E.00634
G1 X125.65 Y123.795 E.0031
G1 X126.038 Y123.325 F15000
;TYPE:External perimeter
G1 F270
G1 X126.038 Y123.495 E.00399
G1 X126.038 Y128.134 E.10883
G1 X125.395 Y128.121 E.01509
G1 X124.948 Y128.004 E.01084
G1 X124.564 Y127.819 E.01
G1 X124.184 Y127.537 E.0111
G1 X123.887 Y127.232 E.00999
G1 X123.569 Y126.751 E.01353
G1 X123.356 Y126.118 E.01567
G1 X123.35 Y125.333 E.01842
G1 X123.596 Y124.619 E.01772
G1 X123.923 Y124.111 E.01417
G1 X124.369 Y123.706 E.01413
G1 X124.871 Y123.446 E.01326
G1 X125.276 Y123.315 E.00999
G1 X125.789 Y123.264 E.01209
G1 X126.018 Y123.283 E.00539
G1 X124.686 Y124.622 F15000
;TYPE:Solid infill
;WIDTH:0.475373
G1 F360
G1 X124.971 Y124.907 E.01081
G1 X124.971 Y125.534 E.01681
G1 X124.553 Y125.116 E.01585
G1 X124.418 Y125.508 E.01111
G1 X124.419 Y125.608 E.00268
G1 X124.971 Y126.161 E.02095
G1 X124.971 Y126.788 E.01681
G1 X124.294 Y126.111 E.02567
;WIPE_START
G1 F12000
G1 X124.971 Y126.788 E-.15917
G1 X124.971 Y126.161 E-.10424
G1 X124.419 Y125.608 E-.1299
G1 X124.418 Y125.508 E-.01663
G1 X124.553 Y125.116 E-.06893
G1 X124.971 Y125.534 E-.09828
G1 X124.971 Y124.907 E-.10424
G1 X124.686 Y124.622 E-.06701
;WIPE_END
G1 E-1.2516 F2100
G1 Z.35 F1800
G1 X124.265 Y124.165 F15000
G1 X96.022 Y124.348
G1 X93.659 Y124.353
G1 X93.699 Y124.479
G1 X94.18 Y124.33
G1 Z.15 F1800
G1 E2 F2100
;TYPE:Perimeter
;WIDTH:0.419999
G1 F270
G1 X94.101 Y124.076 E.00624
G1 X94.119 Y124.047 E.0008
G1 X94.634 Y124.052 E.01208
G1 X95.121 Y124.241 E.01225
G1 X95.518 Y124.561 E.01196
G1 X95.851 Y124.993 E.0128
G1 X95.99 Y125.485 E.01199
G1 X96.015 Y125.803 E.00748
G1 X95.88 Y126.355 E.01333
G1 X95.613 Y126.782 E.01181
G1 X95.319 Y127.064 E.00956
G1 X95.072 Y127.211 E.00674
G1 X94.198 Y124.388 E.06933
G1 X93.647 Y123.919 F15000
G1 F270
G1 X93.608 Y123.794 E.00307
G1 X94.069 Y123.659 E.01127
G1 X94.596 Y123.664 E.01236
G1 X94.933 Y123.724 E.00803
G1 X95.408 Y123.947 E.01231
G1 X95.858 Y124.328 E.01383
G1 X96.202 Y124.819 E.01406
G1 X96.377 Y125.455 E.01547
G1 X96.406 Y125.827 E.00875
G1 X96.313 Y126.282 E.01089
G1 X96.225 Y126.531 E.0062
G1 X95.928 Y127.009 E.0132
G1 X95.581 Y127.35 E.01141
G1 X95.296 Y127.534 E.00796
G1 X94.818 Y127.702 E.01189
G1 X93.664 Y123.977 E.09148
G1 X93.143 Y123.605 F15000
;TYPE:External perimeter
G1 F270
G1 X93.5 Y123.411 E.00953
G1 X94.02 Y123.271 E.01263
G1 X94.599 Y123.276 E.01358
G1 X95.061 Y123.356 E.011
G1 X95.623 Y123.62 E.01457
G1 X96.135 Y124.048 E.01566
G1 X96.553 Y124.644 E.01708
G1 X96.696 Y125.086 E.0109
G1 X96.763 Y125.424 E.00808
G1 X96.797 Y125.851 E.01005
G1 X96.655 Y126.542 E.01655
G1 X96.49 Y126.867 E.00855
G1 X96.173 Y127.333 E.01322
G1 X95.77 Y127.703 E.01283
G1 X95.348 Y127.936 E.01131
G1 X94.553 Y128.157 E.01936
G1 X93.161 Y123.662 E.11039
G1 X94.754 Y124.2 F15000
;TYPE:Solid infill
;WIDTH:0.426652
G1 F360
G1 X95.374 Y124.819 E.02091
G1 X95.588 Y125.125 E.00891
G1 X95.696 Y125.46 E.0084
G1 X95.717 Y125.721 E.00625
G1 X94.555 Y124.559 E.03921
G1 X94.806 Y125.368 E.02021
G1 X95.635 Y126.196 E.02796
G1 X95.532 Y126.398 E.00541
G1 X95.426 Y126.545 E.00432
G1 X94.792 Y125.912 E.02138
;WIPE_START
G1 F12000
G1 X95.426 Y126.545 E-.14894
G1 X95.532 Y126.398 E-.03013
G1 X95.635 Y126.196 E-.0377
G1 X94.806 Y125.368 E-.19479
G1 X94.555 Y124.559 E-.14082
G1 X95.717 Y125.721 E-.2732
G1 X95.696 Y125.46 E-.04353
G1 X95.588 Y125.125 E-.05852
G1 X95.374 Y124.819 E-.06208
G1 X94.754 Y124.2 E-.14565
;WIPE_END
G1 E-.86464 F2100
G1 Z.35 F1800
G1 X94.951 Y123.617 F15000
G1 X95.797 Y95.903
G1 X96.117 Y95.526
G1 X96.253 Y95.328
G1 X95.829 Y95.036
G1 Z.15 F1800
G1 E2 F2100
;TYPE:Perimeter
;WIDTH:0.419999
G1 F270
G1 X95.596 Y95.364 E.00944
G1 X95.31 Y95.657 E.00961
G1 X94.859 Y95.871 E.01171
G1 X94.372 Y95.964 E.01163
G1 X93.97 Y95.92 E.00949
G1 X93.649 Y95.801 E.00803
G1 X93.407 Y95.634 E.0069
G1 X93.028 Y95.292 E.01198
G1 X92.764 Y94.797 E.01316
G1 X92.683 Y94.349 E.01068
G1 X92.77 Y93.792 E.01323
G1 X93.014 Y93.325 E.01236
G1 X93.432 Y92.911 E.0138
G1 X93.602 Y92.823 E.00449
G1 X94.072 Y92.664 E.01164
G1 X94.6 Y92.641 E.0124
G1 X95.105 Y92.807 E.01247
G1 X95.477 Y93.072 E.01071
G1 X95.686 Y93.337 E.00792
G1 X95.939 Y93.78 E.01197
G1 X96.016 Y94.189 E.00976
G1 X96 Y94.394 E.00482
G1 X95.984 Y94.597 E.00478
G1 X95.858 Y94.985 E.00957
G1 X96.176 Y95.218 F15000
G1 F270
G1 X95.912 Y95.589 E.01068
G1 X95.652 Y95.875 E.00907
G1 X95.193 Y96.169 E.01279
G1 X94.768 Y96.31 E.0105
G1 X94.372 Y96.354 E.00935
G1 X93.88 Y96.3 E.01161
G1 X93.478 Y96.151 E.01006
G1 X93.107 Y95.887 E.01068
G1 X92.712 Y95.523 E.0126
G1 X92.393 Y94.926 E.01588
G1 X92.29 Y94.354 E.01363
G1 X92.396 Y93.669 E.01626
G1 X92.699 Y93.092 E.01529
G1 X93.201 Y92.594 E.01659
G1 X93.528 Y92.425 E.00864
G1 X94.002 Y92.282 E.01161
G1 X94.66 Y92.253 E.01545
G1 X95.285 Y92.459 E.01544
G1 X95.747 Y92.789 E.01332
G1 X96.115 Y93.255 E.01393
G1 X96.31 Y93.657 E.01048
G1 X96.407 Y94.168 E.0122
G1 X96.386 Y94.424 E.00603
G1 X96.367 Y94.673 E.00586
G1 X96.207 Y95.167 E.01218
G1 X96.523 Y95.399 F15000
;TYPE:External perimeter
G1 F270
G1 X96.088 Y96.011 E.01761
G1 X95.759 Y96.294 E.01018
G1 X95.351 Y96.526 E.01101
G1 X94.851 Y96.691 E.01235
G1 X94.373 Y96.745 E.01128
G1 X93.79 Y96.68 E.01376
G1 X93.536 Y96.586 E.00635
G1 X93.151 Y96.405 E.00998
G1 X92.77 Y96.107 E.01135
G1 X92.395 Y95.754 E.01208
G1 X92.023 Y95.055 E.01858
G1 X91.896 Y94.359 E.0166
G1 X92.023 Y93.546 E.0193
G1 X92.383 Y92.859 E.0182
G1 X92.97 Y92.277 E.01939
G1 X93.603 Y91.988 E.01632
G1 X94.129 Y91.865 E.01267
G1 X94.72 Y91.865 E.01386
G1 X95.465 Y92.111 E.01841
G1 X96.018 Y92.505 E.01593
G1 X96.445 Y93.047 E.01619
G1 X96.682 Y93.534 E.01271
G1 X96.798 Y94.147 E.01464
G1 X96.773 Y94.455 E.00725
G1 X96.75 Y94.749 E.00692
G1 X96.555 Y95.349 E.0148
G1 E-2 F2100
G1 Z.35 F1800
G1 X94.201 Y92.759 F15000
G1 Z.15 F1800
G1 E2 F2100
;TYPE:Solid infill
;WIDTH:0.420664
G1 F360
G1 X95.717 Y94.275 E.05038
G1 X95.696 Y94.54 E.00625
G1 X95.632 Y94.739 E.00491
G1 X93.905 Y93.012 E.05739
G1 X93.605 Y93.149 E.00775
G1 X93.549 Y93.205 E.00186
G1 X95.434 Y95.09 E.06264
G1 X95.294 Y95.287 E.00568
G1 X95.18 Y95.385 E.00353
G1 X93.273 Y93.478 E.06338
G1 X93.077 Y93.832 E.00951
G1 X94.822 Y95.577 E.05799
G1 X94.622 Y95.643 E.00495
G1 X94.366 Y95.671 E.00605
G1 X92.833 Y94.138 E.05095
M106 S127.5
;LAYER_CHANGE
;Z:0.39
;HEIGHT:0.24
;BEFORE_LAYER_CHANGE
G92 E0
;0.39


;WIPE_START
G1 F12000
G1 X94.366 Y95.671 E-.36043
G1 X94.622 Y95.643 E-.04281
G1 X94.822 Y95.577 E-.03501
G1 X93.077 Y93.832 E-.41027
G1 X93.273 Y93.478 E-.06727
G1 X95.18 Y95.385 E-.44836
G1 X95.294 Y95.287 E-.02499
G1 X95.434 Y95.09 E-.04018
G1 X93.549 Y93.205 E-.44319
G1 X93.605 Y93.149 E-.01317
G1 X93.905 Y93.012 E-.05483
G1 X94.158 Y93.265 E-.05949
;WIPE_END
G1 Z.39 F1800
;AFTER_LAYER_CHANGE
;0.39
M104 S200 ; set temperature
G1 Z.59
G1 X89.867 Y92.581 F15000
G1 X86.359 Y91.875
G1 Z.39 F1800
G1 E2 F2100
;TYPE:Skirt/Brim
;WIDTH:0.42
G1 F7200
G1 X86.613 Y91.147 E.0275
G1 X87.253 Y89.972 E.04772
G1 X88.428 Y88.509 E.06692
G1 X89.267 Y87.744 E.04049
G1 X90.168 Y87.105 E.0394
G1 X91.796 Y86.309 E.06463
G1 X92.589 Y86.084 E.0294
G1 X93.674 Y85.898 E.03926
G1 X125.866 Y85.863 E1.14815
G1 X127.577 Y86.088 E.06155
G1 X128.941 Y86.56 E.05148
G1 X129.815 Y87.015 E.03514
G1 X130.536 Y87.497 E.03093
G1 X131.606 Y88.408 E.05012
G1 X132.725 Y89.756 E.06248
G1 X133.582 Y91.31 E.06329
G1 X134.039 Y92.786 E.05511
G1 X134.192 Y94.135 E.04842
G1 X134.092 Y95.524 E.04967
G1 X129.291 Y131.525 E1.29536
G1 X128.706 Y132.936 E.05448
G1 X127.497 Y133.87 E.05449
G1 X126.522 Y134.096 E.0357
G1 X125.716 Y134.138 E.02879
G1 X95.133 Y134.069 E1.09076
G1 X93.657 Y133.673 E.0545
G1 X92.303 Y131.978 E.07737
G1 X89.03 Y121.239 E.40041
G1 X85.961 Y94.925 E.94487
G1 X85.962 Y93.55 E.04904
G1 X86.161 Y92.442 E.04015
G1 X86.339 Y91.932 E.01927
G1 X86.68 Y92.071 F15000
G1 F7200
G1 X87.135 Y90.951 E.04312
G1 X87.785 Y89.876 E.0448
G1 X88.553 Y88.931 E.04343
G1 X89.262 Y88.253 E.03499
G1 X90.386 Y87.426 E.04977
G1 X91.932 Y86.672 E.06135
G1 X93.703 Y86.285 E.06465
G1 X125.848 Y86.251 E1.14647
G1 X127.499 Y86.468 E.05939
G1 X128.766 Y86.906 E.04781
