; generated by PrusaSlicer 2.9.1 on 2025-05-18 at 08:12:16 UTC

; v1.0.0

; external perimeters extrusion width = 0.42mm
; perimeters extrusion width = 0.44mm
; infill extrusion width = 0.44mm
; solid infill extrusion width = 0.44mm
; top infill extrusion width = 0.40mm
; support material extrusion width = 0.35mm
; first layer extrusion width = 0.42mm

M190 S60 ; set bed temperature and wait for it to be reached
M104 S220 ; set temperature
;TYPE:Custom
G28 ; home all axes
G1 Z0.28 F5000
M109 S220 ; set temperature and wait for it to be reached
G21 ; set units to millimeters
G90 ; use absolute coordinates
M83 ; use relative distances for extrusion
; Filament gcode
M107
;LAYER_CHANGE
;Z:0.15
;HEIGHT:0.15
G1 E-2 F2100
G1 Z.35 F1800
G1 X93.626 Y84.742 F15000
G1 Z.15 F1800
G1 E2 F2100
;TYPE:Skirt/Brim
;WIDTH:0.42
G1 F1080
G1 X94.702 Y83.657 E.03585
G1 X96.202 Y83.25 E.03646
G1 X126.286 Y83.25 E.70575
G1 X127.763 Y83.643 E.03586
G1 X128.848 Y84.718 E.03583
G1 X129.255 Y86.219 E.03648
G1 X129.255 Y126.361 E.9417
G1 X128.862 Y127.838 E.03586
G1 X127.786 Y128.924 E.03586
G1 X126.29 Y129.331 E.03637
G1 X96.284 Y129.33 E.70392
G1 X94.808 Y128.936 E.03584
G1 X93.645 Y127.729 E.03932
G1 X93.233 Y126.219 E.03672
G1 X93.233 Y86.219 E.93837
G1 X93.61 Y84.8 E.03444
M204 T2500
G1 X93.996 Y84.911 F15000
G1 F1080
G1 X94.013 Y84.851 E.00146
G1 X95.07 Y83.899 E.03337
G1 X96.202 Y83.637 E.02726
G1 X126.286 Y83.637 E.70575
G1 X127.654 Y84.03 E.03339
G1 X128.606 Y85.087 E.03337
G1 X128.868 Y86.219 E.02726
G1 X128.868 Y126.361 E.9417
G1 X128.475 Y127.729 E.03339
G1 X127.418 Y128.682 E.03339
G1 X126.289 Y128.943 E.02718
G1 X96.285 Y128.942 E.70387
G1 X94.917 Y128.55 E.03338
G1 X93.979 Y127.532 E.03247
G1 X93.62 Y126.219 E.03193
G1 X93.62 Y86.219 E.93837
G1 X93.979 Y84.968 E.03053
G1 X94.362 Y85.088 F15000
G1 F1080
G1 X94.399 Y84.969 E.00292
G1 X95.433 Y84.165 E.03073
G1 X96.202 Y84.025 E.01834
G1 X126.286 Y84.025 E.70575
G1 X127.536 Y84.416 E.03073
G1 X128.34 Y85.449 E.03071
G1 X128.48 Y86.219 E.01836
G1 X128.48 Y126.361 E.9417
G1 X128.089 Y127.611 E.03073
G1 X127.055 Y128.416 E.03074
G1 X126.289 Y128.555 E.01826
G1 X96.285 Y128.555 E.70387
G1 X95.035 Y128.163 E.03073
G1 X94.313 Y127.334 E.02579
G1 X94.008 Y126.219 E.02712
G1 X94.008 Y86.219 E.93837
G1 X94.344 Y85.145 E.0264
;WIPE_START
G1 F12000
G1 X94.362 Y85.088 E-.00994
G1 X94.399 Y84.969 E-.02072
G1 X95.433 Y84.165 E-.21775
G1 X96.202 Y84.025 E-.12995
G1 X105.956 Y84.025 E-1.62164
;WIPE_END
G1 Z.35 F1800
G1 X97.393 Y125.173 F15000
G1 Z.15 F1800
G1 E2 F2100
;TYPE:Perimeter
;WIDTH:0.419999
G1 F1080
G1 X97.348 Y125.173 E.00106
G1 X97.348 Y87.305 E.88836
G1 X125.2 Y87.305 E.65339
G1 X125.2 Y101.231 E.32669
G1 X125.2 Y125.173 E.56166
G1 X97.453 Y125.173 E.65092
G1 X96.986 Y125.561 F15000
G1 F1080
G1 X96.96 Y125.561 E.00061
G1 X96.96 Y86.917 E.90656
G1 X125.588 Y86.917 E.67159
G1 X125.588 Y101.231 E.3358
G1 X125.588 Y125.561 E.57076
G1 X97.046 Y125.561 E.66958
G1 X96.579 Y125.948 F15000
;TYPE:External perimeter
G1 F540
G1 X96.573 Y125.948 E.00014
G1 X96.573 Y86.529 E.92474
G1 X125.976 Y86.529 E.68977
G1 X125.976 Y101.231 E.3449
G1 X125.976 Y125.949 E.57987
G1 X96.639 Y125.948 E.68823
G1 E-2 F2100
G1 Z.35 F1800
G1 X124.299 Y87.421 F15000
G1 Z.15 F1800
G1 E2 F2100
;TYPE:Solid infill
;WIDTH:0.420399
G1 F360
G1 X124.909 Y88.031 E.02026
G1 X124.909 Y88.58 E.01289
G1 X123.925 Y87.596 E.03268
G1 X123.376 Y87.596 E.01289
G1 X124.909 Y89.129 E.05091
G1 X124.909 Y89.678 E.01289
G1 X122.827 Y87.596 E.06914
G1 X122.278 Y87.596 E.01289
G1 X124.909 Y90.227 E.08738
G1 X124.909 Y90.776 E.01289
G1 X121.728 Y87.596 E.10563
G1 X121.179 Y87.596 E.01289
G1 X124.909 Y91.325 E.12386
G1 X124.909 Y91.874 E.01289
G1 X120.63 Y87.596 E.14209
G1 X120.081 Y87.596 E.01289
G1 X124.909 Y92.423 E.16032
G1 X124.909 Y92.972 E.01289
G1 X119.532 Y87.596 E.17856
G1 X118.983 Y87.596 E.01289
G1 X124.909 Y93.521 E.19679
G1 X124.909 Y94.07 E.01289
G1 X118.434 Y87.596 E.21502
G1 X117.885 Y87.596 E.01289
G1 X124.909 Y94.619 E.23326
G1 X124.909 Y95.168 E.01289
G1 X117.336 Y87.596 E.25149
G1 X116.787 Y87.596 E.01289
G1 X124.909 Y95.717 E.26972
G1 X124.909 Y96.266 E.01289
G1 X116.238 Y87.596 E.28795
G1 X115.689 Y87.596 E.01289
G1 X124.909 Y96.815 E.30619
G1 X124.909 Y97.364 E.01289
G1 X115.14 Y87.596 E.32442
G1 X114.591 Y87.596 E.01289
G1 X124.909 Y97.914 E.34267
G1 X124.909 Y98.463 E.01289
G1 X114.042 Y87.596 E.3609
G1 X113.493 Y87.596 E.01289
G1 X124.909 Y99.012 E.37913
G1 X124.909 Y99.561 E.01289
G1 X112.944 Y87.596 E.39737
G1 X112.395 Y87.596 E.01289
G1 X124.909 Y100.11 E.4156
G1 X124.909 Y100.659 E.01289
G1 X111.846 Y87.596 E.43383
G1 X111.297 Y87.596 E.01289
G1 X124.909 Y101.208 E.45206
G1 X124.909 Y101.757 E.01289
G1 X110.748 Y87.596 E.4703
G1 X110.199 Y87.596 E.01289
G1 X124.909 Y102.306 E.48853
G1 X124.909 Y102.855 E.01289
G1 X109.65 Y87.596 E.50676
G1 X109.101 Y87.596 E.01289
G1 X124.909 Y103.404 E.52499
G1 X124.909 Y103.953 E.01289
G1 X108.552 Y87.596 E.54323
G1 X108.003 Y87.596 E.01289
G1 X124.909 Y104.502 E.56146
G1 X124.909 Y105.051 E.01289
G1 X107.454 Y87.596 E.57969
G1 X106.905 Y87.596 E.01289
G1 X124.909 Y105.6 E.59792
G1 X124.909 Y106.149 E.01289
G1 X106.356 Y87.596 E.61616
G1 X105.807 Y87.596 E.01289
G1 X124.909 Y106.698 E.63439
G1 X124.909 Y107.247 E.01289
G1 X105.258 Y87.596 E.65262
G1 X104.709 Y87.596 E.01289
G1 X124.909 Y107.796 E.67086
G1 X124.909 Y108.345 E.01289
G1 X104.16 Y87.596 E.68909
G1 X103.611 Y87.596 E.01289
G1 X124.909 Y108.894 E.70732
G1 X124.909 Y109.443 E.01289
G1 X103.062 Y87.596 E.72555
G1 X102.513 Y87.596 E.01289
G1 X124.909 Y109.992 E.74379
G1 X124.909 Y110.541 E.01289
G1 X101.964 Y87.596 E.76202
G1 X101.415 Y87.596 E.01289
G1 X124.909 Y111.09 E.78025
G1 X124.909 Y111.639 E.01289
G1 X100.866 Y87.596 E.79848
G1 X100.317 Y87.596 E.01289
G1 X124.909 Y112.188 E.81672
G1 X124.909 Y112.737 E.01289
G1 X99.768 Y87.596 E.83495
G1 X99.219 Y87.596 E.01289
G1 X124.909 Y113.286 E.85318
G1 X124.909 Y113.835 E.01289
G1 X98.67 Y87.596 E.87141
G1 X98.121 Y87.596 E.01289
G1 X124.909 Y114.384 E.88965
G1 X124.909 Y114.933 E.01289
G1 X97.639 Y87.663 E.90565
G1 X97.639 Y88.212 E.01289
G1 X124.909 Y115.482 E.90565
G1 X124.909 Y116.031 E.01289
G1 X97.639 Y88.761 E.90565
G1 X97.639 Y89.31 E.01289
G1 X124.909 Y116.58 E.90565
G1 X124.909 Y117.129 E.01289
G1 X97.639 Y89.859 E.90565
G1 X97.639 Y90.408 E.01289
G1 X124.909 Y117.678 E.90565
G1 X124.909 Y118.227 E.01289
G1 X97.639 Y90.957 E.90565
G1 X97.639 Y91.506 E.01289
G1 X124.909 Y118.776 E.90565
G1 X124.909 Y119.325 E.01289
G1 X97.639 Y92.055 E.90565
G1 X97.639 Y92.604 E.01289
G1 X124.909 Y119.874 E.90565
G1 X124.909 Y120.423 E.01289
G1 X97.639 Y93.153 E.90565
G1 X97.639 Y93.702 E.01289
G1 X124.909 Y120.972 E.90565
G1 X124.909 Y121.521 E.01289
G1 X97.639 Y94.251 E.90565
G1 X97.639 Y94.8 E.01289
G1 X124.909 Y122.07 E.90565
G1 X124.909 Y122.619 E.01289
G1 X97.639 Y95.349 E.90565
G1 X97.639 Y95.898 E.01289
G1 X124.909 Y123.168 E.90565
G1 X124.909 Y123.717 E.01289
G1 X97.639 Y96.447 E.90565
G1 X97.639 Y96.996 E.01289
G1 X124.909 Y124.266 E.90565
G1 X124.909 Y124.815 E.01289
G1 X97.639 Y97.545 E.90565
G1 X97.639 Y98.094 E.01289
G1 X124.428 Y124.882 E.88966
G1 X123.879 Y124.882 E.01289
G1 X97.639 Y98.643 E.87143
G1 X97.639 Y99.192 E.01289
G1 X123.329 Y124.882 E.85318
G1 X122.78 Y124.882 E.01289
G1 X97.639 Y99.741 E.83495
G1 X97.639 Y100.29 E.01289
G1 X122.231 Y124.882 E.81672
G1 X121.682 Y124.882 E.01289
G1 X97.639 Y100.839 E.79848
G1 X97.639 Y101.388 E.01289
G1 X121.133 Y124.882 E.78025
G1 X120.584 Y124.882 E.01289
G1 X97.639 Y101.937 E.76202
G1 X97.639 Y102.486 E.01289
G1 X120.035 Y124.882 E.74379
G1 X119.486 Y124.882 E.01289
G1 X97.639 Y103.035 E.72555
G1 X97.639 Y103.584 E.01289
G1 X118.937 Y124.882 E.70732
G1 X118.388 Y124.882 E.01289
G1 X97.639 Y104.133 E.68909
G1 X97.639 Y104.682 E.01289
G1 X117.839 Y124.882 E.67086
G1 X117.29 Y124.882 E.01289
G1 X97.639 Y105.231 E.65262
G1 X97.639 Y105.78 E.01289
G1 X116.741 Y124.882 E.63439
G1 X116.192 Y124.882 E.01289
G1 X97.639 Y106.329 E.61616
G1 X97.639 Y106.878 E.01289
G1 X115.643 Y124.882 E.59792
G1 X115.094 Y124.882 E.01289
G1 X97.639 Y107.427 E.57969
G1 X97.639 Y107.976 E.01289
G1 X114.545 Y124.882 E.56146
G1 X113.996 Y124.882 E.01289
G1 X97.639 Y108.525 E.54323
G1 X97.639 Y109.074 E.01289
G1 X113.447 Y124.882 E.52499
G1 X112.898 Y124.882 E.01289
G1 X97.639 Y109.623 E.50676
G1 X97.639 Y110.172 E.01289
G1 X112.349 Y124.882 E.48853
G1 X111.8 Y124.882 E.01289
G1 X97.639 Y110.721 E.4703
G1 X97.639 Y111.27 E.01289
G1 X111.251 Y124.882 E.45206
G1 X110.702 Y124.882 E.01289
G1 X97.639 Y111.819 E.43383
G1 X97.639 Y112.368 E.01289
G1 X110.153 Y124.882 E.4156
G1 X109.604 Y124.882 E.01289
G1 X97.639 Y112.917 E.39737
G1 X97.639 Y113.466 E.01289
G1 X109.055 Y124.882 E.37913
G1 X108.506 Y124.882 E.01289
G1 X97.639 Y114.015 E.3609
G1 X97.639 Y114.564 E.01289
G1 X107.957 Y124.882 E.34267
G1 X107.408 Y124.882 E.01289
G1 X97.639 Y115.113 E.32443
G1 X97.639 Y115.662 E.01289
G1 X106.859 Y124.882 E.3062
G1 X106.31 Y124.882 E.01289
G1 X97.639 Y116.211 E.28797
G1 X97.639 Y116.76 E.01289
G1 X105.761 Y124.882 E.26974
G1 X105.212 Y124.882 E.01289
G1 X97.639 Y117.309 E.2515
G1 X97.639 Y117.858 E.01289
G1 X104.663 Y124.882 E.23327
G1 X104.114 Y124.882 E.01289
G1 X97.639 Y118.407 E.21504
G1 X97.639 Y118.956 E.01289
G1 X103.565 Y124.882 E.19681
G1 X103.016 Y124.882 E.01289
G1 X97.639 Y119.505 E.17857
G1 X97.639 Y120.054 E.01289
G1 X102.467 Y124.882 E.16034
G1 X101.918 Y124.882 E.01289
G1 X97.639 Y120.603 E.14211
G1 X97.639 Y121.152 E.01289
G1 X101.369 Y124.882 E.12388
G1 X100.82 Y124.882 E.01289
G1 X97.639 Y121.701 E.10564
G1 X97.639 Y122.25 E.01289
G1 X100.271 Y124.882 E.08741
G1 X99.722 Y124.882 E.01289
G1 X97.639 Y122.799 E.06918
G1 X97.639 Y123.348 E.01289
G1 X99.173 Y124.882 E.05095
G1 X98.624 Y124.882 E.01289
G1 X97.639 Y123.897 E.03271
G1 X97.639 Y124.446 E.01289
G1 X98.249 Y125.057 E.02028
M106 S127.5
;LAYER_CHANGE
;Z:0.39
;HEIGHT:0.24
;BEFORE_LAYER_CHANGE
G92 E0
;0.39


;WIPE_START
G1 F12000
G1 X97.639 Y124.446 E-.14354
G1 X97.639 Y123.897 E-.09127
G1 X98.624 Y124.882 E-.23159
G1 X99.173 Y124.882 E-.09127
G1 X97.639 Y123.348 E-.36066
G1 X97.639 Y122.799 E-.09127
G1 X99.722 Y124.882 E-.48974
G1 X100.271 Y124.882 E-.09127
G1 X98.53 Y123.141 E-.40939
;WIPE_END
G1 Z.39 F1800
;AFTER_LAYER_CHANGE
;0.39
M104 S200 ; set temperature
G1 Z.59
G1 X98.41 Y125.778 F15000
G1 X98.249 Y129.33
G1 Z.39 F1800
G1 E2 F2100
;TYPE:Skirt/Brim
;WIDTH:0.42
G1 F7200
G1 X96.284 Y129.33 E.07008
G1 X94.808 Y128.936 E.05449
G1 X93.645 Y127.729 E.05978
G1 X93.233 Y126.219 E.05582
G1 X93.233 Y86.219 E1.42662
G1 X93.626 Y84.742 E.05451
G1 X94.702 Y83.657 E.0545
G1 X96.202 Y83.25 E.05543
G1 X126.286 Y83.25 E1.07296
G1 X127.763 Y83.643 E.05451
G1 X128.848 Y84.718 E.05447
G1 X129.255 Y86.219 E.05547
G1 X129.255 Y126.361 E1.43169
G1 X128.862 Y127.838 E.05451
G1 X127.786 Y128.924 E.05452
G1 X126.29 Y129.331 E.0553
G1 X98.309 Y129.33 E.99796
G1 X98.309 Y128.942 F15000
G1 F7200
G1 X96.285 Y128.942 E.07219
G1 X94.917 Y128.55 E.05075
G1 X93.979 Y127.532 E.04937
G1 X93.62 Y126.219 E.04855
G1 X93.62 Y86.219 E1.42662
G1 X94.013 Y84.851 E.05076
G1 X95.07 Y83.899 E.05073
G1 X96.202 Y83.637 E.04144
G1 X126.286 Y83.637 E1.07296
G1 X127.654 Y84.03 E.05076
G1 X128.606 Y85.087 E.05073
G1 X128.868 Y86.219 E.04144
G1 X128.868 Y126.361 E1.43169
G1 X128.475 Y127.729 E.05076
G1 X127.418 Y128.682 E.05076
G1 X126.289 Y128.943 E.04133
G1 X98.369 Y128.942 E.99578
G1 X98.369 Y128.555 F15000
G1 F7200
G1 X96.285 Y128.555 E.07433
G1 X95.035 Y128.163 E.04672
G1 X94.313 Y127.334 E.03921
G1 X94.008 Y126.219 E.04123
G1 X94.008 Y86.219 E1.42662
G1 X94.399 Y84.969 E.04671
G1 X95.433 Y84.165 E.04671
G1 X96.202 Y84.025 E.02788
G1 X126.286 Y84.025 E1.07296
G1 X127.536 Y84.416 E.04671
G1 X128.34 Y85.449 E.04669
G1 X128.48 Y86.219 E.02791
G1 X128.48 Y126.361 E1.43169
G1 X128.089 Y127.611 E.04671
G1 X127.055 Y128.416 E.04674
G1 X126.289 Y128.555 E.02777
G1 X98.429 Y128.555 E.99364
;WIPE_START
G1 F12000
G1 X98.369 Y128.555 E-.00998
G1 X96.285 Y128.555 E-.34647
G1 X95.035 Y128.163 E-.21779
G1 X94.313 Y127.334 E-.18276
G1 X94.008 Y126.219 E-.19218
G1 X94.008 Y119.898 E-1.05082
;WIPE_END
G1 Z.59 F1800
G1 X96.785 Y124.249 F15000
G1 X97.365 Y125.778
G1 X97.509 Y125.778
G1 X97.509 Y125.384
G1 Z.39 F1800
G1 E2 F2100
;TYPE:Perimeter
;WIDTH:0.439999
G1 F6447.42
G1 X97.179 Y125.384 E.01241
G1 F7176.736
G1 X97.179 Y87.196 E1.43592
G1 F7200
G1 X125.309 Y87.196 E1.05772
G1 X125.309 Y125.384 E1.43592
G1 F6447.42
G1 X97.569 Y125.384 E1.04306
G1 X96.96 Y125.772 F15000
G1 F6277.861
G1 X96.791 Y125.772 E.00635
G1 F7172.744
G1 X96.791 Y86.808 E1.4651
G1 F7200
G1 X125.697 Y86.808 E1.0869
G1 X125.697 Y125.773 E1.46513
G1 F6277.861
G1 X97.02 Y125.772 E1.07829
G1 X96.483 Y126.151 F15000
;TYPE:External perimeter
;WIDTH:0.419999
G1 F3600
G1 X96.481 Y126.151 E.00007
G1 X96.412 Y126.057 E.00416
G1 X96.412 Y125.367 E.02461
G1 X96.412 Y87.119 E1.36413
G1 X96.412 Y86.429 E.02461
G1 X97.103 Y86.429 E.02464
G1 X126.076 Y86.429 E1.03334
G1 X126.076 Y125.419 E1.3906
G1 X126.076 Y126.151 E.02611
G1 X97.213 Y126.151 E1.02941
G1 X96.543 Y126.151 E.0239
G1 E-2 F2100
G1 Z.59 F1800
G1 X97.576 Y87.519 F15000
G1 Z.39 F1800
G1 E2 F2100
;TYPE:Solid infill
;WIDTH:0.534256
G1 F2400
G1 X97.533 Y87.476 E.00284
G1 X97.475 Y87.492 E.00281
G1 X97.459 Y87.55 E.00281
G1 X97.502 Y87.593 E.00284
G1 X97.56 Y87.577 E.00281
;WIDTH:0.439999
G1 X98.181 Y87.487 E.02359
G1 X97.346 Y88.336 E.04478
;WIDTH:0.391504
G1 X97.275 Y88.317 E.00242
G1 X97.294 Y88.388 E.00242
G1 X97.335 Y88.377 E.0014
;WIDTH:0.439999
G1 X97.471 Y88.747 E.01482
G1 X98.73 Y87.487 E.06698
G1 X99.28 Y87.487 E.02068
G1 X97.471 Y89.297 E.09622
G1 X97.471 Y89.846 E.02064
G1 X99.829 Y87.487 E.12542
G1 X100.379 Y87.487 E.02068
G1 X97.471 Y90.395 E.15464
G1 X97.471 Y90.945 E.02068
G1 X100.928 Y87.487 E.18386
G1 X101.477 Y87.487 E.02064
G1 X97.471 Y91.494 E.21305
G1 X97.471 Y92.044 E.02068
G1 X102.027 Y87.487 E.2423
G1 X102.576 Y87.487 E.02064
G1 X97.471 Y92.593 E.27149
G1 X97.471 Y93.142 E.02064
G1 X103.126 Y87.487 E.30071
G1 X103.675 Y87.487 E.02064
G1 X97.471 Y93.692 E.32993
G1 X97.471 Y94.241 E.02064
G1 X104.224 Y87.487 E.35913
G1 X104.774 Y87.487 E.02068
G1 X97.471 Y94.791 E.38837
G1 X97.471 Y95.34 E.02064
G1 X105.323 Y87.487 E.41757
G1 X105.873 Y87.487 E.02068
G1 X97.471 Y95.89 E.44681
G1 X97.471 Y96.439 E.02064
G1 X106.422 Y87.487 E.47601
G1 X106.972 Y87.487 E.02068
G1 X97.471 Y96.988 E.50523
G1 X97.471 Y97.538 E.02068
G1 X107.521 Y87.487 E.53445
G1 X108.07 Y87.487 E.02064
G1 X97.471 Y98.087 E.56364
G1 X97.471 Y98.637 E.02068
G1 X108.62 Y87.487 E.59289
G1 X109.169 Y87.487 E.02064
G1 X97.471 Y99.186 E.62208
G1 X97.471 Y99.735 E.02064
G1 X109.719 Y87.487 E.6513
G1 X110.268 Y87.487 E.02064
G1 X97.471 Y100.285 E.68052
G1 X97.471 Y100.834 E.02064
G1 X110.817 Y87.487 E.70972
G1 X111.367 Y87.487 E.02068
G1 X97.471 Y101.384 E.73896
G1 X97.471 Y101.933 E.02064
G1 X111.916 Y87.487 E.76816
G1 X112.466 Y87.487 E.02068
G1 X97.471 Y102.483 E.7974
G1 X97.471 Y103.032 E.02064
G1 X113.015 Y87.487 E.8266
G1 X113.564 Y87.487 E.02064
G1 X97.471 Y103.581 E.85579
G1 X97.471 Y104.131 E.02068
G1 X114.114 Y87.487 E.88504
G1 X114.663 Y87.487 E.02064
G1 X97.471 Y104.68 E.91423
G1 X97.471 Y105.23 E.02068
G1 X115.213 Y87.487 E.94348
G1 X115.762 Y87.487 E.02064
G1 X97.471 Y105.779 E.97267
G1 X97.471 Y106.328 E.02064
G1 X116.312 Y87.487 E1.00189
G1 X116.861 Y87.487 E.02064
G1 X97.471 Y106.878 E1.03111
G1 X97.471 Y107.427 E.02064
G1 X117.41 Y87.487 E1.06031
G1 X117.96 Y87.487 E.02068
G1 X97.471 Y107.977 E1.08955
G1 X97.471 Y108.526 E.02064
G1 X118.509 Y87.487 E1.11875
G1 X119.059 Y87.487 E.02068
G1 X97.471 Y109.076 E1.14799
G1 X97.471 Y109.625 E.02064
G1 X119.608 Y87.487 E1.17719
G1 X120.157 Y87.487 E.02064
G1 X97.471 Y110.174 E1.20638
G1 X97.471 Y110.724 E.02068
G1 X120.707 Y87.487 E1.23563
G1 X121.256 Y87.487 E.02064
G1 X97.471 Y111.273 E1.26482
G1 X97.471 Y111.823 E.02068
G1 X121.806 Y87.487 E1.29407
G1 X122.355 Y87.487 E.02064
G1 X97.471 Y112.372 E1.32326
G1 X97.471 Y112.921 E.02064
G1 X122.905 Y87.487 E1.35248
