; generated by PrusaSlicer 2.9.1 on 2025-05-18 at 09:11:26 UTC

; v1.0.0

; external perimeters extrusion width = 0.42mm
; perimeters extrusion width = 0.44mm
; infill extrusion width = 0.44mm
; solid infill extrusion width = 0.44mm
; top infill extrusion width = 0.40mm
; support material extrusion width = 0.35mm
; first layer extrusion width = 0.42mm

M190 S60 ; set bed temperature and wait for it to be reached
M104 S220 ; set temperature
;TYPE:Custom
G28 ; home all axes
G1 Z0.28 F5000
M109 S220 ; set temperature and wait for it to be reached
G21 ; set units to millimeters
G90 ; use absolute coordinates
M83 ; use relative distances for extrusion
; Filament gcode
M107
;LAYER_CHANGE
;Z:0.15
;HEIGHT:0.15
G1 E-2 F2100
G1 Z.35 F1800
G1 X105.179 Y104.434 F15000
G1 Z.15 F1800
G1 E2 F2100
;TYPE:Skirt/Brim
;WIDTH:0.42
G1 F1080
G1 X107.377 Y103.684 E.05448
G1 X112.583 Y103.683 E.12213
G1 X114.255 Y104.083 E.04033
G1 X115.572 Y105.188 E.04033
G1 X116.316 Y107.355 E.05375
G1 X116.317 Y112.585 E.12269
G1 X115.916 Y114.257 E.04034
G1 X114.81 Y115.574 E.04035
G1 X112.583 Y116.317 E.05507
G1 X107.377 Y116.316 E.12213
G1 X105.71 Y115.899 E.04031
G1 X104.404 Y114.78 E.04035
G1 X103.683 Y112.571 E.05451
G1 X103.683 Y107.429 E.12063
G1 X104.078 Y105.755 E.04035
G1 X105.14 Y104.481 E.03891
M204 T2500
G1 X105.45 Y104.759 F15000
G1 F1080
G1 X105.555 Y104.643 E.00367
G1 X107.383 Y104.072 E.04493
G1 X112.581 Y104.071 E.12194
G1 X114.158 Y104.47 E.03816
G1 X115.363 Y105.563 E.03817
G1 X115.928 Y107.362 E.04424
G1 X115.929 Y112.584 E.1225
G1 X115.529 Y114.16 E.03814
G1 X114.435 Y115.364 E.03816
G1 X112.581 Y115.929 E.04547
G1 X107.383 Y115.928 E.12194
G1 X105.81 Y115.513 E.03816
G1 X104.617 Y114.407 E.03816
G1 X104.071 Y112.571 E.04494
G1 X104.071 Y107.429 E.12063
G1 X104.465 Y105.85 E.03818
G1 X105.409 Y104.804 E.03305
G1 X105.702 Y105.094 F15000
G1 F1080
G1 X105.928 Y104.866 E.00753
G1 X107.388 Y104.459 E.03556
G1 X112.58 Y104.459 E.1218
G1 X114.056 Y104.857 E.03586
G1 X115.138 Y105.936 E.03585
G1 X115.54 Y107.37 E.03494
G1 X115.541 Y112.582 E.12227
G1 X115.142 Y114.058 E.03587
G1 X114.063 Y115.139 E.03583
G1 X112.58 Y115.541 E.03605
G1 X107.388 Y115.541 E.1218
G1 X105.917 Y115.127 E.03585
G1 X104.846 Y114.037 E.03585
G1 X104.459 Y112.571 E.03557
G1 X104.459 Y107.429 E.12063
G1 X104.852 Y105.952 E.03586
G1 X105.66 Y105.137 E.02692
G1 X105.931 Y105.438 F15000
G1 F1080
G1 X106.297 Y105.108 E.01156
G1 X107.393 Y104.847 E.02643
G1 X112.579 Y104.847 E.12166
G1 X113.946 Y105.243 E.03339
G1 X114.895 Y106.304 E.03339
G1 X115.153 Y107.378 E.02591
G1 X115.153 Y112.581 E.12206
G1 X114.756 Y113.947 E.03337
G1 X113.695 Y114.896 E.03339
G1 X112.579 Y115.153 E.02687
G1 X107.393 Y115.153 E.12166
G1 X106.031 Y114.742 E.03337
G1 X105.093 Y113.672 E.03338
G1 X104.847 Y112.571 E.02647
G1 X104.847 Y107.429 E.12063
G1 X105.239 Y106.061 E.03338
G1 X105.886 Y105.478 E.02043
G1 X106.128 Y105.788 F15000
G1 F1080
G1 X106.659 Y105.374 E.0158
G1 X107.399 Y105.235 E.01766
G1 X112.578 Y105.235 E.1215
G1 X113.827 Y105.629 E.03072
G1 X114.628 Y106.665 E.03072
G1 X114.765 Y107.385 E.01719
G1 X114.765 Y112.579 E.12185
G1 X114.37 Y113.828 E.03073
G1 X113.334 Y114.629 E.03072
G1 X112.578 Y114.765 E.01802
G1 X107.399 Y114.765 E.1215
G1 X106.154 Y114.357 E.03074
G1 X105.364 Y113.313 E.03071
G1 X105.235 Y112.571 E.01767
G1 X105.235 Y107.429 E.12063
G1 X105.626 Y106.179 E.03073
G1 X106.08 Y105.825 E.01351
;WIPE_START
G1 F12000
G1 X106.128 Y105.788 E-.01008
G1 X106.659 Y105.374 E-.11194
G1 X107.399 Y105.235 E-.12518
G1 X112.578 Y105.235 E-.86101
G1 X113.827 Y105.629 E-.21773
G1 X114.628 Y106.665 E-.21771
G1 X114.765 Y107.385 E-.12185
G1 X114.765 Y109.397 E-.3345
;WIPE_END
G1 Z.35 F1800
G1 X110.227 Y110.227 F15000
G1 Z.15 F1800
G1 E2 F2100
;TYPE:Perimeter
;WIDTH:0.485756
G1 F270
G1 X109.773 Y110.227 E.01246
G1 X109.773 Y109.773 E.01246
G1 X110.227 Y109.773 E.01246
G1 X110.227 Y110 E.00623
G1 X110.227 Y110.167 E.00458
G1 X110.647 Y110.647 F15000
;WIDTH:0.419999
G1 F270
G1 X109.353 Y110.647 E.03036
G1 X109.353 Y109.353 E.03036
G1 X110.647 Y109.353 E.03036
G1 X110.647 Y110 E.01518
G1 X110.647 Y110.587 E.01377
G1 X111.035 Y111.035 F15000
;TYPE:External perimeter
G1 F270
G1 X108.965 Y111.035 E.04856
G1 X108.965 Y108.965 E.04856
G1 X111.035 Y108.965 E.04856
G1 X111.035 Y110 E.02428
G1 X111.035 Y110.975 E.02287
M106 S127.5
;LAYER_CHANGE
;Z:0.39
;HEIGHT:0.24
;BEFORE_LAYER_CHANGE
G92 E0
;0.39


;WIPE_START
G1 F12000
G1 X111.035 Y111.035 E-.00997
G1 X108.965 Y111.035 E-.34414
G1 X108.965 Y108.965 E-.34414
G1 X111.035 Y108.965 E-.34414
G1 X111.035 Y110 E-.17207
G1 X111.035 Y110.975 E-.16209
;WIPE_END
G1 E-.62345 F2100
G1 Z.39 F1800
;AFTER_LAYER_CHANGE
;0.39
M104 S200 ; set temperature
G1 Z.59
G1 X111.994 Y110.975 F15000
G1 X116.316 Y110.975
G1 Z.39 F1800
G1 E2 F2100
;TYPE:Skirt/Brim
;WIDTH:0.42
G1 F1648
G1 X116.317 Y112.585 E.05742
G1 X115.916 Y114.257 E.06132
G1 X114.81 Y115.574 E.06134
G1 X112.583 Y116.317 E.08373
G1 X107.377 Y116.316 E.18567
G1 X105.71 Y115.899 E.06129
G1 X104.404 Y114.78 E.06134
G1 X103.683 Y112.571 E.08288
G1 X103.683 Y107.429 E.18339
G1 X104.078 Y105.755 E.06134
G1 X105.179 Y104.434 E.06133
G1 X107.377 Y103.684 E.08283
G1 X112.583 Y103.683 E.18567
G1 X114.255 Y104.083 E.06132
G1 X115.572 Y105.188 E.06131
G1 X116.316 Y107.355 E.08172
G1 X116.316 Y110.915 E.12697
G1 X115.929 Y110.915 F15000
G1 F1648
G1 X115.929 Y112.584 E.05953
G1 X115.529 Y114.16 E.05799
G1 X114.435 Y115.364 E.05802
G1 X112.581 Y115.929 E.06913
G1 X107.383 Y115.928 E.18539
G1 X105.81 Y115.513 E.05802
G1 X104.617 Y114.407 E.05802
G1 X104.071 Y112.571 E.06832
G1 X104.071 Y107.429 E.18339
G1 X104.465 Y105.85 E.05804
G1 X105.555 Y104.643 E.058
G1 X107.383 Y104.072 E.0683
G1 X112.581 Y104.071 E.18539
G1 X114.158 Y104.47 E.05802
G1 X115.363 Y105.563 E.05802
G1 X115.928 Y107.362 E.06725
G1 X115.929 Y110.855 E.12458
G1 X115.541 Y110.855 F15000
G1 F1648
G1 X115.541 Y112.582 E.06159
G1 X115.142 Y114.058 E.05453
G1 X114.063 Y115.139 E.05447
G1 X112.58 Y115.541 E.0548
G1 X107.388 Y115.541 E.18518
G1 X105.917 Y115.127 E.0545
G1 X104.846 Y114.037 E.0545
G1 X104.459 Y112.571 E.05408
G1 X104.459 Y107.429 E.18339
G1 X104.852 Y105.952 E.05451
G1 X105.928 Y104.866 E.05452
G1 X107.388 Y104.459 E.05406
G1 X112.58 Y104.459 E.18518
G1 X114.056 Y104.857 E.05452
G1 X115.138 Y105.936 E.0545
G1 X115.54 Y107.37 E.05312
G1 X115.541 Y110.795 E.12215
G1 X115.153 Y110.795 F15000
G1 F1648
G1 X115.153 Y112.581 E.0637
G1 X114.756 Y113.947 E.05074
G1 X113.695 Y114.896 E.05077
G1 X112.579 Y115.153 E.04084
G1 X107.393 Y115.153 E.18496
G1 X106.031 Y114.742 E.05074
G1 X105.093 Y113.672 E.05075
G1 X104.847 Y112.571 E.04024
G1 X104.847 Y107.429 E.18339
G1 X105.239 Y106.061 E.05075
G1 X106.297 Y105.108 E.05079
G1 X107.393 Y104.847 E.04018
G1 X112.579 Y104.847 E.18496
G1 X113.946 Y105.243 E.05076
G1 X114.895 Y106.304 E.05077
G1 X115.153 Y107.378 E.03939
G1 X115.153 Y110.735 E.11973
G1 X114.765 Y110.735 F15000
G1 F1648
G1 X114.765 Y112.579 E.06577
G1 X114.37 Y113.828 E.04672
G1 X113.334 Y114.629 E.04671
G1 X112.578 Y114.765 E.0274
G1 X107.399 Y114.765 E.18471
G1 X106.154 Y114.357 E.04673
G1 X105.364 Y113.313 E.04669
G1 X105.235 Y112.571 E.02686
G1 X105.235 Y107.429 E.18339
G1 X105.626 Y106.179 E.04671
G1 X106.659 Y105.374 E.04671
G1 X107.399 Y105.235 E.02685
G1 X112.578 Y105.235 E.18471
G1 X113.827 Y105.629 E.04671
G1 X114.628 Y106.665 E.04671
G1 X114.765 Y107.385 E.02614
G1 X114.765 Y110.675 E.11734
;WIPE_START
G1 F12000
G1 X114.765 Y110.735 E-.00998
G1 X114.765 Y112.579 E-.30657
G1 X114.37 Y113.828 E-.21778
G1 X113.334 Y114.629 E-.21771
G1 X112.578 Y114.765 E-.1277
G1 X107.399 Y114.765 E-.86101
G1 X106.154 Y114.357 E-.21781
G1 X106.004 Y114.158 E-.04144
;WIPE_END
G1 Z.59 F1800
G1 X108.111 Y111.993 F15000
G1 X111.999 Y108.01
G1 X111.999 Y108.414
G1 X111.594 Y108.414
G1 Z.39 F1800
G1 E2 F2100
;TYPE:Overhang perimeter
;WIDTH:0.4
;HEIGHT:0.4
G1 F1500
G1 X111.594 Y111.594 E.16115
G1 X108.406 Y111.594 E.16156
G1 X108.406 Y108.406 E.16156
G1 X111.543 Y108.406 E.15898
G1 X111.983 Y108.022 F15000
G1 F1500
G1 X111.983 Y111.983 E.20073
G1 X108.017 Y111.983 E.20099
G1 X108.017 Y108.017 E.20099
G1 X111.928 Y108.017 E.1982
G1 X112.361 Y107.64 F15000
G1 F1500
G1 X112.361 Y109.876 E.11332
G1 X112.361 Y110.124 E.01257
G1 X112.361 Y112.361 E.11337
G1 X110.124 Y112.361 E.11337
G1 X109.876 Y112.361 E.01257
G1 X107.639 Y112.361 E.11337
G1 X107.639 Y110.124 E.11337
G1 X107.639 Y109.876 E.01257
G1 X107.639 Y107.639 E.11337
G1 X109.876 Y107.639 E.11337
G1 X110.124 Y107.639 E.01257
G1 X112.303 Y107.639 E.11043
G1 E-2 F2100
G1 Z.59 F1800
G1 X108.525 Y111.248 F15000
G1 Z.39 F1800
G1 E2 F2100
;TYPE:Bridge infill
;WIDTH:0.449097
G1 F3600
G1 X111.272 Y111.248 E.17548
G1 X111.272 Y110.749 E.03188
G1 X108.728 Y110.749 E.16251
G1 X108.728 Y110.25 E.03188
G1 X111.272 Y110.25 E.16251
G1 X111.272 Y109.75 E.03194
G1 X108.728 Y109.75 E.16251
G1 X108.728 Y109.251 E.03188
G1 X111.272 Y109.251 E.16251
G1 X111.272 Y108.752 E.03188
G1 X108.525 Y108.752 E.17548
M106 S255
;LAYER_CHANGE
;Z:0.63
;HEIGHT:0.24
;BEFORE_LAYER_CHANGE
G92 E0
;0.63


;WIPE_START
G1 F12000
G1 X111.272 Y108.752 E-.45669
G1 X111.272 Y109.251 E-.08296
G1 X108.728 Y109.251 E-.42294
G1 X108.728 Y109.75 E-.08296
G1 X111.272 Y109.75 E-.42294
G1 X111.272 Y110.25 E-.08313
G1 X108.728 Y110.25 E-.42294
G1 X108.728 Y110.403 E-.02544
;WIPE_END
G1 Z.63 F1800
;AFTER_LAYER_CHANGE
;0.63
G1 Z.83
G1 X112.556 Y107.45 F15000
G1 Z.63 F1800
G1 E2 F2100
;TYPE:Perimeter
;WIDTH:0.439999
G1 F683
G1 X112.555 Y108.315 E.03253
G1 X112.552 Y111.69 E.1269
G1 X112.551 Y112.549 E.0323
G1 X111.691 Y112.549 E.03234
G1 X108.309 Y112.549 E.12717
G1 X107.451 Y112.55 E.03226
G1 X107.451 Y107.451 E.19173
G1 X108.309 Y107.451 E.03226
G1 X111.692 Y107.451 E.12721
G1 X112.496 Y107.45 E.03023
G1 X112.942 Y107.062 F15000
;TYPE:Overhang perimeter
;WIDTH:0.4
;HEIGHT:0.4
G1 F1500
G1 X112.945 Y107.437 E.019
G1 X112.943 Y108.61 E.05944
G1 X112.94 Y111.619 E.15249
G1 X112.939 Y112.938 E.06684
G1 X111.62 Y112.938 E.06684
G1 X108.38 Y112.938 E.1642
G1 X107.062 Y112.938 E.06679
G1 X107.062 Y111.62 E.06679
G1 X107.062 Y108.38 E.1642
G1 X107.062 Y107.062 E.06679
G1 X108.38 Y107.062 E.06679
G1 X111.621 Y107.062 E.16425
G1 X112.882 Y107.062 E.0639
G1 X113.318 Y106.684 F15000
G1 F1500
G1 X113.323 Y107.434 E.03801
G1 X113.321 Y108.986 E.07865
G1 X113.319 Y111.463 E.12553
G1 X113.317 Y113.316 E.09391
G1 X111.463 Y113.316 E.09396
G1 X108.537 Y113.316 E.14828
G1 X106.684 Y113.316 E.09391
G1 X106.684 Y111.463 E.09391
G1 X106.684 Y108.537 E.14828
G1 X106.684 Y106.684 E.09391
G1 X108.537 Y106.684 E.09391
G1 X111.463 Y106.684 E.14828
G1 X113.258 Y106.684 E.09097
;WIPE_START
G1 F12000
G1 X113.318 Y106.684 E-.00998
G1 X113.323 Y107.434 E-.12469
;WIPE_END
G1 E-1.86533 F2100
G1 Z.83 F1800
G1 X107.773 Y112.153 F15000
G1 Z.63 F1800
G1 E2 F2100
;TYPE:Solid infill
;WIDTH:0.534256
;HEIGHT:0.24
G1 F683
G1 X107.731 Y112.195 E.00278
G1 X107.746 Y112.254 E.00284
G1 X107.805 Y112.269 E.00284
G1 X107.847 Y112.227 E.00278
G1 X107.832 Y112.168 E.00284
;WIDTH:0.439999
G1 X108.452 Y112.258 E.02356
G1 X107.742 Y111.548 E.03776
G1 X107.742 Y110.998 E.02068
G1 X109.002 Y112.258 E.067
G1 X109.551 Y112.258 E.02064
G1 X107.742 Y110.449 E.0962
G1 X107.742 Y109.9 E.02064
G1 X110.1 Y112.258 E.12539
G1 X110.65 Y112.258 E.02068
G1 X107.742 Y109.35 E.15464
G1 X107.742 Y108.801 E.02064
G1 X111.199 Y112.258 E.18383
G1 X111.749 Y112.258 E.02068
G1 X107.742 Y108.251 E.21308
G1 X107.782 Y107.742 E.0192
G1 X112.26 Y112.22 E.23812
G1 X112.26 Y111.671 E.02064
G1 X108.331 Y107.742 E.20893
G1 X108.881 Y107.742 E.02068
G1 X112.261 Y111.122 E.17974
G1 X112.261 Y110.573 E.02064
G1 X109.43 Y107.742 E.15054
G1 X109.98 Y107.742 E.02068
G1 X112.262 Y110.024 E.12135
G1 X112.263 Y109.475 E.02064
G1 X110.529 Y107.742 E.09218
G1 X112.264 Y107.742 E.06524
G1 X112.263 Y108.927 E.04456
G1 X111.216 Y107.879 E.0557
;LAYER_CHANGE
;Z:0.87
;HEIGHT:0.24
;BEFORE_LAYER_CHANGE
G92 E0
;0.87


;WIPE_START
G1 F12000
G1 X112.263 Y108.927 E-.24628
G1 X112.264 Y107.742 E-.19701
G1 X110.529 Y107.742 E-.28844
G1 X112.263 Y109.475 E-.40757
G1 X112.262 Y110.024 E-.09127
G1 X109.98 Y107.742 E-.53653
G1 X109.43 Y107.742 E-.09144
G1 X110.032 Y108.344 E-.14146
;WIPE_END
G1 Z.87 F1800
;AFTER_LAYER_CHANGE
;0.87
G1 Z1.07
G1 X106.718 Y113.284 F15000
G1 Z.87 F1800
G1 E2 F2100
;TYPE:Perimeter
G1 F1316
G1 X106.716 Y113.284 E.00008
G1 X106.716 Y112.646 E.02399
G1 X106.716 Y107.354 E.19899
G1 X106.716 Y106.716 E.02399
G1 X112.646 Y106.716 E.22298
G1 X113.284 Y106.716 E.02399
G1 X113.284 Y107.354 E.02399
G1 X113.284 Y112.646 E.19899
G1 X113.284 Y113.284 E.02399
G1 X112.646 Y113.284 E.02399
G1 X106.778 Y113.284 E.22064
G1 X106.327 Y113.673 F15000
G1 F1316
G1 X106.327 Y112.586 E.04087
G1 X106.327 Y107.414 E.19447
G1 X106.327 Y106.327 E.04087
G1 X107.414 Y106.327 E.04087
G1 X112.586 Y106.327 E.19447
G1 X113.673 Y106.327 E.04087
G1 X113.673 Y107.414 E.04087
G1 X113.673 Y112.586 E.19447
G1 X113.673 Y113.673 E.04087
G1 X112.586 Y113.673 E.04087
G1 X107.414 Y113.673 E.19447
G1 X106.387 Y113.673 E.03862
G1 X105.949 Y114.051 F15000
;TYPE:Overhang perimeter
;WIDTH:0.4
;HEIGHT:0.4
G1 F1500
G1 X105.949 Y112.509 E.07814
G1 X105.949 Y107.491 E.2543
G1 X105.949 Y105.949 E.07814
G1 X107.491 Y105.949 E.07814
G1 X112.509 Y105.949 E.2543
G1 X114.051 Y105.949 E.07814
G1 X114.051 Y107.491 E.07814
G1 X114.051 Y112.509 E.2543
G1 X114.051 Y114.051 E.07814
G1 X112.509 Y114.051 E.07814
G1 X107.491 Y114.051 E.2543
G1 X106.009 Y114.051 E.0751
G1 E-2 F2100
G1 Z1.07 F1800
G1 X110.24 Y111.05 F15000
G1 Z.87 F1800
G1 E2 F2100
;TYPE:Internal infill
;WIDTH:0.44
;HEIGHT:0.24
G1 F1316
G1 X108.95 Y111.05 E.04851
G1 X108.95 Y110.009 E.03914
G1 X110.323 Y108.95 E.0652
G1 X111.05 Y108.95 E.02734
G1 X111.05 Y110.554 E.06031
G1 E-2 F2100
G1 Z1.07 F1800
G1 X107.113 Y107.039 F15000
G1 Z.87 F1800
G1 E2 F2100
;TYPE:Solid infill
;WIDTH:0.534256
G1 F1316
G1 X107.07 Y106.996 E.00284
G1 X107.012 Y107.012 E.00281
G1 X106.996 Y107.07 E.00281
G1 X107.039 Y107.113 E.00284
G1 X107.097 Y107.097 E.00281
;WIDTH:0.439999
G1 X107.007 Y107.718 E.02359
G1 X107.718 Y107.007 E.03781
;WIDTH:0.440284
G1 X107.901 Y106.876 E.00847
G1 X107.854 Y106.888 E.00183
G1 X107.832 Y106.807 E.00316
G1 X107.914 Y106.829 E.00319
;WIDTH:0.439999
G1 X108.267 Y107.007 E.01487
G1 X107.007 Y108.267 E.067
G1 X107.007 Y108.816 E.02064
G1 X108.816 Y107.007 E.0962
G1 X109.366 Y107.007 E.02068
G1 X107.007 Y109.366 E.12544
G1 X107.007 Y109.915 E.02064
G1 X109.915 Y107.007 E.15464
G1 E-2 F2100
G1 Z1.07 F1800
G1 X108.636 Y108.767 F15000
G1 Z.87 F1800
G1 E2 F2100
;WIDTH:0.391504
G1 F1316
G1 X108.749 Y108.653 E.00528
G1 X108.636 Y108.767 E.00528
;WIDTH:0.403356
G1 X108.598 Y108.851 E.00314
;WIDTH:0.439999
G1 X108.564 Y111.182 E.08766
G1 X108.666 Y111.334 E.00688
G1 X108.851 Y111.439 E.008
G1 X111.149 Y111.368 E.08645
G1 X109.561 Y112.855 E.0818
G1 X109.561 Y112.993 E.00519
G1 X107.007 Y112.993 E.09603
G1 X107.007 Y110.327 E.10024
G1 X107.145 Y110.327 E.00519
G1 X108.509 Y108.914 E.07385
G1 E-2 F2100
G1 Z1.07 F1800
G1 X110.467 Y107.535 F15000
G1 Z.87 F1800
G1 E2 F2100
G1 F1316
G1 X109.848 Y108.173 E.03343
G1 X111.149 Y108.173 E.04892
G1 X111.609 Y108.391 E.01914
G1 X111.818 Y108.751 E.01565
G1 X111.827 Y110.04 E.04847
G1 X112.581 Y109.286 E.04009
G1 X112.604 Y108.682 E.02273
G1 X112.604 Y107.396 E.04836
G1 X110.602 Y107.396 E.07528
G1 X110.287 Y107.185 E.01426
G1 X108.844 Y108.579 E.07544
;WIDTH:0.406367
G1 X108.749 Y108.653 E.00414
G1 X108.851 Y108.596 E.00401
;WIDTH:0.439999
G1 X111.149 Y108.561 E.08642
G1 X111.334 Y108.666 E.008
G1 X111.436 Y108.818 E.00688
G1 X111.439 Y110.978 E.08122
G1 X112.855 Y109.561 E.07532
G1 X112.993 Y109.561 E.00519
G1 X112.993 Y107.007 E.09603
G1 X110.327 Y107.007 E.10024
G1 X110.787 Y107.784 F15000
;WIDTH:0.440284
G1 F1316
G1 X111.149 Y107.784 E.01362
G1 X111.328 Y107.859 E.0073
;WIDTH:0.440552
G1 X111.836 Y108.069 E.0207
G1 X111.931 Y108.164 E.00506
;WIDTH:0.455006
G1 X112.208 Y108.682 E.02294
G1 X112.216 Y108.047 E.0248
;WIDTH:0.440552
G1 X112.216 Y107.784 E.0099
G1 X111.149 Y107.784 E.04018
