; generated by PrusaSlicer 2.9.1 on 2025-05-17 at 14:11:23 UTC

; v1.0.0

; external perimeters extrusion width = 0.42mm
; perimeters extrusion width = 0.44mm
; infill extrusion width = 0.44mm
; solid infill extrusion width = 0.44mm
; top infill extrusion width = 0.40mm
; support material extrusion width = 0.35mm
; first layer extrusion width = 0.42mm

M190 S60 ; set bed temperature and wait for it to be reached
M104 S220 ; set temperature
;TYPE:Custom
G28 ; home all axes
G1 Z0.28 F5000
M109 S220 ; set temperature and wait for it to be reached
G21 ; set units to millimeters
G90 ; use absolute coordinates
M83 ; use relative distances for extrusion
; Filament gcode
M107
;LAYER_CHANGE
;Z:0.15
;HEIGHT:0.15
G1 E-2 F2100
G1 Z.35 F1800
G1 X98.423 Y97.515 F15000
G1 Z.15 F1800
G1 E2 F2100
;TYPE:Skirt/Brim
;WIDTH:0.42
G1 F1080
G1 X98.499 Y97.438 E.00254
G1 X100 Y97.03 E.03649
G1 X120 Y97.03 E.46919
G1 X121.477 Y97.424 E.03586
G1 X122.562 Y98.499 E.03583
G1 X122.97 Y100 E.03649
G1 X122.97 Y120 E.46919
G1 X122.576 Y121.477 E.03586
G1 X121.501 Y122.562 E.03583
G1 X120 Y122.97 E.03649
G1 X100 Y122.97 E.46919
G1 X98.523 Y122.576 E.03586
G1 X97.438 Y121.501 E.03583
G1 X97.03 Y120 E.03649
G1 X97.03 Y100 E.46919
G1 X97.424 Y98.523 E.03586
G1 X98.381 Y97.557 E.0319
M204 T2500
G1 X98.66 Y97.867 F15000
G1 F1080
G1 X98.868 Y97.68 E.00656
G1 X100 Y97.418 E.02726
G1 X120 Y97.418 E.46919
G1 X121.368 Y97.811 E.03339
G1 X122.32 Y98.868 E.03337
G1 X122.582 Y100 E.02726
G1 X122.582 Y120 E.46919
G1 X122.189 Y121.368 E.03339
G1 X121.132 Y122.32 E.03337
G1 X120 Y122.582 E.02726
G1 X100 Y122.582 E.46919
G1 X98.632 Y122.189 E.03339
G1 X97.68 Y121.132 E.03337
G1 X97.418 Y120 E.02726
G1 X97.418 Y100 E.46919
G1 X97.811 Y98.632 E.03339
G1 X98.615 Y97.907 E.0254
G1 X98.866 Y98.229 F15000
G1 F1080
G1 X99.23 Y97.946 E.01082
G1 X100 Y97.806 E.01836
G1 X120 Y97.806 E.46919
G1 X121.25 Y98.197 E.03073
G1 X122.054 Y99.23 E.03071
G1 X122.194 Y100 E.01836
G1 X122.194 Y120 E.46919
G1 X121.803 Y121.25 E.03073
G1 X120.77 Y122.054 E.03071
G1 X120 Y122.194 E.01836
G1 X100 Y122.194 E.46919
G1 X98.75 Y121.803 E.03073
G1 X97.946 Y120.77 E.03071
G1 X97.806 Y120 E.01836
G1 X97.806 Y100 E.46919
G1 X98.197 Y98.75 E.03073
G1 X98.819 Y98.266 E.01849
;WIPE_START
G1 F12000
G1 X98.866 Y98.229 E-.00994
G1 X99.23 Y97.946 E-.07665
G1 X100 Y97.806 E-.13011
G1 X110.727 Y97.806 E-1.7833
;WIPE_END
G1 Z.35 F1800
G1 X100.527 Y119.473 F15000
G1 Z.15 F1800
G1 E2 F2100
;TYPE:External perimeter
;WIDTH:0.40534
G1 F540
G1 X100.513 Y119.407 E.00152
;WIDTH:0.379462
G1 X100.498 Y119.341 E.00142
;WIDTH:0.353583
G1 X100.498 Y100.66 E.36319
;WIDTH:0.379603
G1 X100.513 Y100.594 E.00142
;WIDTH:0.405623
G1 X100.527 Y100.528 E.00152
G1 X100.593 Y100.513 E.00153
;WIDTH:0.379852
G1 X100.659 Y100.499 E.00142
;WIDTH:0.35408
G1 X119.34 Y100.499 E.36375
;WIDTH:0.379993
G1 X119.406 Y100.513 E.00142
;WIDTH:0.405905
G1 X119.472 Y100.528 E.00153
G1 X119.487 Y100.594 E.00153
;WIDTH:0.379993
G1 X119.501 Y100.66 E.00142
;WIDTH:0.35408
G1 X119.501 Y119.341 E.36375
;WIDTH:0.379852
G1 X119.487 Y119.407 E.00142
;WIDTH:0.405623
G1 X119.472 Y119.473 E.00153
G1 X119.406 Y119.487 E.00152
;WIDTH:0.379603
G1 X119.34 Y119.502 E.00142
;WIDTH:0.353583
G1 X100.659 Y119.502 E.36319
;WIDTH:0.379462
G1 X100.593 Y119.487 E.00142
;WIDTH:0.40534
G1 X100.586 Y119.486 E.00016
G1 X100.217 Y119.783 F15000
G1 F540
G1 X100.197 Y119.562 E.00501
;WIDTH:0.379462
G1 X100.177 Y119.341 E.00466
;WIDTH:0.353583
G1 X100.177 Y100.66 E.36319
;WIDTH:0.379603
G1 X100.197 Y100.439 E.00466
;WIDTH:0.405623
G1 X100.217 Y100.217 E.00504
G1 X100.438 Y100.197 E.00501
;WIDTH:0.379852
G1 X100.659 Y100.177 E.00467
;WIDTH:0.35408
G1 X119.34 Y100.177 E.36375
;WIDTH:0.379993
G1 X119.561 Y100.197 E.00467
;WIDTH:0.405905
G1 X119.782 Y100.218 E.00502
G1 X119.814 Y100.509 E.00662
;WIDTH:0.371753
G1 X119.823 Y100.66 E.00311
;WIDTH:0.35408
G1 X119.823 Y119.341 E.36375
;WIDTH:0.379852
G1 X119.803 Y119.562 E.00467
;WIDTH:0.405623
G1 X119.783 Y119.783 E.00501
G1 X119.561 Y119.803 E.00504
;WIDTH:0.379603
G1 X119.34 Y119.823 E.00466
;WIDTH:0.353583
G1 X100.659 Y119.823 E.36319
;WIDTH:0.379462
G1 X100.438 Y119.803 E.00466
;WIDTH:0.40534
G1 X100.277 Y119.788 E.00365
M106 S127.5
;LAYER_CHANGE
;Z:0.39
;HEIGHT:0.24
;BEFORE_LAYER_CHANGE
G92 E0
;0.39


;WIPE_START
G1 F12000
G1 X100.217 Y119.783 E-.01001
G1 X100.197 Y119.562 E-.03689
G1 X100.177 Y119.341 E-.03689
G1 X100.177 Y107.815 E-1.91621
;WIPE_END
G1 Z.39 F1800
;AFTER_LAYER_CHANGE
;0.39
M104 S200 ; set temperature
G1 Z.59
G1 X99.468 Y122.828 F15000
G1 Z.39 F1800
G1 E2 F2100
;TYPE:Skirt/Brim
;WIDTH:0.42
G1 F2803
G1 X98.523 Y122.576 E.03488
G1 X97.438 Y121.501 E.05447
G1 X97.03 Y120 E.05548
G1 X97.03 Y100 E.71331
G1 X97.424 Y98.523 E.05452
G1 X98.499 Y97.438 E.05447
G1 X100 Y97.03 E.05548
G1 X120 Y97.03 E.71331
G1 X121.477 Y97.424 E.05452
G1 X122.562 Y98.499 E.05447
G1 X122.97 Y100 E.05548
G1 X122.97 Y120 E.71331
G1 X122.576 Y121.477 E.05452
G1 X121.501 Y122.562 E.05447
G1 X120 Y122.97 E.05548
G1 X100 Y122.97 E.71331
G1 X99.526 Y122.843 E.0175
G1 X99.631 Y122.476 F15000
G1 F2803
G1 X98.632 Y122.189 E.03707
G1 X97.68 Y121.132 E.05073
G1 X97.418 Y120 E.04144
G1 X97.418 Y100 E.71331
G1 X97.811 Y98.632 E.05076
G1 X98.868 Y97.68 E.05073
G1 X100 Y97.418 E.04144
G1 X120 Y97.418 E.71331
G1 X121.368 Y97.811 E.05076
G1 X122.32 Y98.868 E.05073
G1 X122.582 Y100 E.04144
G1 X122.582 Y120 E.71331
G1 X122.189 Y121.368 E.05076
G1 X121.132 Y122.32 E.05073
G1 X120 Y122.582 E.04144
G1 X100 Y122.582 E.71331
G1 X99.689 Y122.492 E.01155
G1 X99.801 Y122.132 F15000
G1 F2803
G1 X98.75 Y121.803 E.03928
G1 X97.946 Y120.77 E.04669
G1 X97.806 Y120 E.02791
G1 X97.806 Y100 E.71331
G1 X98.197 Y98.75 E.04671
G1 X99.23 Y97.946 E.04669
G1 X100 Y97.806 E.02791
G1 X120 Y97.806 E.71331
G1 X121.25 Y98.197 E.04671
G1 X122.054 Y99.23 E.04669
G1 X122.194 Y100 E.02791
G1 X122.194 Y120 E.71331
G1 X121.803 Y121.25 E.04671
G1 X120.77 Y122.054 E.04669
G1 X120 Y122.194 E.02791
G1 X100 Y122.194 E.71331
G1 X99.859 Y122.15 E.00527
;WIPE_START
G1 F12000
G1 X99.801 Y122.132 E-.0101
G1 X98.75 Y121.803 E-.18309
G1 X97.946 Y120.77 E-.21762
G1 X97.806 Y120 E-.13011
G1 X97.806 Y111.224 E-1.45908
;WIPE_END
G1 Z.59 F1800
G1 X100.581 Y118.237 F15000
G1 X100.581 Y118.839
G1 X100.581 Y119.325
G1 X100.675 Y119.325
G1 Z.39 F1800
G1 E2 F2100
;TYPE:External perimeter
;WIDTH:0.530916
G1 F2803
G1 X100.657 Y119.241 E.00399
;WIDTH:0.495813
G1 X100.64 Y119.156 E.00373
;WIDTH:0.460709
G1 X100.64 Y100.845 E.72522
;WIDTH:0.495956
G1 X100.657 Y100.76 E.00373
;WIDTH:0.531202
G1 X100.675 Y100.675 E.00403
G1 X100.759 Y100.658 E.00398
;WIDTH:0.496199
G1 X100.844 Y100.64 E.00374
;WIDTH:0.461196
G1 X119.155 Y100.64 E.72608
;WIDTH:0.496342
G1 X119.24 Y100.658 E.00374
;WIDTH:0.531488
G1 X119.325 Y100.675 E.00403
G1 X119.342 Y100.76 E.00403
;WIDTH:0.496342
G1 X119.36 Y100.845 E.00374
;WIDTH:0.461196
G1 X119.36 Y119.156 E.72608
;WIDTH:0.496199
G1 X119.342 Y119.241 E.00374
;WIDTH:0.531202
G1 X119.325 Y119.325 E.00398
G1 X119.24 Y119.343 E.00403
;WIDTH:0.495955
G1 X119.155 Y119.36 E.00373
;WIDTH:0.460708
G1 X100.844 Y119.36 E.72522
;WIDTH:0.495812
G1 X100.759 Y119.343 E.00373
;WIDTH:0.530916
G1 X100.733 Y119.338 E.00123
G1 X100.265 Y119.735 F15000
G1 F2803
G1 X100.248 Y119.445 E.01348
;WIDTH:0.495813
G1 X100.23 Y119.156 E.01245
;WIDTH:0.460709
G1 X100.23 Y100.845 E.72522
;WIDTH:0.495956
G1 X100.248 Y100.555 E.0125
;WIDTH:0.531202
G1 X100.266 Y100.266 E.01344
G1 X100.555 Y100.248 E.01344
;WIDTH:0.496199
G1 X100.844 Y100.231 E.01246
;WIDTH:0.461196
G1 X119.155 Y100.231 E.72608
;WIDTH:0.496342
G1 X119.445 Y100.248 E.01251
;WIDTH:0.531488
G1 X119.734 Y100.266 E.01345
G1 X119.734 Y100.506 E.01115
G1 X119.752 Y100.675 E.0079
;WIDTH:0.496342
G1 X119.769 Y100.845 E.00736
;WIDTH:0.461196
G1 X119.769 Y119.156 E.72608
;WIDTH:0.4643
G1 X119.768 Y119.227 E.00284
;WIDTH:0.497751
G1 X119.751 Y119.481 E.011
;WIDTH:0.531202
G1 X119.734 Y119.734 E.01177
G1 X119.445 Y119.752 E.01344
;WIDTH:0.495955
G1 X119.155 Y119.77 E.0125
;WIDTH:0.460708
G1 X100.844 Y119.77 E.72522
;WIDTH:0.495812
G1 X100.555 Y119.752 E.01245
;WIDTH:0.530916
G1 X100.325 Y119.738 E.01069
M106 S255
;LAYER_CHANGE
;Z:0.63
;HEIGHT:0.24
;BEFORE_LAYER_CHANGE
G92 E0
;0.63


;WIPE_START
G1 F12000
G1 X100.265 Y119.735 E-.00999
G1 X100.248 Y119.445 E-.0483
G1 X100.23 Y119.156 E-.04814
G1 X100.23 Y107.766 E-1.89357
;WIPE_END
G1 Z.63 F1800
;AFTER_LAYER_CHANGE
;0.63
G1 Z.83
G1 X100.701 Y110.558 F15000
G1 X100.701 Y118.599
G1 X100.701 Y119.046
G1 X100.954 Y119.046
G1 Z.63 F1800
G1 E2 F2100
;WIDTH:0.419999
G1 F1420
G1 X100.9 Y118.916 E.00502
G1 X100.9 Y101.085 E.63595
G1 X100.954 Y100.955 E.00502
G1 X101.084 Y100.901 E.00502
G1 X118.915 Y100.901 E.63595
G1 X119.045 Y100.955 E.00502
G1 X119.099 Y101.085 E.00502
G1 X119.099 Y118.916 E.63595
G1 X119.045 Y119.046 E.00502
G1 X118.915 Y119.1 E.00502
G1 X101.084 Y119.1 E.63595
G1 X101.009 Y119.069 E.00289
G1 X100.646 Y119.354 F15000
;TYPE:Perimeter
;WIDTH:0.554426
G1 F1420
G1 X100.623 Y119.245 E.00542
;WIDTH:0.509032
G1 X100.6 Y119.135 E.00498
;WIDTH:0.463637
G1 X100.578 Y119.026 E.00444
;WIDTH:0.418243
G1 X100.555 Y118.916 E.00399
;WIDTH:0.372848
G1 X100.555 Y101.085 E.55458
;WIDTH:0.418382
G1 X100.578 Y100.975 E.00399
;WIDTH:0.463915
G1 X100.6 Y100.866 E.00444
;WIDTH:0.509449
G1 X100.623 Y100.756 E.00498
;WIDTH:0.554982
G1 X100.646 Y100.646 E.00548
G1 X100.756 Y100.623 E.00548
;WIDTH:0.509685
G1 X100.865 Y100.601 E.00493
;WIDTH:0.464388
G1 X100.975 Y100.578 E.00449
;WIDTH:0.419091
G1 X101.084 Y100.555 E.00396
;WIDTH:0.373794
G1 X118.915 Y100.555 E.55621
;WIDTH:0.41923
G1 X119.025 Y100.578 E.004
;WIDTH:0.464666
G1 X119.134 Y100.601 E.00445
;WIDTH:0.510102
G1 X119.244 Y100.624 E.00499
;WIDTH:0.555538
G1 X119.354 Y100.646 E.00547
G1 X119.376 Y100.756 E.00547
;WIDTH:0.510102
G1 X119.399 Y100.866 E.00499
;WIDTH:0.464666
G1 X119.422 Y100.975 E.00445
;WIDTH:0.41923
G1 X119.445 Y101.085 E.004
;WIDTH:0.373794
G1 X119.445 Y118.916 E.55621
;WIDTH:0.419092
G1 X119.422 Y119.025 E.00396
;WIDTH:0.464389
G1 X119.399 Y119.135 E.00449
;WIDTH:0.509687
G1 X119.377 Y119.244 E.00493
;WIDTH:0.554984
G1 X119.354 Y119.354 E.00548
G1 X119.244 Y119.377 E.00548
;WIDTH:0.50945
G1 X119.134 Y119.4 E.00498
;WIDTH:0.463915
G1 X119.025 Y119.422 E.00444
;WIDTH:0.418381
G1 X118.915 Y119.445 E.00399
;WIDTH:0.372846
G1 X101.084 Y119.445 E.55457
;WIDTH:0.418241
G1 X100.974 Y119.422 E.00399
;WIDTH:0.463636
G1 X100.865 Y119.4 E.00444
;WIDTH:0.509031
G1 X100.755 Y119.377 E.00498
;WIDTH:0.554426
G1 X100.704 Y119.366 E.00254
G1 X100.21 Y119.79 F15000
;TYPE:External perimeter
;WIDTH:0.419999
G1 F1420
G1 X100.21 Y100.21 E.69833
G1 X119.79 Y100.21 E.69833
G1 X119.79 Y119.79 E.69833
G1 X100.27 Y119.79 E.69619
;LAYER_CHANGE
;Z:0.87
;HEIGHT:0.24
;BEFORE_LAYER_CHANGE
G92 E0
;0.87


;WIPE_START
G1 F12000
G1 X100.21 Y119.79 E-.00997
G1 X100.21 Y107.82 E-1.99003
;WIPE_END
G1 Z.87 F1800
;AFTER_LAYER_CHANGE
;0.87
G1 Z1.07
G1 X100.82 Y108.008 F15000
G1 X100.82 Y119.18
G1 X118.358 Y119.18
G1 X119.105 Y119.105
G1 X119.105 Y118.796
G1 X118.799 Y118.796
G1 Z.87 F1800
G1 E2 F2100
G1 F1569
G1 X118.785 Y118.824 E.00112
G1 X118.675 Y118.86 E.00413
G1 X101.324 Y118.86 E.61883
G1 X101.194 Y118.806 E.00502
G1 X101.14 Y118.676 E.00502
G1 X101.14 Y101.325 E.61883
G1 X101.176 Y101.215 E.00413
G1 X101.324 Y101.141 E.0059
G1 X118.675 Y101.141 E.61883
G1 X118.805 Y101.195 E.00502
G1 X118.859 Y101.325 E.00502
G1 X118.859 Y118.676 E.61883
G1 X118.826 Y118.742 E.00263
;WIPE_START
G1 F12000
G1 X118.799 Y118.796 E-.01004
G1 X118.785 Y118.824 E-.0052
G1 X118.675 Y118.86 E-.01924
G1 X106.852 Y118.86 E-1.96552
;WIPE_END
G1 Z1.07 F1800
G1 X106.852 Y119.471 F15000
G1 X101.785 Y119.471
G1 X101.324 Y119.47
G1 X101.324 Y119.325
G1 Z.87 F1800
G1 E2 F2100
;TYPE:Perimeter
;WIDTH:0.61277
G1 F1569
G1 X101.141 Y119.346 E.01001
;WIDTH:0.570455
G1 X100.957 Y119.367 E.0093
;WIDTH:0.52814
G1 X100.774 Y119.389 E.0085
;WIDTH:0.485825
G1 X100.59 Y119.41 E.00778
;WIDTH:0.44351
G1 X100.59 Y119.214 E.00744
;WIDTH:0.488284
G1 X100.613 Y119.108 E.00459
;WIDTH:0.533058
G1 X100.635 Y119.001 E.00509
;WIDTH:0.577832
G1 X100.657 Y118.895 E.00551
;WIDTH:0.622606
G1 X100.68 Y118.789 E.006
G1 X100.741 Y118.861 E.00522
;WIDTH:0.577832
G1 X100.802 Y118.932 E.00477
;WIDTH:0.533058
G1 X100.864 Y119.004 E.00443
;WIDTH:0.488284
G1 X100.925 Y119.075 E.00396
;WIDTH:0.485825
G1 X101.025 Y119.138 E.00497
;WIDTH:0.52814
G1 X101.124 Y119.2 E.00539
;WIDTH:0.570455
G1 X101.224 Y119.263 E.00594
;WIDTH:0.61277
G1 X101.273 Y119.293 E.00312
G1 E-2 F2100
G1 Z1.07 F1800
G1 X101.255 Y119.467 F15000
G1 X100.583 Y119.211
G1 X100.529 Y101.785
G1 X100.53 Y101.325
G1 X100.675 Y101.325
G1 Z.87 F1800
G1 E2 F2100
G1 F1569
G1 X100.654 Y101.239 E.00481
;WIDTH:0.570827
G1 X100.633 Y101.153 E.00445
;WIDTH:0.528883
G1 X100.612 Y101.067 E.00409
;WIDTH:0.486939
G1 X100.591 Y100.982 E.00369
;WIDTH:0.444995
G1 X100.57 Y100.896 E.00337
;WIDTH:0.403051
G1 X100.57 Y100.65 E.00837
G1 X100.739 Y100.72 E.00622
;WIDTH:0.437709
G1 X100.982 Y100.737 E.00911
;WIDTH:0.472366
G1 X101.224 Y100.755 E.00988
G1 X101.055 Y100.878 E.00851
;WIDTH:0.437709
G1 X100.887 Y101.001 E.00778
;WIDTH:0.444995
G1 X100.845 Y101.065 E.00292
;WIDTH:0.486939
G1 X100.802 Y101.13 E.00328
;WIDTH:0.528883
G1 X100.76 Y101.195 E.00358
;WIDTH:0.570827
G1 X100.717 Y101.26 E.00392
;WIDTH:0.61277
G1 X100.708 Y101.275 E.00095
G1 E-2 F2100
G1 Z1.07 F1800
G1 X100.68 Y118.789 F15000
G1 Z.87 F1800
G1 E2 F2100
;WIDTH:0.622606
G1 F1569
G1 X100.675 Y118.676 E.00625
;WIDTH:0.61277
G1 X100.675 Y101.325 E.94256
G1 X101.224 Y100.755 F15000
;WIDTH:0.472366
G1 F1569
G1 X101.324 Y100.75 E.00408
;WIDTH:0.46366
G1 X118.675 Y100.75 E.69215
;WIDTH:0.513093
G1 X118.794 Y100.775 E.00543
;WIDTH:0.562525
G1 X118.913 Y100.8 E.00601
;WIDTH:0.611958
G1 X119.033 Y100.825 E.00665
;WIDTH:0.66139
G1 X119.152 Y100.849 E.00717
G1 X119.176 Y100.968 E.00717
;WIDTH:0.6122
G1 X119.201 Y101.087 E.0066
;WIDTH:0.563009
G1 X119.226 Y101.206 E.00602
;WIDTH:0.513819
G1 X119.25 Y101.325 E.00543
;WIDTH:0.464628
G1 X119.25 Y118.676 E.69378
;WIDTH:0.513037
G1 X119.226 Y118.772 E.00442
;WIDTH:0.561446
G1 X119.202 Y118.869 E.00493
;WIDTH:0.609854
G1 X119.178 Y118.965 E.00535
;WIDTH:0.658263
G1 X119.153 Y119.061 E.00583
;WIDTH:0.706672
G1 X119.129 Y119.158 E.00634
;WIDTH:0.75508
G1 X119.105 Y119.254 E.00674
G1 X118.962 Y119.278 E.00987
;WIDTH:0.707644
G1 X118.818 Y119.301 E.00926
;WIDTH:0.660207
G1 X118.675 Y119.325 E.00854
;WIDTH:0.61277
G1 X101.324 Y119.325 E.94256
G1 X100.21 Y119.79 F15000
;TYPE:External perimeter
;WIDTH:0.419999
G1 F1569
G1 X100.21 Y100.21 E.69833
G1 X100.513 Y100.21 E.01081
G1 X100.576 Y100.273 E.00318
G1 X100.739 Y100.36 E.00659
G1 X119.152 Y100.36 E.65671
;WIDTH:0.45221
G1 X119.389 Y100.329 E.00927
G1 X119.492 Y100.225 E.00568
;WIDTH:0.450693
G1 X119.775 Y100.225 E.01093
G1 X119.775 Y100.508 E.01093
G1 X119.684 Y100.598 E.00494
G1 X119.641 Y100.849 E.00984
;WIDTH:0.419999
G1 X119.641 Y119.254 E.65642
G1 X119.695 Y119.392 E.00529
G1 X119.79 Y119.487 E.00479
G1 X119.79 Y119.79 E.01081
G1 X100.27 Y119.79 E.69619
;LAYER_CHANGE
;Z:1.11
;HEIGHT:0.24
;BEFORE_LAYER_CHANGE
G92 E0
;1.11


;WIPE_START
G1 F12000
G1 X100.21 Y119.79 E-.00997
G1 X100.21 Y107.82 E-1.99003
;WIPE_END
G1 Z1.11 F1800
;AFTER_LAYER_CHANGE
;1.11
G1 Z1.31
G1 X101.007 Y108.006 F15000
G1 X101.007 Y118.993
G1 X118.118 Y118.993
G1 X118.865 Y118.865
G1 X118.865 Y118.551
G1 X118.552 Y118.551
G1 Z1.11 F1800
G1 E2 F2100
G1 F1754
G1 X118.526 Y118.597 E.00188
G1 X118.435 Y118.62 E.00335
G1 X101.564 Y118.62 E.60171
G1 X101.434 Y118.567 E.00501
G1 X101.38 Y118.436 E.00505
G1 X101.38 Y101.565 E.60171
G1 X101.415 Y101.456 E.00408
G1 X101.564 Y101.381 E.00595
G1 X118.435 Y101.381 E.60171
G1 X118.566 Y101.435 E.00505
G1 X118.619 Y101.565 E.00501
G1 X118.619 Y118.436 E.60171
G1 X118.583 Y118.499 E.00259
;WIPE_START
G1 F12000
G1 X118.552 Y118.551 E-.01006
G1 X118.526 Y118.597 E-.00878
G1 X118.435 Y118.62 E-.0156
G1 X106.612 Y118.62 E-1.96556
;WIPE_END
G1 Z1.31 F1800
G1 X106.612 Y118.993 F15000
G1 X101.007 Y118.993
G1 X101.007 Y101.882
G1 X101.135 Y101.136
G1 X101.464 Y101.136
