; generated by PrusaSlicer 2.9.1 on 2025-05-17 at 18:49:03 UTC

; v1.0.0

; external perimeters extrusion width = 0.42mm
; perimeters extrusion width = 0.44mm
; infill extrusion width = 0.44mm
; solid infill extrusion width = 0.44mm
; top infill extrusion width = 0.40mm
; support material extrusion width = 0.35mm
; first layer extrusion width = 0.42mm

M190 S60 ; set bed temperature and wait for it to be reached
M104 S220 ; set temperature
;TYPE:Custom
G28 ; home all axes
G1 Z0.28 F5000
M109 S220 ; set temperature and wait for it to be reached
G21 ; set units to millimeters
G90 ; use absolute coordinates
M83 ; use relative distances for extrusion
; Filament gcode
M107
;LAYER_CHANGE
;Z:0.15
;HEIGHT:0.15
G1 E-2 F2100
G1 Z.35 F1800
G1 X98.531 Y99.62 F15000
G1 Z.15 F1800
G1 E2 F2100
;TYPE:Skirt/Brim
;WIDTH:0.42
G1 F1080
G1 X99.84 Y98.336 E.04302
G1 X100.79 Y97.572 E.0286
G1 X102.308 Y96.579 E.04255
G1 X103.415 Y96.003 E.02927
G1 X105.021 Y95.355 E.04063
G1 X106.295 Y94.981 E.03115
G1 X107.802 Y94.688 E.03602
G1 X109.087 Y94.56 E.03029
G1 X110.913 Y94.56 E.04284
G1 X112.342 Y94.709 E.03371
G1 X113.81 Y95.007 E.03514
G1 X115.302 Y95.468 E.03663
G1 X116.664 Y96.04 E.03465
G1 X118.055 Y96.794 E.03712
G1 X119.544 Y97.828 E.04253
G1 X120.601 Y98.737 E.0327
G1 X121.731 Y99.92 E.03838
G1 X122.621 Y101.058 E.03389
G1 X123.467 Y102.394 E.0371
G1 X124.048 Y103.523 E.02979
G1 X124.588 Y104.853 E.03367
G1 X125.011 Y106.262 E.03451
G1 X125.298 Y107.704 E.03449
G1 X125.44 Y109.087 E.03261
G1 X125.44 Y110.913 E.04284
G1 X125.298 Y112.296 E.03261
G1 X125.011 Y113.738 E.03449
G1 X124.555 Y115.24 E.03682
G1 X123.998 Y116.583 E.03411
G1 X123.188 Y118.083 E.03999
G1 X122.522 Y119.083 E.02819
G1 X121.328 Y120.532 E.04405
G1 X120.389 Y121.46 E.03097
G1 X119.043 Y122.549 E.04062
G1 X117.933 Y123.279 E.03117
G1 X116.576 Y124.002 E.03607
G1 X115.17 Y124.579 E.03565
G1 X113.715 Y125.017 E.03565
G1 X112.198 Y125.312 E.03625
G1 X110.913 Y125.44 E.03029
G1 X109.087 Y125.44 E.04284
G1 X107.679 Y125.294 E.03321
G1 X106.158 Y124.984 E.03642
G1 X104.737 Y124.546 E.03488
G1 X103.289 Y123.937 E.03685
G1 X101.758 Y123.088 E.04107
G1 X100.68 Y122.346 E.0307
G1 X99.322 Y121.19 E.04184
G1 X98.436 Y120.274 E.0299
G1 X97.339 Y118.883 E.04156
G1 X96.648 Y117.812 E.0299
G1 X96.076 Y116.737 E.02857
G1 X95.397 Y115.105 E.04147
G1 X95.001 Y113.786 E.03231
G1 X94.688 Y112.198 E.03797
G1 X94.56 Y110.913 E.03029
G1 X94.56 Y109.087 E.04284
G1 X94.709 Y107.658 E.03371
G1 X95.028 Y106.112 E.03703
G1 X95.462 Y104.717 E.03427
G1 X96.118 Y103.175 E.03931
G1 X96.718 Y102.072 E.02946
G1 X97.742 Y100.565 E.04274
G1 X98.493 Y99.666 E.02748
M204 T2500
G1 X98.79 Y99.914 F15000
G1 F1080
G1 X98.812 Y99.887 E.00082
G1 X100.093 Y98.63 E.0421
G1 X101.014 Y97.889 E.02773
G1 X102.5 Y96.917 E.04166
G1 X103.573 Y96.357 E.02839
G1 X104.955 Y95.787 E.03507
G1 X106.38 Y95.36 E.0349
G1 X107.85 Y95.073 E.03514
G1 X109.115 Y94.946 E.02983
G1 X110.885 Y94.946 E.04152
G1 X112.275 Y95.092 E.03279
G1 X113.709 Y95.382 E.03432
G1 X115.163 Y95.83 E.03569
G1 X116.492 Y96.388 E.03381
G1 X117.847 Y97.121 E.03614
G1 X119.307 Y98.135 E.0417
G1 X120.334 Y99.018 E.03177
G1 X121.441 Y100.178 E.03762
G1 X122.304 Y101.282 E.03287
G1 X123.132 Y102.59 E.03632
G1 X123.694 Y103.682 E.02881
G1 X124.219 Y104.975 E.03274
G1 X124.634 Y106.353 E.03376
G1 X124.915 Y107.764 E.03375
G1 X125.054 Y109.115 E.03186
G1 X125.054 Y110.885 E.04152
G1 X124.915 Y112.236 E.03186
G1 X124.634 Y113.647 E.03375
G1 X124.191 Y115.105 E.03575
G1 X123.651 Y116.41 E.03313
G1 X122.853 Y117.888 E.0394
G1 X122.204 Y118.86 E.02742
G1 X121.039 Y120.274 E.04298
G1 X120.136 Y121.167 E.02979
G1 X118.81 Y122.239 E.04
G1 X117.742 Y122.942 E.03
G1 X116.415 Y123.649 E.03527
G1 X115.048 Y124.211 E.03467
G1 X113.626 Y124.639 E.03484
G1 X112.15 Y124.927 E.03528
G1 X110.885 Y125.054 E.02983
G1 X109.115 Y125.054 E.04152
G1 X107.743 Y124.912 E.03236
G1 X106.261 Y124.61 E.03548
G1 X104.875 Y124.184 E.03402
G1 X103.463 Y123.591 E.03593
G1 X101.959 Y122.756 E.04036
G1 X100.919 Y122.04 E.02962
G1 X99.585 Y120.905 E.04109
G1 X98.73 Y120.021 E.02885
G1 X97.652 Y118.655 E.04082
G1 X96.429 Y116.576 E.05659
G1 X95.763 Y114.977 E.04064
G1 X95.376 Y113.688 E.03157
G1 X95.073 Y112.15 E.03677
G1 X94.946 Y110.885 E.02983
G1 X94.946 Y109.115 E.04152
G1 X95.092 Y107.725 E.03279
G1 X95.403 Y106.21 E.03628
G1 X95.823 Y104.857 E.03323
G1 X96.465 Y103.349 E.03845
G1 X97.046 Y102.279 E.02856
G1 X98.048 Y100.803 E.04185
G1 X98.752 Y99.96 E.02577
G1 X99.049 Y100.208 F15000
G1 F1080
G1 X99.093 Y100.155 E.00162
G1 X100.346 Y98.923 E.04122
G1 X101.238 Y98.205 E.02686
G1 X102.691 Y97.254 E.04074
G1 X103.73 Y96.712 E.02749
G1 X105.08 Y96.154 E.03427
G1 X106.466 Y95.738 E.03395
G1 X107.897 Y95.458 E.03421
G1 X109.144 Y95.333 E.0294
G1 X110.856 Y95.333 E.04016
G1 X112.209 Y95.474 E.03191
G1 X113.608 Y95.756 E.03348
G1 X115.023 Y96.192 E.03474
G1 X116.32 Y96.735 E.03299
G1 X117.64 Y97.449 E.03521
G1 X119.069 Y98.441 E.04081
G1 X120.066 Y99.299 E.03086
G1 X121.152 Y100.436 E.03689
G1 X121.987 Y101.505 E.03182
G1 X122.797 Y102.786 E.03556
G1 X123.34 Y103.841 E.02784
G1 X123.851 Y105.097 E.03181
G1 X124.257 Y106.445 E.03303
G1 X124.532 Y107.824 E.03299
G1 X124.667 Y109.144 E.03113
G1 X124.667 Y110.856 E.04016
G1 X124.532 Y112.176 E.03113
G1 X124.257 Y113.555 E.03299
G1 X123.827 Y114.971 E.03472
G1 X123.304 Y116.237 E.03213
G1 X122.518 Y117.692 E.0388
G1 X121.887 Y118.637 E.02666
G1 X120.749 Y120.016 E.04194
G1 X119.882 Y120.873 E.0286
G1 X118.577 Y121.929 E.03938
G1 X117.551 Y122.605 E.02882
G1 X116.254 Y123.296 E.03448
G1 X114.926 Y123.843 E.03369
G1 X113.538 Y124.261 E.03401
G1 X112.103 Y124.542 E.0343
G1 X110.856 Y124.667 E.0294
G1 X109.144 Y124.667 E.04016
G1 X107.806 Y124.529 E.03156
G1 X106.364 Y124.236 E.03452
G1 X105.012 Y123.821 E.03318
G1 X103.637 Y123.244 E.03498
G1 X102.16 Y122.425 E.03962
G1 X101.157 Y121.735 E.02856
G1 X99.848 Y120.619 E.04035
G1 X98.313 Y118.905 E.05398
G1 X97.323 Y117.429 E.04169
G1 X96.781 Y116.414 E.02699
G1 X96.129 Y114.848 E.03979
G1 X95.752 Y113.591 E.03079
G1 X95.458 Y112.103 E.03558
G1 X95.333 Y110.856 E.0294
G1 X95.333 Y109.144 E.04016
G1 X95.474 Y107.791 E.03191
G1 X95.778 Y106.307 E.03554
G1 X96.185 Y104.997 E.03218
G1 X96.811 Y103.523 E.03757
G1 X97.374 Y102.486 E.02768
G1 X98.354 Y101.042 E.04094
G1 X99.01 Y100.254 E.02405
;WIPE_START
G1 F12000
G1 X99.049 Y100.208 E-.01003
G1 X99.093 Y100.155 E-.01145
G1 X100.346 Y98.923 E-.29214
G1 X101.238 Y98.205 E-.19037
G1 X102.691 Y97.254 E-.2887
G1 X103.73 Y96.712 E-.19482
G1 X105.08 Y96.154 E-.24285
G1 X106.466 Y95.738 E-.24058
G1 X107.897 Y95.458 E-.24242
G1 X109.144 Y95.333 E-.20835
G1 X109.615 Y95.333 E-.07829
;WIPE_END
G1 Z.35 F1800
G1 X114.121 Y120.641 F15000
G1 Z.15 F1800
G1 E2 F2100
;TYPE:Perimeter
;WIDTH:0.419999
G1 F1080
G1 X113.573 Y120.836 E.01365
G1 X113.029 Y121.001 E.01334
G1 X112.479 Y121.138 E.0133
G1 X111.911 Y121.25 E.01358
G1 X111.303 Y121.336 E.01441
G1 X110.655 Y121.393 E.01526
G1 X109.624 Y121.393 E.02419
G1 X109.067 Y121.373 E.01308
G1 X108.563 Y121.32 E.01189
G1 X108.031 Y121.239 E.01262
G1 X107.473 Y121.127 E.01335
G1 X106.943 Y120.994 E.01282
G1 X106.365 Y120.816 E.01419
G1 X105.718 Y120.58 E.01616
G1 X105.089 Y120.303 E.01612
G1 X104.476 Y119.987 E.01618
G1 X103.726 Y119.535 E.02054
G1 X103.156 Y119.134 E.01635
G1 X102.607 Y118.695 E.01649
G1 X101.978 Y118.12 E.01999
G1 X101.492 Y117.609 E.01654
G1 X101.042 Y117.072 E.01644
G1 X100.536 Y116.38 E.02011
G1 X100.166 Y115.794 E.01626
G1 X99.837 Y115.193 E.01607
G1 X99.345 Y114.081 E.02853
G1 X99.16 Y113.564 E.01288
G1 X98.998 Y113.028 E.01314
G1 X98.864 Y112.489 E.01303
G1 X98.751 Y111.912 E.01379
G1 X98.664 Y111.303 E.01443
G1 X98.607 Y110.655 E.01526
G1 X98.607 Y109.624 E.02419
G1 X98.641 Y108.881 E.01745
G1 X98.709 Y108.325 E.01314
G1 X98.807 Y107.763 E.01338
G1 X98.928 Y107.226 E.01291
G1 X99.077 Y106.687 E.01312
G1 X99.253 Y106.156 E.01312
G1 X99.464 Y105.611 E.01371
G1 X99.837 Y104.807 E.02079
G1 X100.166 Y104.206 E.01607
G1 X100.536 Y103.62 E.01626
G1 X101.042 Y102.928 E.02011
G1 X101.492 Y102.391 E.01644
G1 X101.978 Y101.88 E.01654
G1 X102.607 Y101.305 E.01999
G1 X103.156 Y100.866 E.01649
G1 X103.726 Y100.465 E.01635
G1 X104.476 Y100.013 E.02054
G1 X105.089 Y99.697 E.01618
G1 X105.709 Y99.424 E.01589
G1 X106.933 Y99.011 E.0303
G1 X107.521 Y98.862 E.01423
G1 X108.089 Y98.751 E.01358
G1 X108.697 Y98.664 E.01441
G1 X109.345 Y98.607 E.01526
G1 X110.642 Y98.607 E.03043
G1 X111.686 Y98.711 E.02461
G1 X112.445 Y98.854 E.01812
G1 X112.995 Y98.988 E.01328
G1 X113.605 Y99.176 E.01497
G1 X114.131 Y99.363 E.0131
G1 X114.621 Y99.567 E.01245
G1 X115.079 Y99.781 E.01186
G1 X115.614 Y100.068 E.01424
G1 X116.188 Y100.416 E.01575
G1 X116.888 Y100.909 E.02009
G1 X117.46 Y101.369 E.01722
G1 X117.963 Y101.83 E.01601
G1 X118.541 Y102.441 E.01973
G1 X119.011 Y103.003 E.01719
G1 X119.406 Y103.545 E.01573
G1 X119.855 Y104.259 E.01979
G1 X120.22 Y104.929 E.0179
G1 X120.456 Y105.428 E.01295
G1 X120.65 Y105.905 E.01208
G1 X120.831 Y106.41 E.01258
G1 X121 Y106.968 E.01368
G1 X121.138 Y107.522 E.01339
G1 X121.32 Y108.563 E.02479
G1 X121.373 Y109.067 E.01189
G1 X121.393 Y109.624 E.01308
G1 X121.373 Y110.933 E.03071
G1 X121.239 Y111.973 E.0246
G1 X121.131 Y112.509 E.01283
G1 X120.989 Y113.071 E.0136
G1 X120.831 Y113.591 E.01275
G1 X120.624 Y114.163 E.01427
G1 X120.358 Y114.796 E.01611
G1 X120.049 Y115.412 E.01617
G1 X119.608 Y116.16 E.02037
G1 X119.216 Y116.733 E.01629
G1 X118.786 Y117.286 E.01643
G1 X118.22 Y117.917 E.01989
G1 X117.714 Y118.412 E.01661
G1 X117.182 Y118.871 E.01648
G1 X116.781 Y119.171 E.01175
G1 X116.188 Y119.584 E.01695
G1 X115.573 Y119.955 E.01685
G1 X115.079 Y120.219 E.01314
G1 X114.61 Y120.438 E.01214
G1 X114.176 Y120.618 E.01102
G1 X113.878 Y121.139 F15000
G1 F1080
G1 X113.695 Y121.205 E.00456
G1 X113.133 Y121.375 E.01377
G1 X112.564 Y121.516 E.01375
G1 X111.977 Y121.632 E.01404
G1 X111.351 Y121.721 E.01483
G1 X110.669 Y121.781 E.01606
G1 X109.624 Y121.781 E.02451
G1 X109.038 Y121.76 E.01376
G1 X108.515 Y121.705 E.01234
G1 X107.965 Y121.622 E.01305
G1 X107.388 Y121.505 E.01381
G1 X106.839 Y121.367 E.01328
G1 X106.243 Y121.185 E.01462
G1 X105.57 Y120.939 E.01681
G1 X104.922 Y120.654 E.01661
G1 X104.287 Y120.326 E.01677
G1 X103.514 Y119.86 E.02117
G1 X102.923 Y119.445 E.01694
G1 X102.355 Y118.99 E.01707
G1 X101.707 Y118.397 E.02061
G1 X101.203 Y117.867 E.01716
G1 X100.737 Y117.311 E.01702
G1 X100.215 Y116.599 E.02071
G1 X99.832 Y115.991 E.01686
G1 X99.491 Y115.368 E.01666
G1 X98.983 Y114.221 E.02943
G1 X98.792 Y113.686 E.01333
G1 X98.625 Y113.131 E.0136
G1 X98.486 Y112.575 E.01344
G1 X98.369 Y111.979 E.01425
G1 X98.279 Y111.351 E.01488
G1 X98.219 Y110.669 E.01606
G1 X98.219 Y109.624 E.02451
G1 X98.255 Y108.843 E.01834
G1 X98.326 Y108.268 E.01359
G1 X98.427 Y107.687 E.01383
G1 X98.552 Y107.132 E.01335
G1 X98.706 Y106.574 E.01358
G1 X98.887 Y106.025 E.01356
G1 X99.107 Y105.459 E.01425
G1 X99.491 Y104.632 E.02139
G1 X99.832 Y104.009 E.01666
G1 X100.215 Y103.401 E.01686
G1 X100.737 Y102.689 E.02071
G1 X101.203 Y102.133 E.01702
G1 X101.707 Y101.603 E.01716
G1 X102.355 Y101.01 E.02061
G1 X102.923 Y100.555 E.01707
G1 X103.514 Y100.14 E.01694
G1 X104.287 Y99.674 E.02117
G1 X104.922 Y99.346 E.01677
G1 X105.565 Y99.063 E.01648
G1 X106.827 Y98.638 E.03124
G1 X107.435 Y98.484 E.01471
G1 X108.022 Y98.368 E.01404
G1 X108.649 Y98.279 E.01486
G1 X109.331 Y98.219 E.01606
G1 X110.662 Y98.219 E.03122
G1 X111.4 Y98.293 E.0174
G1 X112.074 Y98.385 E.01596
G1 X112.612 Y98.494 E.01288
G1 X113.097 Y98.614 E.01172
G1 X113.726 Y98.807 E.01543
G1 X114.271 Y99.002 E.01358
G1 X114.837 Y99.238 E.01439
G1 X115.48 Y99.548 E.01675
G1 X116.107 Y99.901 E.01688
G1 X116.713 Y100.294 E.01694
G1 X117.714 Y101.075 E.02978
G1 X118.234 Y101.553 E.01657
G1 X118.83 Y102.182 E.02033
G1 X119.317 Y102.765 E.01782
G1 X119.727 Y103.326 E.0163
G1 X120.189 Y104.062 E.02039
G1 X120.595 Y104.813 E.02003
G1 X120.811 Y105.272 E.0119
G1 X121.199 Y106.288 E.02551
G1 X121.374 Y106.864 E.01412
G1 X121.517 Y107.437 E.01385
G1 X121.621 Y107.96 E.01251
G1 X121.705 Y108.515 E.01317
G1 X121.76 Y109.038 E.01234
G1 X121.781 Y109.624 E.01376
G1 X121.76 Y110.962 E.03139
G1 X121.621 Y112.04 E.0255
G1 X121.51 Y112.594 E.01325
G1 X121.363 Y113.174 E.01404
G1 X121.199 Y113.713 E.01322
G1 X120.986 Y114.302 E.01469
G1 X120.709 Y114.96 E.01675
G1 X120.39 Y115.598 E.01673
G1 X119.935 Y116.368 E.02098
G1 X119.529 Y116.962 E.01688
G1 X119.084 Y117.535 E.01702
G1 X118.501 Y118.186 E.0205
G1 X117.977 Y118.698 E.01719
G1 X117.425 Y119.173 E.01708
G1 X117.013 Y119.481 E.01207
G1 X116.399 Y119.909 E.01756
G1 X115.702 Y120.327 E.01907
G1 X115.252 Y120.566 E.01195
G1 X114.767 Y120.792 E.01255
G1 X114.261 Y121.002 E.01285
G1 X113.935 Y121.119 E.00813
G1 X113.531 Y121.667 F15000
;TYPE:External perimeter
G1 F540
G1 X112.962 Y121.825 E.01385
G1 X112.379 Y121.956 E.01402
G1 X111.789 Y122.058 E.01405
G1 X111.195 Y122.131 E.01404
G1 X110.684 Y122.169 E.01202
G1 X109.316 Y122.169 E.03209
G1 X108.805 Y122.131 E.01202
G1 X108.211 Y122.058 E.01404
G1 X107.623 Y121.956 E.014
G1 X107.023 Y121.821 E.01443
G1 X106.461 Y121.665 E.01368
G1 X105.893 Y121.477 E.01404
G1 X105.423 Y121.298 E.0118
G1 X104.755 Y121.004 E.01712
G1 X104.098 Y120.665 E.01734
G1 X103.302 Y120.185 E.02181
G1 X102.69 Y119.755 E.01755
G1 X102.102 Y119.284 E.01767
G1 X101.435 Y118.674 E.0212
G1 X100.914 Y118.126 E.01774
G1 X100.431 Y117.551 E.01762
G1 X99.894 Y116.817 E.02134
G1 X99.497 Y116.187 E.01747
G1 X99.144 Y115.543 E.01723
G1 X98.75 Y114.693 E.02198
G1 X98.522 Y114.106 E.01477
G1 X98.335 Y113.538 E.01403
G1 X98.176 Y112.963 E.014
G1 X98.046 Y112.388 E.01383
G1 X97.942 Y111.789 E.01426
G1 X97.869 Y111.195 E.01404
G1 X97.831 Y110.684 E.01202
G1 X97.831 Y109.316 E.03209
G1 X97.869 Y108.805 E.01202
G1 X97.942 Y108.211 E.01404
G1 X98.046 Y107.612 E.01426
G1 X98.176 Y107.037 E.01383
G1 X98.335 Y106.462 E.014
G1 X98.522 Y105.894 E.01403
G1 X98.75 Y105.307 E.01477
G1 X99.144 Y104.457 E.02198
G1 X99.497 Y103.813 E.01723
G1 X99.894 Y103.183 E.01747
G1 X100.431 Y102.449 E.02134
G1 X100.914 Y101.874 E.01762
G1 X101.435 Y101.326 E.01774
G1 X102.102 Y100.716 E.0212
G1 X102.69 Y100.245 E.01767
G1 X103.302 Y99.815 E.01755
G1 X104.098 Y99.335 E.02181
G1 X104.755 Y98.996 E.01734
G1 X105.421 Y98.703 E.01707
G1 X106.34 Y98.373 E.02291
G1 X107.024 Y98.179 E.01668
G1 X107.623 Y98.044 E.0144
G1 X108.211 Y97.942 E.014
G1 X108.805 Y97.869 E.01404
G1 X109.316 Y97.831 E.01202
G1 X110.681 Y97.831 E.03202
G1 X111.791 Y97.942 E.02617
G1 X112.379 Y98.044 E.014
G1 X112.962 Y98.175 E.01402
G1 X113.454 Y98.31 E.01197
G1 X114.132 Y98.532 E.01674
G1 X114.665 Y98.738 E.01341
G1 X115.212 Y98.98 E.01403
G1 X115.662 Y99.205 E.0118
G1 X116.308 Y99.569 E.01739
G1 X116.935 Y99.976 E.01754
G1 X117.668 Y100.524 E.02147
G1 X118.239 Y101.016 E.01768
G1 X118.781 Y101.546 E.01778
G1 X119.381 Y102.217 E.02112
G1 X119.843 Y102.809 E.01762
G1 X120.263 Y103.424 E.01747
G1 X120.523 Y103.865 E.01201
G1 X120.942 Y104.639 E.02065
G1 X121.166 Y105.116 E.01236
G1 X121.568 Y106.166 E.02638
G1 X121.748 Y106.761 E.01458
G1 X121.895 Y107.352 E.01429
G1 X122.014 Y107.955 E.01442
G1 X122.09 Y108.468 E.01217
G1 X122.146 Y109.01 E.01278
G1 X122.169 Y109.624 E.01441
G1 X122.169 Y110.684 E.02487
G1 X122.131 Y111.195 E.01202
G1 X122.058 Y111.789 E.01404
G1 X121.956 Y112.378 E.01402
G1 X121.825 Y112.961 E.01402
G1 X121.659 Y113.558 E.01454
G1 X121.477 Y114.107 E.01357
G1 X121.06 Y115.125 E.02581
G1 X120.731 Y115.783 E.01726
G1 X120.263 Y116.576 E.0216
G1 X119.843 Y117.191 E.01747
G1 X119.381 Y117.783 E.01762
G1 X118.781 Y118.454 E.02112
G1 X118.239 Y118.984 E.01778
G1 X117.668 Y119.476 E.01768
G1 X116.935 Y120.024 E.02147
G1 X116.308 Y120.431 E.01754
G1 X115.662 Y120.795 E.01739
G1 X115.212 Y121.02 E.0118
G1 X114.665 Y121.262 E.01403
G1 X114.131 Y121.469 E.01344
G1 X113.588 Y121.649 E.01342
G1 E-2 F2100
G1 Z.35 F1800
G1 X116.456 Y100.732 F15000
G1 Z.15 F1800
G1 E2 F2100
;TYPE:Solid infill
;WIDTH:0.422373
G1 F360
G1 X118.024 Y102.3 E.05234
G1 X118.562 Y102.901 E.01904
G1 X118.981 Y103.438 E.01608
