; generated by PrusaSlicer 2.9.1 on 2025-05-18 at 09:10:54 UTC

; v1.0.0

; external perimeters extrusion width = 0.42mm
; perimeters extrusion width = 0.44mm
; infill extrusion width = 0.44mm
; solid infill extrusion width = 0.44mm
; top infill extrusion width = 0.40mm
; support material extrusion width = 0.35mm
; first layer extrusion width = 0.42mm

M190 S60 ; set bed temperature and wait for it to be reached
M104 S220 ; set temperature
;TYPE:Custom
G28 ; home all axes
G1 Z0.28 F5000
M109 S220 ; set temperature and wait for it to be reached
G21 ; set units to millimeters
G90 ; use absolute coordinates
M83 ; use relative distances for extrusion
; Filament gcode
M107
;LAYER_CHANGE
;Z:0.15
;HEIGHT:0.15
G1 E-2 F2100
G1 Z.35 F1800
G1 X99.302 Y98.829 F15000
G1 Z.15 F1800
G1 E2 F2100
;TYPE:Skirt/Brim
;WIDTH:0.42
G1 F1080
G1 X100.523 Y97.777 E.03781
G1 X101.545 Y97.046 E.02948
G1 X103.115 Y96.15 E.04241
G1 X104.446 Y95.564 E.03412
G1 X106.154 Y95.017 E.04207
G1 X107.488 Y94.738 E.03197
G1 X109.168 Y94.554 E.03965
G1 X110.423 Y94.54 E.02944
G1 X112.198 Y94.688 E.04178
G1 X113.481 Y94.929 E.03062
G1 X115.172 Y95.421 E.04131
G1 X116.32 Y95.882 E.02902
G1 X117.934 Y96.721 E.04267
G1 X118.95 Y97.383 E.02845
G1 X120.389 Y98.54 E.04332
G1 X121.25 Y99.382 E.02825
G1 X122.437 Y100.803 E.04344
G1 X123.123 Y101.811 E.0286
G1 X123.999 Y103.419 E.04296
G1 X124.499 Y104.609 E.03028
G1 X125.011 Y106.262 E.0406
G1 X125.298 Y107.704 E.03449
G1 X125.446 Y109.168 E.03452
G1 X125.454 Y110.686 E.03561
G1 X125.298 Y112.296 E.03795
G1 X125.034 Y113.645 E.03225
G1 X124.588 Y115.147 E.03676
G1 X124.059 Y116.452 E.03303
G1 X123.485 Y117.574 E.02957
G1 X122.524 Y119.079 E.04189
G1 X121.726 Y120.085 E.03012
G1 X120.499 Y121.361 E.04153
G1 X119.533 Y122.18 E.02971
G1 X118.06 Y123.203 E.04207
G1 X116.664 Y123.96 E.03725
G1 X115.307 Y124.53 E.03453
G1 X113.81 Y124.993 E.03676
G1 X112.342 Y125.291 E.03514
G1 X110.832 Y125.446 E.03561
G1 X109.314 Y125.454 E.03561
G1 X107.802 Y125.312 E.03563
G1 X106.294 Y125.018 E.03604
G1 X104.83 Y124.58 E.03585
G1 X103.417 Y123.998 E.03585
G1 X102.251 Y123.387 E.03088
G1 X100.793 Y122.43 E.04091
G1 X99.781 Y121.612 E.03053
G1 X98.531 Y120.379 E.04119
G1 X97.692 Y119.369 E.0308
G1 X96.717 Y117.926 E.04085
G1 X96.082 Y116.749 E.03137
G1 X95.428 Y115.194 E.03957
G1 X95.001 Y113.786 E.03452
G1 X94.709 Y112.342 E.03456
G1 X94.554 Y110.832 E.03561
G1 X94.546 Y109.314 E.03561
G1 X94.688 Y107.802 E.03563
G1 X94.978 Y106.309 E.03568
G1 X95.394 Y104.904 E.03437
G1 X95.848 Y103.761 E.02885
G1 X96.553 Y102.357 E.03686
G1 X97.21 Y101.3 E.0292
G1 X98.303 Y99.88 E.04204
G1 X99.261 Y98.873 E.03261
M204 T2500
G1 X99.541 Y99.139 F15000
G1 F1080
G1 X99.565 Y99.115 E.0008
G1 X100.766 Y98.079 E.03721
G1 X102.774 Y96.764 E.05631
G1 X104.379 Y96.005 E.04165
G1 X105.68 Y95.551 E.03233
G1 X107.209 Y95.18 E.03691
G1 X108.585 Y94.985 E.0326
G1 X110.413 Y94.928 E.0429
G1 X112.15 Y95.073 E.04089
G1 X113.396 Y95.307 E.02974
G1 X115.05 Y95.789 E.04042
G1 X116.163 Y96.236 E.02814
G1 X117.743 Y97.058 E.04178
G1 X118.727 Y97.7 E.02756
G1 X120.136 Y98.834 E.04243
G1 X120.969 Y99.65 E.02736
G1 X122.131 Y101.042 E.04254
G1 X122.796 Y102.018 E.02771
G1 X123.652 Y103.593 E.04205
G1 X124.135 Y104.743 E.02926
G1 X124.634 Y106.353 E.03954
G1 X124.915 Y107.764 E.03375
G1 X125.06 Y109.197 E.03379
G1 X125.066 Y110.677 E.03472
G1 X124.915 Y112.236 E.03674
G1 X124.657 Y113.553 E.03148
G1 X124.219 Y115.025 E.03603
G1 X123.704 Y116.296 E.03217
G1 X122.847 Y117.898 E.04262
G1 X121.437 Y119.827 E.05605
G1 X120.231 Y121.08 E.0408
G1 X119.299 Y121.87 E.02866
G1 X117.852 Y122.876 E.04134
G1 X116.492 Y123.612 E.03628
G1 X115.167 Y124.168 E.03371
G1 X113.709 Y124.618 E.0358
G1 X112.275 Y124.908 E.03432
G1 X110.803 Y125.06 E.03472
G1 X109.323 Y125.066 E.03472
G1 X107.743 Y124.912 E.03724
G1 X106.379 Y124.64 E.03263
G1 X104.955 Y124.213 E.03488
G1 X103.574 Y123.643 E.03505
G1 X102.452 Y123.055 E.02972
G1 X100.916 Y122.039 E.0432
G1 X100.044 Y121.327 E.02641
G1 X98.812 Y120.112 E.04059
G1 X98.006 Y119.141 E.0296
G1 X97.045 Y117.719 E.04026
G1 X96.434 Y116.587 E.03018
G1 X95.794 Y115.065 E.03873
G1 X95.376 Y113.688 E.03376
G1 X95.092 Y112.276 E.03379
G1 X94.94 Y110.803 E.03474
G1 X94.934 Y109.323 E.03472
G1 X95.073 Y107.85 E.03471
G1 X95.356 Y106.395 E.03477
G1 X95.76 Y105.032 E.03335
G1 X96.2 Y103.923 E.02799
G1 X96.867 Y102.591 E.03495
G1 X97.527 Y101.523 E.02945
G1 X98.601 Y100.128 E.0413
G1 X99.5 Y99.183 E.0306
G1 X99.78 Y99.449 F15000
G1 F1080
G1 X99.827 Y99.4 E.00159
G1 X101.009 Y98.381 E.03661
G1 X102.953 Y97.108 E.05451
G1 X104.519 Y96.367 E.04064
G1 X105.784 Y95.925 E.03144
G1 X107.275 Y95.562 E.036
G1 X108.613 Y95.372 E.0317
G1 X110.404 Y95.315 E.04204
G1 X112.103 Y95.458 E.04
G1 X113.312 Y95.686 E.02886
G1 X114.927 Y96.158 E.03947
G1 X116.006 Y96.591 E.02727
G1 X117.551 Y97.396 E.04087
G1 X118.504 Y98.018 E.0267
G1 X119.883 Y99.127 E.04151
G1 X120.688 Y99.917 E.02646
G1 X121.825 Y101.28 E.04164
G1 X122.468 Y102.226 E.02683
G1 X123.305 Y103.766 E.04112
G1 X123.772 Y104.878 E.02829
G1 X124.257 Y106.445 E.03848
G1 X124.532 Y107.824 E.03299
G1 X124.673 Y109.225 E.03303
G1 X124.678 Y110.667 E.03383
G1 X124.532 Y112.176 E.03557
G1 X124.28 Y113.462 E.03074
G1 X123.851 Y114.903 E.03527
G1 X123.35 Y116.139 E.03129
G1 X122.512 Y117.702 E.0416
G1 X121.147 Y119.569 E.05426
G1 X119.964 Y120.799 E.04004
G1 X119.066 Y121.561 E.02763
G1 X117.645 Y122.548 E.04059
G1 X116.32 Y123.265 E.03534
G1 X115.028 Y123.807 E.03287
G1 X113.608 Y124.244 E.03485
G1 X112.209 Y124.526 E.03348
G1 X110.775 Y124.673 E.03382
G1 X109.333 Y124.678 E.03383
G1 X107.806 Y124.529 E.03599
G1 X106.465 Y124.262 E.03208
G1 X105.08 Y123.846 E.03393
G1 X103.731 Y123.289 E.03424
G1 X102.653 Y122.724 E.02855
G1 X101.155 Y121.733 E.04214
G1 X100.307 Y121.041 E.02568
G1 X99.092 Y119.844 E.04001
G1 X98.32 Y118.913 E.02837
G1 X97.32 Y117.425 E.04206
G1 X96.787 Y116.425 E.02658
G1 X96.16 Y114.937 E.03788
G1 X95.752 Y113.591 E.033
G1 X95.474 Y112.209 E.03307
G1 X95.327 Y110.775 E.03382
G1 X95.322 Y109.333 E.03383
G1 X95.458 Y107.897 E.03384
G1 X95.735 Y106.48 E.03387
G1 X96.126 Y105.161 E.03227
G1 X96.553 Y104.084 E.02718
G1 X97.223 Y102.748 E.03506
G1 X97.844 Y101.746 E.02765
G1 X98.899 Y100.376 E.04056
G1 X99.739 Y99.493 E.02859
;WIPE_START
G1 F12000
G1 X99.78 Y99.449 E-.01
G1 X99.827 Y99.4 E-.01129
G1 X101.009 Y98.381 E-.25945
G1 X102.953 Y97.108 E-.38632
G1 X104.519 Y96.367 E-.28802
G1 X105.784 Y95.925 E-.22277
G1 X107.275 Y95.562 E-.25512
G1 X108.613 Y95.372 E-.22467
G1 X110.404 Y95.315 E-.2979
G1 X110.67 Y95.337 E-.04446
;WIPE_END
G1 Z.35 F1800
G1 X121.248 Y111.915 F15000
G1 Z.15 F1800
G1 E2 F2100
;TYPE:Perimeter
;WIDTH:0.419999
G1 F1080
G1 X121.24 Y111.966 E.00121
G1 X121.133 Y112.504 E.01287
G1 X120.989 Y113.072 E.01375
G1 X120.831 Y113.592 E.01275
G1 X120.649 Y114.098 E.01261
G1 X120.456 Y114.57 E.01196
G1 X120.197 Y115.116 E.01418
G1 X119.878 Y115.707 E.01576
G1 X119.421 Y116.43 E.02007
G1 X118.989 Y117.024 E.01723
G1 X118.553 Y117.55 E.01603
G1 X117.975 Y118.154 E.01961
G1 X117.434 Y118.653 E.01727
G1 X116.906 Y119.081 E.01594
G1 X116.224 Y119.557 E.01951
G1 X115.509 Y119.991 E.01962
G1 X114.882 Y120.318 E.01659
G1 X114.368 Y120.545 E.01318
G1 X113.87 Y120.738 E.01253
G1 X113.312 Y120.923 E.01379
G1 X112.773 Y121.072 E.01312
G1 X112.228 Y121.195 E.01311
G1 X111.675 Y121.291 E.01317
G1 X111.119 Y121.359 E.01314
G1 X110.572 Y121.399 E.01287
G1 X109.757 Y121.399 E.01912
G1 X109.1 Y121.375 E.01542
G1 X108.577 Y121.322 E.01233
G1 X108.039 Y121.241 E.01276
G1 X107.477 Y121.128 E.01345
G1 X106.946 Y120.995 E.01284
G1 X106.363 Y120.816 E.01431
G1 X105.721 Y120.581 E.01604
G1 X105.091 Y120.304 E.01614
G1 X104.322 Y119.9 E.02038
G1 X103.731 Y119.538 E.01626
G1 X103.157 Y119.135 E.01645
G1 X102.5 Y118.603 E.01983
G1 X101.981 Y118.123 E.01658
G1 X101.493 Y117.61 E.01661
G1 X100.951 Y116.955 E.01994
G1 X100.539 Y116.384 E.01652
G1 X100.167 Y115.795 E.01634
G1 X99.751 Y115.023 E.02057
G1 X99.466 Y114.394 E.0162
G1 X99.253 Y113.844 E.01384
G1 X99.077 Y113.313 E.01312
G1 X98.928 Y112.774 E.01312
G1 X98.807 Y112.238 E.01289
G1 X98.709 Y111.675 E.01341
G1 X98.641 Y111.119 E.01314
G1 X98.601 Y110.572 E.01287
G1 X98.601 Y109.428 E.02684
G1 X98.641 Y108.881 E.01287
G1 X98.709 Y108.325 E.01314
G1 X98.807 Y107.762 E.01341
G1 X98.928 Y107.226 E.01289
G1 X99.077 Y106.687 E.01312
G1 X99.253 Y106.156 E.01312
G1 X99.466 Y105.606 E.01384
G1 X99.751 Y104.977 E.0162
G1 X100.362 Y103.896 E.02913
G1 X100.74 Y103.337 E.01583
G1 X101.258 Y102.675 E.01972
G1 X101.748 Y102.123 E.01732
G1 X102.236 Y101.642 E.01607
G1 X102.872 Y101.096 E.01966
G1 X103.457 Y100.654 E.0172
G1 X104.018 Y100.286 E.01574
G1 X104.754 Y99.873 E.0198
G1 X105.499 Y99.516 E.01938
G1 X106.153 Y99.254 E.01653
G1 X106.686 Y99.078 E.01317
G1 X107.211 Y98.932 E.01278
G1 X107.774 Y98.805 E.01354
G1 X108.325 Y98.71 E.01312
G1 X108.881 Y98.641 E.01314
G1 X109.428 Y98.601 E.01287
G1 X110.243 Y98.601 E.01912
G1 X110.9 Y98.625 E.01542
G1 X111.423 Y98.678 E.01233
G1 X111.966 Y98.76 E.01288
G1 X112.509 Y98.869 E.01299
G1 X113.043 Y99.003 E.01292
G1 X113.614 Y99.177 E.014
G1 X114.122 Y99.359 E.01266
G1 X114.681 Y99.594 E.01423
G1 X115.296 Y99.889 E.016
G1 X115.905 Y100.232 E.0164
G1 X116.62 Y100.703 E.02009
G1 X117.178 Y101.126 E.01643
G1 X117.713 Y101.587 E.01657
G1 X118.313 Y102.18 E.01979
G1 X118.783 Y102.711 E.01664
G1 X119.215 Y103.266 E.0165
G1 X119.878 Y104.293 E.02868
G1 X120.218 Y104.926 E.01686
G1 X120.456 Y105.43 E.01308
G1 X120.831 Y106.409 E.02459
G1 X120.999 Y106.963 E.01358
G1 X121.137 Y107.515 E.01335
G1 X121.247 Y108.074 E.01337
G1 X121.322 Y108.577 E.01193
G1 X121.375 Y109.1 E.01233
G1 X121.399 Y109.757 E.01542
G1 X121.375 Y110.9 E.02682
G1 X121.322 Y111.423 E.01233
G1 X121.257 Y111.856 E.01027
G1 X121.551 Y112.388 F15000
G1 F1080
G1 X121.511 Y112.589 E.00481
G1 X121.363 Y113.175 E.01418
G1 X121.199 Y113.713 E.01319
G1 X120.986 Y114.304 E.01474
G1 X120.71 Y114.958 E.01665
G1 X120.388 Y115.601 E.01687
G1 X120.026 Y116.225 E.01692
G1 X119.295 Y117.263 E.02978
G1 X118.843 Y117.807 E.01659
G1 X118.248 Y118.43 E.02021
G1 X117.687 Y118.947 E.0179
G1 X117.14 Y119.39 E.01651
G1 X116.438 Y119.881 E.0201
G1 X115.699 Y120.329 E.02027
G1 X115.047 Y120.669 E.01725
G1 X114.517 Y120.904 E.0136
G1 X114.001 Y121.103 E.01297
G1 X113.425 Y121.294 E.01424
G1 X112.868 Y121.448 E.01356
G1 X112.303 Y121.575 E.01359
G1 X111.732 Y121.674 E.0136
G1 X111.157 Y121.745 E.01359
G1 X110.586 Y121.787 E.01343
G1 X109.757 Y121.787 E.01945
G1 X109.071 Y121.762 E.0161
G1 X108.529 Y121.706 E.01278
G1 X107.973 Y121.623 E.01319
G1 X107.392 Y121.506 E.0139
G1 X106.842 Y121.368 E.0133
G1 X106.241 Y121.184 E.01475
G1 X105.574 Y120.94 E.01666
G1 X104.923 Y120.654 E.01668
G1 X104.131 Y120.238 E.02099
G1 X103.518 Y119.862 E.01687
G1 X102.924 Y119.445 E.01703
G1 X102.246 Y118.896 E.02047
G1 X101.709 Y118.399 E.01717
G1 X101.203 Y117.867 E.01722
G1 X100.644 Y117.192 E.02056
G1 X100.217 Y116.601 E.0171
G1 X99.832 Y115.99 E.01694
G1 X99.404 Y115.195 E.02118
G1 X99.108 Y114.544 E.01678
G1 X98.887 Y113.975 E.01432
G1 X98.706 Y113.426 E.01356
G1 X98.552 Y112.868 E.01358
G1 X98.427 Y112.313 E.01335
G1 X98.326 Y111.732 E.01383
G1 X98.255 Y111.157 E.01359
G1 X98.213 Y110.586 E.01343
G1 X98.213 Y109.414 E.02749
G1 X98.255 Y108.843 E.01343
G1 X98.326 Y108.268 E.01359
G1 X98.427 Y107.687 E.01383
G1 X98.552 Y107.132 E.01335
G1 X98.706 Y106.574 E.01358
G1 X98.887 Y106.025 E.01356
G1 X99.108 Y105.456 E.01432
G1 X99.404 Y104.805 E.01678
G1 X99.832 Y104.01 E.02118
G1 X100.217 Y103.399 E.01694
G1 X100.644 Y102.808 E.0171
G1 X101.203 Y102.133 E.02056
G1 X101.709 Y101.601 E.01722
G1 X102.246 Y101.104 E.01717
G1 X102.924 Y100.555 E.02047
G1 X103.518 Y100.138 E.01703
G1 X104.131 Y99.762 E.01687
G1 X105.343 Y99.161 E.03174
G1 X106.023 Y98.888 E.01719
G1 X106.574 Y98.706 E.01361
G1 X107.117 Y98.556 E.01322
G1 X107.699 Y98.425 E.01399
G1 X108.268 Y98.326 E.01355
G1 X108.843 Y98.255 E.01359
G1 X109.414 Y98.213 E.01343
G1 X110.243 Y98.213 E.01945
G1 X110.929 Y98.238 E.0161
G1 X111.47 Y98.294 E.01276
G1 X112.032 Y98.378 E.01333
G1 X112.594 Y98.49 E.01344
G1 X113.146 Y98.629 E.01335
G1 X113.736 Y98.809 E.01447
G1 X114.262 Y98.998 E.01311
G1 X114.838 Y99.239 E.01465
G1 X115.478 Y99.547 E.01666
G1 X116.107 Y99.901 E.01693
G1 X116.843 Y100.386 E.02068
G1 X117.422 Y100.824 E.01703
G1 X117.976 Y101.302 E.01717
G1 X118.595 Y101.914 E.02042
G1 X119.082 Y102.463 E.01722
G1 X119.529 Y103.038 E.01709
G1 X120.214 Y104.099 E.02963
G1 X120.597 Y104.816 E.01907
G1 X120.812 Y105.274 E.01187
G1 X121.199 Y106.287 E.02544
G1 X121.372 Y106.859 E.01402
G1 X121.515 Y107.43 E.01381
G1 X121.629 Y108.008 E.01382
G1 X121.706 Y108.529 E.01236
G1 X121.762 Y109.071 E.01278
G1 X121.787 Y109.757 E.0161
G1 X121.762 Y110.929 E.0275
G1 X121.706 Y111.471 E.01278
G1 X121.622 Y112.032 E.01331
G1 X121.563 Y112.329 E.0071
G1 X121.817 Y112.962 F15000
;TYPE:External perimeter
G1 F540
G1 X121.737 Y113.279 E.00767
G1 X121.567 Y113.835 E.01364
G1 X121.347 Y114.444 E.01519
G1 X121.061 Y115.123 E.01728
G1 X120.73 Y115.785 E.01736
G1 X120.355 Y116.431 E.01752
G1 X119.844 Y117.19 E.02146
G1 X119.38 Y117.785 E.0177
G1 X118.877 Y118.353 E.0178
G1 X118.24 Y118.983 E.02102
G1 X117.666 Y119.477 E.01777
G1 X117.067 Y119.931 E.01763
G1 X116.309 Y120.43 E.02129
G1 X115.66 Y120.796 E.01748
G1 X115.212 Y121.02 E.01175
G1 X114.665 Y121.262 E.01403
G1 X114.132 Y121.468 E.01341
G1 X113.537 Y121.665 E.0147
G1 X112.962 Y121.825 E.014
G1 X112.379 Y121.956 E.01402
G1 X111.789 Y122.058 E.01405
G1 X111.195 Y122.131 E.01404
G1 X110.601 Y122.175 E.01397
G1 X109.757 Y122.175 E.0198
G1 X109.043 Y122.149 E.01676
G1 X108.482 Y122.091 E.01323
G1 X107.906 Y122.005 E.01366
G1 X107.306 Y121.885 E.01435
G1 X106.739 Y121.742 E.01372
G1 X106.119 Y121.552 E.01521
G1 X105.426 Y121.299 E.01731
G1 X104.754 Y121.003 E.01723
G1 X103.939 Y120.575 E.0216
G1 X103.305 Y120.186 E.01745
G1 X102.69 Y119.755 E.01762
G1 X101.992 Y119.189 E.02108
G1 X101.436 Y118.675 E.01776
G1 X100.913 Y118.125 E.0178
G1 X100.337 Y117.43 E.02118
G1 X99.895 Y116.818 E.01771
G1 X99.497 Y116.186 E.01752
G1 X99.056 Y115.367 E.02182
G1 X98.75 Y114.694 E.01734
G1 X98.522 Y114.106 E.01479
G1 X98.335 Y113.538 E.01403
G1 X98.176 Y112.963 E.014
G1 X98.047 Y112.389 E.0138
G1 X97.942 Y111.789 E.01429
G1 X97.869 Y111.195 E.01404
G1 X97.825 Y110.601 E.01397
G1 X97.825 Y109.399 E.0282
G1 X97.869 Y108.805 E.01397
G1 X97.942 Y108.211 E.01404
G1 X98.047 Y107.611 E.01429
G1 X98.176 Y107.037 E.0138
G1 X98.335 Y106.462 E.014
G1 X98.522 Y105.894 E.01403
G1 X98.75 Y105.306 E.01479
G1 X99.056 Y104.633 E.01734
G1 X99.497 Y103.814 E.02182
G1 X99.895 Y103.182 E.01752
G1 X100.337 Y102.57 E.01771
G1 X100.913 Y101.875 E.02118
G1 X101.436 Y101.325 E.0178
G1 X101.992 Y100.811 E.01776
G1 X102.69 Y100.245 E.02108
G1 X103.305 Y99.814 E.01762
G1 X103.939 Y99.425 E.01745
G1 X105.187 Y98.806 E.03268
G1 X105.893 Y98.523 E.01784
G1 X106.461 Y98.335 E.01404
G1 X107.022 Y98.179 E.01366
G1 X107.623 Y98.044 E.01445
G1 X108.211 Y97.942 E.014
G1 X108.805 Y97.869 E.01404
G1 X109.399 Y97.825 E.01397
G1 X110.601 Y97.825 E.0282
G1 X111.195 Y97.869 E.01397
G1 X111.789 Y97.942 E.01404
G1 X112.379 Y98.044 E.01405
G1 X112.962 Y98.175 E.01402
G1 X113.537 Y98.335 E.014
G1 X114.132 Y98.532 E.0147
G1 X114.665 Y98.738 E.01341
G1 X115.212 Y98.981 E.01404
G1 X115.66 Y99.204 E.01174
G1 X116.309 Y99.57 E.01748
G1 X117.067 Y100.069 E.02129
G1 X117.666 Y100.523 E.01763
G1 X118.24 Y101.017 E.01777
G1 X118.877 Y101.647 E.02102
G1 X119.38 Y102.215 E.0178
G1 X119.844 Y102.81 E.0177
G1 X120.549 Y103.904 E.03053
G1 X120.944 Y104.643 E.01966
G1 X121.167 Y105.118 E.01231
G1 X121.567 Y106.165 E.02629
G1 X121.746 Y106.755 E.01446
G1 X121.893 Y107.345 E.01426
G1 X122.011 Y107.941 E.01425
G1 X122.091 Y108.482 E.01283
G1 X122.149 Y109.043 E.01323
G1 X122.175 Y109.757 E.01676
G1 X122.149 Y110.957 E.02816
G1 X122.091 Y111.518 E.01323
G1 X122.004 Y112.098 E.01376
G1 X121.889 Y112.674 E.01378
G1 X121.831 Y112.904 E.00556
G1 E-2 F2100
G1 Z.35 F1800
G1 X116.451 Y100.731 F15000
G1 Z.15 F1800
G1 E2 F2100
