; generated by PrusaSlicer 2.9.1 on 2025-05-17 at 14:11:24 UTC

; v1.0.0

; external perimeters extrusion width = 0.42mm
; perimeters extrusion width = 0.44mm
; infill extrusion width = 0.44mm
; solid infill extrusion width = 0.44mm
; top infill extrusion width = 0.40mm
; support material extrusion width = 0.35mm
; first layer extrusion width = 0.42mm

M190 S60 ; set bed temperature and wait for it to be reached
M104 S220 ; set temperature
;TYPE:Custom
G28 ; home all axes
G1 Z0.28 F5000
M109 S220 ; set temperature and wait for it to be reached
G21 ; set units to millimeters
G90 ; use absolute coordinates
M83 ; use relative distances for extrusion
; Filament gcode
M107
;LAYER_CHANGE
;Z:0.15
;HEIGHT:0.15
G1 E-2 F2100
G1 Z.35 F1800
G1 X98.423 Y97.515 F15000
G1 Z.15 F1800
G1 E2 F2100
;TYPE:Skirt/Brim
;WIDTH:0.42
G1 F1080
G1 X98.499 Y97.438 E.00254
G1 X100 Y97.03 E.03649
G1 X120 Y97.03 E.46919
G1 X121.477 Y97.424 E.03586
G1 X122.562 Y98.499 E.03583
G1 X122.97 Y100 E.03649
G1 X122.97 Y120 E.46919
G1 X122.576 Y121.477 E.03586
G1 X121.501 Y122.562 E.03583
G1 X120 Y122.97 E.03649
G1 X100 Y122.97 E.46919
G1 X98.523 Y122.576 E.03586
G1 X97.438 Y121.501 E.03583
G1 X97.03 Y120 E.03649
G1 X97.03 Y100 E.46919
G1 X97.424 Y98.523 E.03586
G1 X98.381 Y97.557 E.0319
M204 T2500
G1 X98.66 Y97.867 F15000
G1 F1080
G1 X98.868 Y97.68 E.00656
G1 X100 Y97.418 E.02726
G1 X120 Y97.418 E.46919
G1 X121.368 Y97.811 E.03339
G1 X122.32 Y98.868 E.03337
G1 X122.582 Y100 E.02726
G1 X122.582 Y120 E.46919
G1 X122.189 Y121.368 E.03339
G1 X121.132 Y122.32 E.03337
G1 X120 Y122.582 E.02726
G1 X100 Y122.582 E.46919
G1 X98.632 Y122.189 E.03339
G1 X97.68 Y121.132 E.03337
G1 X97.418 Y120 E.02726
G1 X97.418 Y100 E.46919
G1 X97.811 Y98.632 E.03339
G1 X98.615 Y97.907 E.0254
G1 X98.866 Y98.229 F15000
G1 F1080
G1 X99.23 Y97.946 E.01082
G1 X100 Y97.806 E.01836
G1 X120 Y97.806 E.46919
G1 X121.25 Y98.197 E.03073
G1 X122.054 Y99.23 E.03071
G1 X122.194 Y100 E.01836
G1 X122.194 Y120 E.46919
G1 X121.803 Y121.25 E.03073
G1 X120.77 Y122.054 E.03071
G1 X120 Y122.194 E.01836
G1 X100 Y122.194 E.46919
G1 X98.75 Y121.803 E.03073
G1 X97.946 Y120.77 E.03071
G1 X97.806 Y120 E.01836
G1 X97.806 Y100 E.46919
G1 X98.197 Y98.75 E.03073
G1 X98.819 Y98.266 E.01849
;WIPE_START
G1 F12000
G1 X98.866 Y98.229 E-.00994
G1 X99.23 Y97.946 E-.07665
G1 X100 Y97.806 E-.13011
G1 X110.727 Y97.806 E-1.7833
;WIPE_END
G1 Z.35 F1800
G1 X100.527 Y119.472 F15000
G1 Z.15 F1800
G1 E2 F2100
;TYPE:External perimeter
;WIDTH:0.405628
G1 F540
G1 X100.513 Y119.406 E.00152
;WIDTH:0.379608
G1 X100.498 Y119.34 E.00142
;WIDTH:0.353587
G1 X100.498 Y100.659 E.36319
;WIDTH:0.379466
G1 X100.513 Y100.593 E.00142
;WIDTH:0.405345
G1 X100.527 Y100.527 E.00152
G1 X100.593 Y100.513 E.00152
;WIDTH:0.379466
G1 X100.659 Y100.498 E.00142
;WIDTH:0.353586
G1 X119.34 Y100.498 E.36319
;WIDTH:0.379606
G1 X119.406 Y100.513 E.00142
;WIDTH:0.405626
G1 X119.472 Y100.527 E.00152
G1 X119.487 Y100.593 E.00153
;WIDTH:0.379855
G1 X119.501 Y100.659 E.00142
;WIDTH:0.354084
G1 X119.501 Y119.34 E.36376
;WIDTH:0.379997
G1 X119.487 Y119.406 E.00142
;WIDTH:0.405909
G1 X119.472 Y119.472 E.00153
G1 X119.406 Y119.487 E.00153
;WIDTH:0.379997
G1 X119.34 Y119.501 E.00142
;WIDTH:0.354085
G1 X100.659 Y119.501 E.36376
;WIDTH:0.379857
G1 X100.593 Y119.487 E.00142
;WIDTH:0.405628
G1 X100.586 Y119.485 E.00016
G1 X100.217 Y119.783 F15000
G1 F540
G1 X100.197 Y119.561 E.00504
;WIDTH:0.379608
G1 X100.177 Y119.34 E.00466
;WIDTH:0.353587
G1 X100.177 Y100.659 E.36319
;WIDTH:0.379466
G1 X100.197 Y100.438 E.00466
;WIDTH:0.405345
G1 X100.217 Y100.217 E.00501
G1 X100.438 Y100.197 E.00501
;WIDTH:0.379466
G1 X100.659 Y100.177 E.00466
;WIDTH:0.353586
G1 X119.34 Y100.177 E.36319
;WIDTH:0.379606
G1 X119.561 Y100.197 E.00466
;WIDTH:0.405626
G1 X119.783 Y100.217 E.00504
G1 X119.814 Y100.509 E.00663
;WIDTH:0.371539
G1 X119.823 Y100.659 E.00308
;WIDTH:0.354084
G1 X119.823 Y119.34 E.36376
;WIDTH:0.379997
G1 X119.803 Y119.561 E.00467
;WIDTH:0.405909
G1 X119.782 Y119.782 E.00502
G1 X119.561 Y119.803 E.00502
;WIDTH:0.379997
G1 X119.34 Y119.823 E.00467
;WIDTH:0.354085
G1 X100.659 Y119.823 E.36376
;WIDTH:0.379857
G1 X100.438 Y119.803 E.00467
;WIDTH:0.405628
G1 X100.277 Y119.788 E.00365
M106 S127.5
;LAYER_CHANGE
;Z:0.39
;HEIGHT:0.24
;BEFORE_LAYER_CHANGE
G92 E0
;0.39


;WIPE_START
G1 F12000
G1 X100.217 Y119.783 E-.01001
G1 X100.197 Y119.561 E-.03706
G1 X100.177 Y119.34 E-.03689
G1 X100.177 Y107.815 E-1.91604
;WIPE_END
G1 Z.39 F1800
;AFTER_LAYER_CHANGE
;0.39
M104 S200 ; set temperature
G1 Z.59
G1 X99.468 Y122.828 F15000
G1 Z.39 F1800
G1 E2 F2100
;TYPE:Skirt/Brim
;WIDTH:0.42
G1 F2803
G1 X98.523 Y122.576 E.03488
G1 X97.438 Y121.501 E.05447
G1 X97.03 Y120 E.05548
G1 X97.03 Y100 E.71331
G1 X97.424 Y98.523 E.05452
G1 X98.499 Y97.438 E.05447
G1 X100 Y97.03 E.05548
G1 X120 Y97.03 E.71331
G1 X121.477 Y97.424 E.05452
G1 X122.562 Y98.499 E.05447
G1 X122.97 Y100 E.05548
G1 X122.97 Y120 E.71331
G1 X122.576 Y121.477 E.05452
G1 X121.501 Y122.562 E.05447
G1 X120 Y122.97 E.05548
G1 X100 Y122.97 E.71331
G1 X99.526 Y122.843 E.0175
G1 X99.631 Y122.476 F15000
G1 F2803
G1 X98.632 Y122.189 E.03707
G1 X97.68 Y121.132 E.05073
G1 X97.418 Y120 E.04144
G1 X97.418 Y100 E.71331
G1 X97.811 Y98.632 E.05076
G1 X98.868 Y97.68 E.05073
G1 X100 Y97.418 E.04144
G1 X120 Y97.418 E.71331
G1 X121.368 Y97.811 E.05076
G1 X122.32 Y98.868 E.05073
G1 X122.582 Y100 E.04144
G1 X122.582 Y120 E.71331
G1 X122.189 Y121.368 E.05076
G1 X121.132 Y122.32 E.05073
G1 X120 Y122.582 E.04144
G1 X100 Y122.582 E.71331
G1 X99.689 Y122.492 E.01155
G1 X99.801 Y122.132 F15000
G1 F2803
G1 X98.75 Y121.803 E.03928
G1 X97.946 Y120.77 E.04669
G1 X97.806 Y120 E.02791
G1 X97.806 Y100 E.71331
G1 X98.197 Y98.75 E.04671
G1 X99.23 Y97.946 E.04669
G1 X100 Y97.806 E.02791
G1 X120 Y97.806 E.71331
G1 X121.25 Y98.197 E.04671
G1 X122.054 Y99.23 E.04669
G1 X122.194 Y100 E.02791
G1 X122.194 Y120 E.71331
G1 X121.803 Y121.25 E.04671
G1 X120.77 Y122.054 E.04669
G1 X120 Y122.194 E.02791
G1 X100 Y122.194 E.71331
G1 X99.859 Y122.15 E.00527
;WIPE_START
G1 F12000
G1 X99.801 Y122.132 E-.0101
G1 X98.75 Y121.803 E-.18309
G1 X97.946 Y120.77 E-.21762
G1 X97.806 Y120 E-.13011
G1 X97.806 Y111.224 E-1.45908
;WIPE_END
G1 Z.59 F1800
G1 X100.581 Y118.236 F15000
G1 X100.581 Y119.418
G1 X100.675 Y119.419
G1 X100.675 Y119.325
G1 Z.39 F1800
G1 E2 F2100
;TYPE:External perimeter
;WIDTH:0.531219
G1 F2803
G1 X100.657 Y119.24 E.00403
;WIDTH:0.495971
G1 X100.64 Y119.155 E.00373
;WIDTH:0.460723
G1 X100.64 Y100.844 E.72525
;WIDTH:0.495828
G1 X100.657 Y100.759 E.00373
;WIDTH:0.530933
G1 X100.675 Y100.675 E.00399
G1 X100.759 Y100.657 E.00399
;WIDTH:0.495827
G1 X100.844 Y100.64 E.00373
;WIDTH:0.460722
G1 X119.155 Y100.64 E.72524
;WIDTH:0.495971
G1 X119.24 Y100.657 E.00373
;WIDTH:0.531219
G1 X119.325 Y100.675 E.00403
G1 X119.342 Y100.76 E.00402
;WIDTH:0.496215
G1 X119.36 Y100.844 E.0037
;WIDTH:0.46121
G1 X119.36 Y119.155 E.72611
;WIDTH:0.496357
G1 X119.342 Y119.24 E.00374
;WIDTH:0.531504
G1 X119.325 Y119.325 E.00403
G1 X119.24 Y119.342 E.00403
;WIDTH:0.496357
G1 X119.155 Y119.36 E.00374
;WIDTH:0.46121
G1 X100.844 Y119.36 E.72611
;WIDTH:0.496215
G1 X100.76 Y119.342 E.0037
;WIDTH:0.531219
G1 X100.734 Y119.337 E.00123
G1 X100.266 Y119.734 F15000
G1 F2803
G1 X100.248 Y119.445 E.01344
;WIDTH:0.495971
G1 X100.23 Y119.155 E.0125
;WIDTH:0.460723
G1 X100.23 Y100.844 E.72525
;WIDTH:0.495828
G1 X100.248 Y100.555 E.01245
;WIDTH:0.530933
G1 X100.265 Y100.265 E.01348
G1 X100.555 Y100.248 E.01348
;WIDTH:0.495827
G1 X100.844 Y100.23 E.01245
;WIDTH:0.460722
G1 X119.155 Y100.23 E.72524
;WIDTH:0.495971
G1 X119.445 Y100.248 E.0125
;WIDTH:0.531219
G1 X119.734 Y100.266 E.01344
G1 X119.734 Y100.505 E.0111
G1 X119.752 Y100.675 E.00794
;WIDTH:0.496215
G1 X119.769 Y100.844 E.00731
;WIDTH:0.46121
G1 X119.769 Y119.155 E.72611
;WIDTH:0.464314
G1 X119.768 Y119.226 E.00284
;WIDTH:0.497909
G1 X119.751 Y119.48 E.011
;WIDTH:0.531504
G1 X119.734 Y119.734 E.01183
G1 X119.445 Y119.752 E.01345
;WIDTH:0.496357
G1 X119.155 Y119.769 E.01251
;WIDTH:0.46121
G1 X100.844 Y119.769 E.72611
;WIDTH:0.496215
G1 X100.555 Y119.752 E.01246
;WIDTH:0.531219
G1 X100.326 Y119.738 E.01065
M106 S255
;LAYER_CHANGE
;Z:0.63
;HEIGHT:0.24
;BEFORE_LAYER_CHANGE
G92 E0
;0.63


;WIPE_START
G1 F12000
G1 X100.266 Y119.734 E-.01
G1 X100.248 Y119.445 E-.04814
G1 X100.23 Y119.155 E-.04831
G1 X100.23 Y107.765 E-1.89355
;WIPE_END
G1 Z.63 F1800
;AFTER_LAYER_CHANGE
;0.63
G1 Z.83
G1 X100.701 Y110.556 F15000
G1 X100.701 Y119.298
G1 X100.954 Y119.299
G1 X100.954 Y119.045
G1 Z.63 F1800
G1 E2 F2100
;WIDTH:0.419999
G1 F1420
G1 X100.9 Y118.915 E.00502
G1 X100.9 Y101.084 E.63595
G1 X100.954 Y100.954 E.00502
G1 X101.084 Y100.9 E.00502
G1 X118.915 Y100.9 E.63595
G1 X119.045 Y100.954 E.00502
G1 X119.099 Y101.084 E.00502
G1 X119.099 Y118.915 E.63595
G1 X119.045 Y119.045 E.00502
G1 X118.915 Y119.099 E.00502
G1 X101.084 Y119.099 E.63595
G1 X101.009 Y119.068 E.00289
G1 X100.646 Y119.354 F15000
;TYPE:Perimeter
;WIDTH:0.555046
G1 F1420
G1 X100.623 Y119.244 E.00548
;WIDTH:0.50951
G1 X100.6 Y119.134 E.00498
;WIDTH:0.463974
G1 X100.578 Y119.025 E.00444
;WIDTH:0.418438
G1 X100.555 Y118.915 E.00399
;WIDTH:0.372902
G1 X100.555 Y101.084 E.55467
;WIDTH:0.418299
G1 X100.578 Y100.975 E.00395
;WIDTH:0.463696
G1 X100.6 Y100.865 E.00448
;WIDTH:0.509093
G1 X100.623 Y100.755 E.00498
;WIDTH:0.55449
G1 X100.646 Y100.646 E.00542
G1 X100.755 Y100.623 E.00542
;WIDTH:0.509093
G1 X100.865 Y100.6 E.00498
;WIDTH:0.463695
G1 X100.975 Y100.578 E.00448
;WIDTH:0.418298
G1 X101.084 Y100.555 E.00395
;WIDTH:0.3729
G1 X118.915 Y100.555 E.55467
;WIDTH:0.418437
G1 X119.025 Y100.578 E.00399
;WIDTH:0.463973
G1 X119.134 Y100.6 E.00444
;WIDTH:0.50951
G1 X119.244 Y100.623 E.00498
;WIDTH:0.555046
G1 X119.354 Y100.646 E.00548
G1 X119.377 Y100.756 E.00548
;WIDTH:0.509747
G1 X119.399 Y100.865 E.00493
;WIDTH:0.464447
G1 X119.422 Y100.975 E.00449
;WIDTH:0.419148
G1 X119.445 Y101.084 E.00396
;WIDTH:0.373848
G1 X119.445 Y118.915 E.5563
;WIDTH:0.419287
G1 X119.422 Y119.025 E.004
;WIDTH:0.464725
G1 X119.399 Y119.134 E.00446
;WIDTH:0.510164
G1 X119.376 Y119.244 E.00499
;WIDTH:0.555602
G1 X119.354 Y119.354 E.00547
G1 X119.244 Y119.376 E.00547
;WIDTH:0.510164
G1 X119.134 Y119.399 E.00499
;WIDTH:0.464725
G1 X119.025 Y119.422 E.00446
;WIDTH:0.419287
G1 X118.915 Y119.445 E.004
;WIDTH:0.37385
G1 X101.084 Y119.445 E.55631
;WIDTH:0.419149
G1 X100.975 Y119.422 E.00396
;WIDTH:0.464448
G1 X100.865 Y119.399 E.00449
;WIDTH:0.509747
G1 X100.756 Y119.377 E.00493
;WIDTH:0.555046
G1 X100.705 Y119.366 E.00254
G1 X100.21 Y119.79 F15000
;TYPE:External perimeter
;WIDTH:0.419999
G1 F1420
G1 X100.21 Y100.21 E.69833
G1 X119.79 Y100.21 E.69833
G1 X119.79 Y119.79 E.69833
G1 X100.27 Y119.79 E.69619
;LAYER_CHANGE
;Z:0.87
;HEIGHT:0.24
;BEFORE_LAYER_CHANGE
G92 E0
;0.87


;WIPE_START
G1 F12000
G1 X100.21 Y119.79 E-.00997
G1 X100.21 Y107.82 E-1.99003
;WIPE_END
G1 Z.87 F1800
;AFTER_LAYER_CHANGE
;0.87
G1 Z1.07
G1 X100.821 Y105.667 F15000
G1 X100.821 Y101.641
G1 X100.821 Y101.2
G1 X101.191 Y101.2
G1 Z.87 F1800
G1 E2 F2100
G1 F1547
G1 X101.194 Y101.194 E.00024
G1 X101.324 Y101.14 E.00502
G1 X118.675 Y101.14 E.61883
G1 X118.785 Y101.176 E.00413
G1 X118.859 Y101.324 E.0059
G1 X118.859 Y118.675 E.61883
G1 X118.805 Y118.805 E.00502
G1 X118.675 Y118.859 E.00502
G1 X101.324 Y118.859 E.61883
G1 X101.176 Y118.785 E.0059
G1 X101.14 Y118.675 E.00413
G1 X101.14 Y101.324 E.61883
G1 X101.168 Y101.255 E.00266
G1 X100.923 Y100.928 F15000
;TYPE:Perimeter
;WIDTH:0.48588
G1 F1547
G1 X100.862 Y101.025 E.00482
;WIDTH:0.528203
G1 X100.8 Y101.124 E.00539
;WIDTH:0.570527
G1 X100.737 Y101.224 E.00594
;WIDTH:0.61285
G1 X100.675 Y101.324 E.00639
G1 X100.654 Y101.141 E.01001
;WIDTH:0.570527
G1 X100.633 Y100.957 E.0093
;WIDTH:0.528203
G1 X100.611 Y100.774 E.0085
;WIDTH:0.48588
G1 X100.59 Y100.59 E.00779
;WIDTH:0.443556
G1 X100.786 Y100.59 E.00744
;WIDTH:0.488339
G1 X100.892 Y100.613 E.00459
;WIDTH:0.533121
G1 X100.999 Y100.635 E.00509
;WIDTH:0.577904
G1 X101.105 Y100.657 E.00552
;WIDTH:0.622686
G1 X101.211 Y100.68 E.006
G1 X101.14 Y100.741 E.00517
;WIDTH:0.577904
G1 X101.068 Y100.802 E.00481
;WIDTH:0.533121
G1 X100.996 Y100.864 E.00443
;WIDTH:0.488339
G1 X100.968 Y100.888 E.00156
G1 E-2 F2100
G1 Z1.07 F1800
G1 X118.675 Y100.675 F15000
G1 Z.87 F1800
G1 E2 F2100
;WIDTH:0.612848
G1 F1547
G1 X118.761 Y100.654 E.00481
;WIDTH:0.570897
G1 X118.847 Y100.633 E.00445
;WIDTH:0.528946
G1 X118.932 Y100.612 E.00405
;WIDTH:0.486995
G1 X119.018 Y100.591 E.00373
;WIDTH:0.445044
G1 X119.104 Y100.57 E.00337
;WIDTH:0.403093
G1 X119.35 Y100.57 E.00837
G1 X119.28 Y100.746 E.00645
;WIDTH:0.433409
G1 X119.265 Y101.035 E.0107
;WIDTH:0.463724
G1 X119.25 Y101.324 E.01155
G1 X119.124 Y101.106 E.01005
;WIDTH:0.433409
G1 X118.999 Y100.887 E.00932
;WIDTH:0.445044
G1 X118.934 Y100.845 E.00295
;WIDTH:0.486995
G1 X118.87 Y100.802 E.00325
;WIDTH:0.528946
G1 X118.805 Y100.76 E.00358
;WIDTH:0.570897
G1 X118.74 Y100.717 E.00392
;WIDTH:0.612848
G1 X118.725 Y100.708 E.00095
G1 E-2 F2100
G1 Z1.07 F1800
G1 X101.211 Y100.68 F15000
G1 Z.87 F1800
G1 E2 F2100
;WIDTH:0.622686
G1 F1547
G1 X101.324 Y100.675 E.00625
;WIDTH:0.612848
G1 X118.675 Y100.675 E.94269
G1 X119.25 Y101.324 F15000
;WIDTH:0.463726
G1 F1547
G1 X119.25 Y118.675 E.69227
;WIDTH:0.513022
G1 X119.225 Y118.794 E.00543
;WIDTH:0.562317
G1 X119.2 Y118.913 E.00601
;WIDTH:0.611613
G1 X119.176 Y119.032 E.00658
;WIDTH:0.660908
G1 X119.151 Y119.151 E.00717
G1 X119.032 Y119.176 E.00717
;WIDTH:0.611617
G1 X118.913 Y119.2 E.00658
;WIDTH:0.562325
G1 X118.794 Y119.225 E.00601
;WIDTH:0.513034
G1 X118.675 Y119.25 E.00543
;WIDTH:0.463742
G1 X101.324 Y119.25 E.69229
;WIDTH:0.512234
G1 X101.228 Y119.225 E.00442
;WIDTH:0.560726
G1 X101.131 Y119.201 E.00492
;WIDTH:0.609217
G1 X101.035 Y119.177 E.00534
;WIDTH:0.657709
G1 X100.939 Y119.153 E.00581
;WIDTH:0.706201
G1 X100.842 Y119.128 E.00635
;WIDTH:0.754692
G1 X100.746 Y119.104 E.00673
G1 X100.722 Y118.961 E.00987
;WIDTH:0.707412
G1 X100.699 Y118.818 E.00919
;WIDTH:0.660131
G1 X100.675 Y118.675 E.00854
;WIDTH:0.61285
G1 X100.675 Y101.324 E.9427
;WIPE_START
G1 F12000
G1 X100.675 Y113.354 E-2
;WIPE_END
G1 Z1.07 F1800
G1 X100.529 Y113.354 F15000
G1 X100.583 Y119.211
G1 X100.583 Y119.33
G1 X100.698 Y119.341
G1 X100.675 Y119.668
G1 Z.87 F1800
G1 E2 F2100
;TYPE:External perimeter
;WIDTH:0.419999
G1 F1547
G1 X100.609 Y119.694 E.00253
G1 X100.513 Y119.79 E.00484
G1 X100.21 Y119.79 E.01081
G1 X100.21 Y100.21 E.69833
G1 X119.79 Y100.21 E.69833
G1 X119.79 Y100.513 E.01081
G1 X119.727 Y100.576 E.00318
G1 X119.64 Y100.739 E.00659
G1 X119.64 Y119.151 E.65667
;WIDTH:0.450683
G1 X119.683 Y119.401 E.0098
G1 X119.775 Y119.492 E.005
G1 X119.775 Y119.575 E.00321
;WIDTH:0.450691
G1 X119.775 Y119.775 E.00773
G1 X119.492 Y119.775 E.01093
G1 X119.401 Y119.683 E.005
G1 X119.151 Y119.64 E.0098
;WIDTH:0.419999
G1 X100.746 Y119.64 E.65642
G1 X100.73 Y119.646 E.00061
;LAYER_CHANGE
;Z:1.11
;HEIGHT:0.24
;BEFORE_LAYER_CHANGE
G92 E0
;1.11


;WIPE_START
G1 F12000
G1 X100.675 Y119.668 E-.00985
G1 X100.609 Y119.694 E-.01179
G1 X100.513 Y119.79 E-.02257
G1 X100.21 Y119.79 E-.05037
G1 X100.21 Y108.329 E-1.90542
;WIPE_END
G1 Z1.11 F1800
;AFTER_LAYER_CHANGE
;1.11
G1 Z1.31
G1 X101.007 Y106.545 F15000
G1 X101.007 Y101.444
G1 X101.44 Y101.444
G1 Z1.11 F1800
G1 E2 F2100
G1 F1676
G1 X101.453 Y101.417 E.00107
G1 X101.532 Y101.383 E.00307
G1 X101.564 Y101.38 E.00115
G1 X118.435 Y101.38 E.60171
G1 X118.544 Y101.415 E.00408
G1 X118.619 Y101.564 E.00595
G1 X118.619 Y118.435 E.60171
G1 X118.565 Y118.565 E.00502
G1 X118.435 Y118.619 E.00502
G1 X101.564 Y118.619 E.60171
G1 X101.404 Y118.526 E.0066
G1 X101.38 Y118.435 E.00336
G1 X101.38 Y101.564 E.60171
G1 X101.413 Y101.498 E.00263
;WIPE_START
G1 F12000
G1 X101.44 Y101.444 E-.01004
G1 X101.453 Y101.417 E-.00498
G1 X101.532 Y101.383 E-.0143
G1 X101.564 Y101.38 E-.00534
G1 X113.386 Y101.38 E-1.96534
;WIPE_END
G1 Z1.31 F1800
G1 X113.386 Y100.673 F15000
G1 X119.241 Y100.837
G1 X119.136 Y101.281
G1 X119.147 Y101.559
G1 X119.01 Y101.564
G1 Z1.11 F1800
G1 E2 F2100
;TYPE:Perimeter
;WIDTH:0.463572
G1 F1676
G1 X119.01 Y118.435 E.67286
;WIDTH:0.512865
