; generated by PrusaSlicer 2.9.1 on 2025-05-18 at 08:03:46 UTC

; v1.0.0

; external perimeters extrusion width = 0.42mm
; perimeters extrusion width = 0.44mm
; infill extrusion width = 0.44mm
; solid infill extrusion width = 0.44mm
; top infill extrusion width = 0.40mm
; support material extrusion width = 0.35mm
; first layer extrusion width = 0.42mm

M190 S60 ; set bed temperature and wait for it to be reached
M104 S220 ; set temperature
;TYPE:Custom
G28 ; home all axes
G1 Z0.28 F5000
M109 S220 ; set temperature and wait for it to be reached
G21 ; set units to millimeters
G90 ; use absolute coordinates
M83 ; use relative distances for extrusion
; Filament gcode
M107
;LAYER_CHANGE
;Z:0.15
;HEIGHT:0.15
G1 E-2 F2100
G1 Z.35 F1800
G1 X78.499 Y92.438 F15000
G1 Z.15 F1800
G1 E2 F2100
;TYPE:Skirt/Brim
;WIDTH:0.42
G1 F1080
G1 X80 Y92.03 E.03649
G1 X140 Y92.03 E1.40756
G1 X141.477 Y92.424 E.03586
G1 X142.562 Y93.499 E.03583
G1 X142.97 Y95 E.03649
G1 X142.97 Y125 E.70378
G1 X142.576 Y126.477 E.03586
G1 X141.501 Y127.562 E.03583
G1 X140 Y127.97 E.03649
G1 X80 Y127.97 E1.40756
G1 X78.523 Y127.576 E.03586
G1 X77.438 Y126.501 E.03583
G1 X77.03 Y125 E.03649
G1 X77.03 Y95 E.70378
G1 X77.424 Y93.523 E.03586
G1 X78.457 Y92.48 E.03444
M204 T2500
G1 X78.74 Y92.795 F15000
G1 F1080
G1 X78.868 Y92.68 E.00404
G1 X80 Y92.418 E.02726
G1 X140 Y92.418 E1.40756
G1 X141.368 Y92.811 E.03339
G1 X142.32 Y93.868 E.03337
G1 X142.582 Y95 E.02726
G1 X142.582 Y125 E.70378
G1 X142.189 Y126.368 E.03339
G1 X141.132 Y127.32 E.03337
G1 X140 Y127.582 E.02726
G1 X80 Y127.582 E1.40756
G1 X78.632 Y127.189 E.03339
G1 X77.68 Y126.132 E.03337
G1 X77.418 Y125 E.02726
G1 X77.418 Y95 E.70378
G1 X77.811 Y93.632 E.03339
G1 X78.696 Y92.835 E.02794
G1 X78.951 Y93.163 F15000
G1 F1080
G1 X79.23 Y92.946 E.00829
G1 X80 Y92.806 E.01836
G1 X140 Y92.806 E1.40756
G1 X141.25 Y93.197 E.03073
G1 X142.054 Y94.23 E.03071
G1 X142.194 Y95 E.01836
G1 X142.194 Y125 E.70378
G1 X141.803 Y126.25 E.03073
G1 X140.77 Y127.054 E.03071
G1 X140 Y127.194 E.01836
G1 X80 Y127.194 E1.40756
G1 X78.75 Y126.803 E.03073
G1 X77.946 Y125.77 E.03071
G1 X77.806 Y125 E.01836
G1 X77.806 Y95 E.70378
G1 X78.197 Y93.75 E.03073
G1 X78.904 Y93.2 E.02101
;WIPE_START
G1 F12000
G1 X78.951 Y93.163 E-.00994
G1 X79.23 Y92.946 E-.05876
G1 X80 Y92.806 E-.13011
G1 X90.834 Y92.806 E-1.80119
;WIPE_END
G1 Z.35 F1800
G1 X122.804 Y123.914 F15000
G1 Z.15 F1800
G1 E2 F2100
;TYPE:Perimeter
;WIDTH:0.419999
G1 F1080
G1 X122.804 Y96.086 E.65283
G1 X138.914 Y96.086 E.37793
G1 X138.914 Y104.141 E.18896
G1 X138.914 Y123.914 E.46386
G1 X122.864 Y123.914 E.37652
G1 X122.416 Y124.302 F15000
G1 F1080
G1 X122.416 Y95.698 E.67103
G1 X139.302 Y95.698 E.39613
G1 X139.302 Y104.141 E.19807
G1 X139.302 Y124.302 E.47296
G1 X122.476 Y124.302 E.39473
G1 X122.028 Y124.69 F15000
;TYPE:External perimeter
G1 F540
G1 X122.028 Y95.31 E.68923
G1 X139.69 Y95.31 E.41434
G1 X139.69 Y104.141 E.20717
G1 X139.69 Y124.69 E.48206
G1 X122.088 Y124.69 E.41293
G1 E-2 F2100
G1 Z.35 F1800
G1 X138.01 Y96.202 F15000
G1 Z.15 F1800
G1 E2 F2100
;TYPE:Solid infill
;WIDTH:0.422006
G1 F360
G1 X138.624 Y96.816 E.02048
G1 X138.624 Y97.367 E.01299
G1 X137.633 Y96.376 E.03305
G1 X137.082 Y96.376 E.01299
G1 X138.624 Y97.918 E.05142
G1 X138.624 Y98.47 E.01302
G1 X136.531 Y96.376 E.06981
G1 X135.979 Y96.376 E.01302
G1 X138.624 Y99.021 E.08821
G1 X138.624 Y99.572 E.01299
G1 X135.428 Y96.376 E.10658
G1 X134.877 Y96.376 E.01299
G1 X138.624 Y100.123 E.12496
G1 X138.624 Y100.675 E.01302
G1 X134.325 Y96.376 E.14336
G1 X133.774 Y96.376 E.01299
G1 X138.624 Y101.226 E.16174
G1 X138.624 Y101.777 E.01299
G1 X133.223 Y96.376 E.18011
G1 X132.672 Y96.376 E.01299
G1 X138.624 Y102.328 E.19849
G1 X138.624 Y102.88 E.01302
G1 X132.12 Y96.376 E.2169
G1 X131.569 Y96.376 E.01299
G1 X138.624 Y103.431 E.23527
G1 X138.624 Y103.982 E.01299
G1 X131.018 Y96.376 E.25365
G1 X130.466 Y96.376 E.01302
G1 X138.624 Y104.534 E.27205
G1 X138.624 Y105.085 E.01299
G1 X129.915 Y96.376 E.29043
G1 X129.364 Y96.376 E.01299
G1 X138.624 Y105.636 E.3088
G1 X138.624 Y106.187 E.01299
G1 X128.813 Y96.376 E.32718
G1 X128.261 Y96.376 E.01302
G1 X138.624 Y106.739 E.34559
G1 X138.624 Y107.29 E.01299
G1 X127.71 Y96.376 E.36396
G1 X127.159 Y96.376 E.01299
G1 X138.624 Y107.841 E.38234
G1 X138.624 Y108.393 E.01302
G1 X126.607 Y96.376 E.40074
G1 X126.056 Y96.376 E.01299
G1 X138.624 Y108.944 E.41912
G1 X138.624 Y109.495 E.01299
G1 X125.505 Y96.376 E.43749
G1 X124.954 Y96.376 E.01299
G1 X138.624 Y110.046 E.45587
G1 X138.624 Y110.598 E.01302
G1 X124.402 Y96.376 E.47428
G1 X123.851 Y96.376 E.01299
G1 X138.624 Y111.149 E.49265
G1 X138.624 Y111.7 E.01299
G1 X123.3 Y96.376 E.51103
G1 X123.095 Y96.376 E.00483
G1 X123.095 Y96.723 E.00818
G1 X138.624 Y112.252 E.51786
G1 X138.624 Y112.803 E.01299
G1 X123.095 Y97.274 E.51786
G1 X123.095 Y97.825 E.01299
G1 X138.624 Y113.354 E.51786
G1 X138.624 Y113.905 E.01299
G1 X123.095 Y98.377 E.51785
G1 X123.095 Y98.928 E.01299
G1 X138.624 Y114.457 E.51786
G1 X138.624 Y115.008 E.01299
G1 X123.095 Y99.479 E.51786
G1 X123.095 Y100.031 E.01302
G1 X138.624 Y115.559 E.51785
G1 X138.624 Y116.111 E.01302
G1 X123.095 Y100.582 E.51786
G1 X123.095 Y101.133 E.01299
G1 X138.624 Y116.662 E.51786
G1 X138.624 Y117.213 E.01299
G1 X123.095 Y101.684 E.51786
G1 X123.095 Y102.236 E.01302
G1 X138.624 Y117.764 E.51785
G1 X138.624 Y118.316 E.01302
G1 X123.095 Y102.787 E.51786
G1 X123.095 Y103.338 E.01299
G1 X138.624 Y118.867 E.51786
G1 X138.624 Y119.418 E.01299
G1 X123.095 Y103.889 E.51786
G1 X123.095 Y104.441 E.01302
G1 X138.624 Y119.97 E.51786
G1 X138.624 Y120.521 E.01299
G1 X123.095 Y104.992 E.51786
G1 X123.095 Y105.543 E.01299
G1 X138.624 Y121.072 E.51786
G1 X138.624 Y121.623 E.01299
G1 X123.095 Y106.095 E.51785
G1 X123.095 Y106.646 E.01299
G1 X138.624 Y122.175 E.51786
G1 X138.624 Y122.726 E.01299
G1 X123.095 Y107.197 E.51786
G1 X123.095 Y107.748 E.01299
G1 X138.624 Y123.277 E.51786
G1 X138.624 Y123.624 E.00818
G1 X138.419 Y123.624 E.00483
G1 X123.095 Y108.3 E.51103
G1 X123.095 Y108.851 E.01299
G1 X137.867 Y123.624 E.49264
G1 X137.316 Y123.624 E.01299
G1 X123.095 Y109.402 E.47426
G1 X123.095 Y109.954 E.01302
G1 X136.765 Y123.624 E.45587
G1 X136.213 Y123.624 E.01302
G1 X123.095 Y110.505 E.43748
G1 X123.095 Y111.056 E.01299
G1 X135.662 Y123.624 E.4191
G1 X135.111 Y123.624 E.01299
G1 X123.095 Y111.607 E.40073
G1 X123.095 Y112.159 E.01302
G1 X134.56 Y123.624 E.38234
G1 X134.008 Y123.624 E.01302
G1 X123.095 Y112.71 E.36394
G1 X123.095 Y113.261 E.01299
G1 X133.457 Y123.624 E.34557
G1 X132.906 Y123.624 E.01299
G1 X123.095 Y113.813 E.32718
G1 X123.095 Y114.364 E.01299
G1 X132.354 Y123.624 E.30879
G1 X131.803 Y123.624 E.01299
G1 X123.095 Y114.915 E.29041
G1 X123.095 Y115.466 E.01299
G1 X131.252 Y123.624 E.27204
G1 X130.701 Y123.624 E.01299
G1 X123.095 Y116.018 E.25365
G1 X123.095 Y116.569 E.01299
G1 X130.149 Y123.624 E.23525
G1 X129.598 Y123.624 E.01299
G1 X123.095 Y117.12 E.21688
G1 X123.095 Y117.672 E.01302
G1 X129.047 Y123.624 E.19849
G1 X128.495 Y123.624 E.01302
G1 X123.095 Y118.223 E.1801
G1 X123.095 Y118.774 E.01299
G1 X127.944 Y123.624 E.16172
G1 X127.393 Y123.624 E.01299
G1 X123.095 Y119.325 E.14335
G1 X123.095 Y119.877 E.01302
G1 X126.842 Y123.624 E.12496
G1 X126.29 Y123.624 E.01302
G1 X123.095 Y120.428 E.10656
G1 X123.095 Y120.979 E.01299
G1 X125.739 Y123.624 E.08819
G1 X125.188 Y123.624 E.01299
G1 X123.095 Y121.531 E.0698
G1 X123.095 Y122.082 E.01299
G1 X124.636 Y123.624 E.05141
G1 X124.085 Y123.624 E.01299
G1 X123.095 Y122.633 E.03303
G1 X123.095 Y123.184 E.01299
G1 X123.708 Y123.798 E.02046
;WIPE_START
G1 F12000
G1 X123.095 Y123.184 E-.14424
G1 X123.095 Y122.633 E-.0916
G1 X124.085 Y123.624 E-.23288
G1 X124.636 Y123.624 E-.0916
G1 X123.095 Y122.082 E-.36243
G1 X123.095 Y121.531 E-.0916
G1 X125.188 Y123.624 E-.49209
G1 X125.739 Y123.624 E-.0916
G1 X124.03 Y121.914 E-.40196
;WIPE_END
G1 Z.35 F1800
G1 X122.3 Y122.032 F15000
G1 X95.247 Y123.914
G1 X94.743 Y123.914
G1 Z.15 F1800
G1 E2 F2100
;TYPE:Perimeter
;WIDTH:0.419999
G1 F1080
G1 X81.086 Y123.914 E.32038
G1 X81.086 Y96.086 E.65283
G1 X94.743 Y96.086 E.32038
G1 X94.743 Y102.914 E.16018
G1 X94.743 Y123.854 E.49124
G1 X95.131 Y124.302 F15000
G1 F1080
G1 X80.698 Y124.302 E.33859
G1 X80.698 Y95.698 E.67103
G1 X95.131 Y95.698 E.33859
G1 X95.131 Y102.914 E.16928
G1 X95.131 Y124.242 E.50034
G1 X95.518 Y124.69 F15000
;TYPE:External perimeter
G1 F540
G1 X80.31 Y124.69 E.35677
G1 X80.31 Y95.31 E.68923
G1 X95.518 Y95.31 E.35677
G1 X95.518 Y102.914 E.17838
G1 X95.518 Y124.63 E.50944
G1 E-2 F2100
G1 Z.35 F1800
G1 X94.626 Y96.996 F15000
G1 Z.15 F1800
G1 E2 F2100
;TYPE:Solid infill
;WIDTH:0.424903
G1 F360
G1 X94.007 Y96.376 E.02081
G1 X93.451 Y96.376 E.01321
G1 X94.452 Y97.377 E.03363
G1 X94.452 Y97.933 E.01321
G1 X92.896 Y96.376 E.05229
G1 X92.341 Y96.376 E.01318
G1 X94.452 Y98.488 E.07094
G1 X94.452 Y99.043 E.01318
G1 X91.785 Y96.376 E.0896
G1 X91.23 Y96.376 E.01318
G1 X94.452 Y99.599 E.10826
G1 X94.452 Y100.154 E.01318
G1 X90.674 Y96.376 E.12693
G1 X90.119 Y96.376 E.01318
G1 X94.452 Y100.709 E.14557
G1 X94.452 Y101.265 E.01321
G1 X89.564 Y96.376 E.16423
G1 X89.008 Y96.376 E.01321
G1 X94.452 Y101.82 E.1829
G1 X94.452 Y102.376 E.01321
G1 X88.453 Y96.376 E.20156
G1 X87.897 Y96.376 E.01321
G1 X94.452 Y102.931 E.22022
G1 X94.452 Y103.486 E.01318
G1 X87.342 Y96.376 E.23887
G1 X86.787 Y96.376 E.01318
G1 X94.452 Y104.042 E.25753
G1 X94.452 Y104.597 E.01318
G1 X86.231 Y96.376 E.27619
G1 X85.676 Y96.376 E.01318
G1 X94.452 Y105.152 E.29484
G1 X94.452 Y105.708 E.01321
G1 X85.121 Y96.376 E.3135
G1 X84.565 Y96.376 E.01321
G1 X94.452 Y106.263 E.33216
G1 X94.452 Y106.819 E.01321
G1 X84.01 Y96.376 E.35083
G1 X83.454 Y96.376 E.01321
G1 X94.452 Y107.374 E.36949
G1 X94.452 Y107.929 E.01318
G1 X82.899 Y96.376 E.38813
G1 X82.344 Y96.376 E.01318
G1 X94.452 Y108.485 E.4068
G1 X94.452 Y109.04 E.01318
G1 X81.788 Y96.376 E.42546
G1 X81.376 Y96.376 E.00979
G1 X81.376 Y96.52 E.00342
G1 X94.452 Y109.596 E.4393
G1 X94.452 Y110.151 E.01318
G1 X81.376 Y97.075 E.4393
G1 X81.376 Y97.631 E.01321
G1 X94.452 Y110.706 E.43928
G1 X94.452 Y111.262 E.01321
G1 X81.376 Y98.186 E.4393
G1 X81.376 Y98.742 E.01321
G1 X94.452 Y111.817 E.43928
G1 X94.452 Y112.372 E.01318
G1 X81.376 Y99.297 E.43928
G1 X81.376 Y99.852 E.01318
G1 X94.452 Y112.928 E.4393
G1 X94.452 Y113.483 E.01318
G1 X81.376 Y100.408 E.43928
G1 X81.376 Y100.963 E.01318
G1 X94.452 Y114.039 E.4393
G1 X94.452 Y114.594 E.01318
G1 X81.376 Y101.518 E.4393
G1 X81.376 Y102.074 E.01321
G1 X94.452 Y115.149 E.43928
G1 X94.452 Y115.705 E.01321
G1 X81.376 Y102.629 E.4393
G1 X81.376 Y103.185 E.01321
G1 X94.452 Y116.26 E.43928
G1 X94.452 Y116.815 E.01318
G1 X81.376 Y103.74 E.43928
G1 X81.376 Y104.295 E.01318
G1 X94.452 Y117.371 E.4393
G1 X94.452 Y117.926 E.01318
G1 X81.376 Y104.851 E.43928
G1 X81.376 Y105.406 E.01318
G1 X94.452 Y118.482 E.4393
G1 X94.452 Y119.037 E.01318
G1 X81.376 Y105.961 E.4393
G1 X81.376 Y106.517 E.01321
G1 X94.452 Y119.592 E.43928
G1 X94.452 Y120.148 E.01321
G1 X81.376 Y107.072 E.4393
G1 X81.376 Y107.628 E.01321
G1 X94.452 Y120.703 E.43928
G1 X94.452 Y121.259 E.01321
G1 X81.376 Y108.183 E.4393
G1 X81.376 Y108.738 E.01318
G1 X94.452 Y121.814 E.4393
G1 X94.452 Y122.369 E.01318
G1 X81.376 Y109.294 E.43928
G1 X81.376 Y109.849 E.01318
G1 X94.452 Y122.925 E.4393
G1 X94.452 Y123.48 E.01318
G1 X81.376 Y110.405 E.43928
G1 X81.376 Y110.96 E.01318
G1 X94.04 Y123.624 E.42546
G1 X93.485 Y123.624 E.01318
G1 X81.376 Y111.515 E.40681
G1 X81.376 Y112.071 E.01321
G1 X92.929 Y123.624 E.38813
G1 X92.374 Y123.624 E.01318
G1 X81.376 Y112.626 E.36949
G1 X81.376 Y113.181 E.01318
G1 X91.819 Y123.624 E.35084
G1 X91.263 Y123.624 E.01321
G1 X81.376 Y113.737 E.33216
G1 X81.376 Y114.292 E.01318
G1 X90.708 Y123.624 E.31352
G1 X90.152 Y123.624 E.01321
G1 X81.376 Y114.848 E.29484
G1 X81.376 Y115.403 E.01318
G1 X89.597 Y123.624 E.27619
G1 X89.042 Y123.624 E.01318
G1 X81.376 Y115.958 E.25755
G1 X81.376 Y116.514 E.01321
G1 X88.486 Y123.624 E.23887
G1 X87.931 Y123.624 E.01318
G1 X81.376 Y117.069 E.22022
G1 X81.376 Y117.624 E.01318
G1 X87.376 Y123.624 E.20158
G1 X86.82 Y123.624 E.01321
G1 X81.376 Y118.18 E.1829
G1 X81.376 Y118.735 E.01318
G1 X86.265 Y123.624 E.16425
G1 X85.709 Y123.624 E.01321
G1 X81.376 Y119.291 E.14557
G1 X81.376 Y119.846 E.01318
G1 X85.154 Y123.624 E.12693
G1 X84.599 Y123.624 E.01318
G1 X81.376 Y120.401 E.10828
G1 X81.376 Y120.957 E.01321
G1 X84.043 Y123.624 E.0896
G1 X83.488 Y123.624 E.01318
G1 X81.376 Y121.512 E.07095
G1 X81.376 Y122.068 E.01321
G1 X82.933 Y123.624 E.05229
G1 X82.377 Y123.624 E.01321
G1 X81.376 Y122.623 E.03363
G1 X81.376 Y123.178 E.01318
G1 X81.996 Y123.798 E.02083
M106 S127.5
;LAYER_CHANGE
;Z:0.39
;HEIGHT:0.24
;BEFORE_LAYER_CHANGE
G92 E0
;0.39


;WIPE_START
G1 F12000
G1 X81.376 Y123.178 E-.14577
G1 X81.376 Y122.623 E-.09227
G1 X82.377 Y123.624 E-.23535
G1 X82.933 Y123.624 E-.09244
G1 X81.376 Y122.068 E-.36595
G1 X81.376 Y121.512 E-.09243
G1 X83.488 Y123.624 E-.49656
G1 X84.043 Y123.624 E-.09227
G1 X82.397 Y121.978 E-.38696
;WIPE_END
G1 Z.39 F1800
;AFTER_LAYER_CHANGE
;0.39
M104 S200 ; set temperature
G1 Z.59
G1 X82.234 Y124.417 F15000
G1 X81.996 Y127.97
G1 Z.39 F1800
G1 E2 F2100
;TYPE:Skirt/Brim
;WIDTH:0.42
G1 F7200
G1 X80 Y127.97 E.07119
G1 X78.523 Y127.576 E.05452
G1 X77.438 Y126.501 E.05447
G1 X77.03 Y125 E.05548
G1 X77.03 Y95 E1.06997
G1 X77.424 Y93.523 E.05452
G1 X78.499 Y92.438 E.05447
G1 X80 Y92.03 E.05548
G1 X140 Y92.03 E2.13993
G1 X141.477 Y92.424 E.05452
G1 X142.562 Y93.499 E.05447
G1 X142.97 Y95 E.05548
G1 X142.97 Y125 E1.06997
G1 X142.576 Y126.477 E.05452
G1 X141.501 Y127.562 E.05447
G1 X140 Y127.97 E.05548
G1 X82.056 Y127.97 E2.06661
G1 X82.056 Y127.582 F15000
G1 F7200
G1 X80 Y127.582 E.07333
G1 X78.632 Y127.189 E.05076
G1 X77.68 Y126.132 E.05073
G1 X77.418 Y125 E.04144
G1 X77.418 Y95 E1.06997
G1 X77.811 Y93.632 E.05076
G1 X78.868 Y92.68 E.05073
G1 X80 Y92.418 E.04144
G1 X140 Y92.418 E2.13993
G1 X141.368 Y92.811 E.05076
G1 X142.32 Y93.868 E.05073
G1 X142.582 Y95 E.04144
G1 X142.582 Y125 E1.06997
G1 X142.189 Y126.368 E.05076
G1 X141.132 Y127.32 E.05073
G1 X140 Y127.582 E.04144
G1 X82.116 Y127.582 E2.06447
G1 X82.116 Y127.194 F15000
G1 F7200
G1 X80 Y127.194 E.07547
G1 X78.75 Y126.803 E.04671
G1 X77.946 Y125.77 E.04669
G1 X77.806 Y125 E.02791
G1 X77.806 Y95 E1.06997
G1 X78.197 Y93.75 E.04671
G1 X79.23 Y92.946 E.04669
G1 X80 Y92.806 E.02791
G1 X140 Y92.806 E2.13993
G1 X141.25 Y93.197 E.04671
G1 X142.054 Y94.23 E.04669
G1 X142.194 Y95 E.02791
G1 X142.194 Y125 E1.06997
G1 X141.803 Y126.25 E.04671
G1 X140.77 Y127.054 E.04669
G1 X140 Y127.194 E.02791
G1 X82.176 Y127.194 E2.06233
;WIPE_START
G1 F12000
G1 X82.116 Y127.194 E-.00998
G1 X80 Y127.194 E-.35178
G1 X78.75 Y126.803 E-.21774
G1 X77.946 Y125.77 E-.21762
G1 X77.806 Y125 E-.13011
G1 X77.806 Y118.547 E-1.07277
;WIPE_END
G1 Z.59 F1800
G1 X80.583 Y118.886 F15000
G1 X95.246 Y120.674
G1 X122.301 Y124.023
G1 X122.695 Y124.023
G1 Z.39 F1800
G1 E2 F2100
;TYPE:Perimeter
;WIDTH:0.439999
G1 F7200
G1 X122.695 Y95.977 E1.05456
G1 X139.023 Y95.977 E.61395
G1 X139.023 Y124.023 E1.05456
G1 X122.755 Y124.023 E.6117
G1 X122.307 Y124.412 F15000
G1 F7200
G1 X122.307 Y95.588 E1.08382
G1 X139.412 Y95.588 E.64317
G1 X139.412 Y124.412 E1.08382
G1 X122.367 Y124.412 E.64091
G1 X121.928 Y124.79 F15000
;TYPE:External perimeter
;WIDTH:0.419999
G1 F3600
G1 X121.928 Y95.21 E1.05499
G1 X139.79 Y95.21 E.63706
G1 X139.79 Y124.79 E1.05499
G1 X121.988 Y124.79 E.63492
;WIPE_START
G1 F12000
G1 X121.928 Y124.79 E-.00998
G1 X121.928 Y112.82 E-1.99002
;WIPE_END
G1 Z.59 F1800
G1 X122.301 Y112.82 F15000
G1 X122.301 Y95.583
G1 X123.092 Y95.583
G1 X123.092 Y96.3
G1 Z.39 F1800
G1 E2 F2100
;TYPE:Solid infill
;WIDTH:0.534256
G1 F2400
G1 X123.049 Y96.257 E.00284
G1 X122.991 Y96.273 E.00281
G1 X122.975 Y96.331 E.00281
G1 X123.018 Y96.374 E.00284
G1 X123.076 Y96.358 E.00281
;WIDTH:0.439999
G1 X123.697 Y96.268 E.02359
G1 X122.987 Y96.979 E.03778
G1 X122.987 Y97.528 E.02064
G1 X124.246 Y96.268 E.06698
G1 X124.796 Y96.268 E.02068
G1 X122.987 Y98.078 E.09622
G1 X122.987 Y98.627 E.02064
G1 X125.345 Y96.268 E.12542
G1 X125.895 Y96.268 E.02068
