; generated by PrusaSlicer 2.9.1 on 2025-05-18 at 08:03:50 UTC

; v1.0.0

; external perimeters extrusion width = 0.42mm
; perimeters extrusion width = 0.44mm
; infill extrusion width = 0.44mm
; solid infill extrusion width = 0.44mm
; top infill extrusion width = 0.40mm
; support material extrusion width = 0.35mm
; first layer extrusion width = 0.42mm

M190 S60 ; set bed temperature and wait for it to be reached
M104 S220 ; set temperature
;TYPE:Custom
G28 ; home all axes
G1 Z0.28 F5000
M109 S220 ; set temperature and wait for it to be reached
G21 ; set units to millimeters
G90 ; use absolute coordinates
M83 ; use relative distances for extrusion
; Filament gcode
M107
;LAYER_CHANGE
;Z:0.15
;HEIGHT:0.15
G1 E-2 F2100
G1 Z.35 F1800
G1 X78.499 Y97.438 F15000
G1 Z.15 F1800
G1 E2 F2100
;TYPE:Skirt/Brim
;WIDTH:0.42
G1 F1080
G1 X80 Y97.03 E.03649
G1 X140 Y97.03 E1.40756
G1 X141.477 Y97.424 E.03586
G1 X142.562 Y98.499 E.03583
G1 X142.97 Y100 E.03649
G1 X142.97 Y120 E.46919
G1 X142.576 Y121.477 E.03586
G1 X141.501 Y122.562 E.03583
G1 X140 Y122.97 E.03649
G1 X80 Y122.97 E1.40756
G1 X78.523 Y122.576 E.03586
G1 X77.438 Y121.501 E.03583
G1 X77.03 Y120 E.03649
G1 X77.03 Y100 E.46919
G1 X77.424 Y98.523 E.03586
G1 X78.457 Y97.48 E.03444
M204 T2500
G1 X78.74 Y97.795 F15000
G1 F1080
G1 X78.868 Y97.68 E.00404
G1 X80 Y97.418 E.02726
G1 X140 Y97.418 E1.40756
G1 X141.368 Y97.811 E.03339
G1 X142.32 Y98.868 E.03337
G1 X142.582 Y100 E.02726
G1 X142.582 Y120 E.46919
G1 X142.189 Y121.368 E.03339
G1 X141.132 Y122.32 E.03337
G1 X140 Y122.582 E.02726
G1 X80 Y122.582 E1.40756
G1 X78.632 Y122.189 E.03339
G1 X77.68 Y121.132 E.03337
G1 X77.418 Y120 E.02726
G1 X77.418 Y100 E.46919
G1 X77.811 Y98.632 E.03339
G1 X78.696 Y97.835 E.02794
G1 X78.951 Y98.163 F15000
G1 F1080
G1 X79.23 Y97.946 E.00829
G1 X80 Y97.806 E.01836
G1 X140 Y97.806 E1.40756
G1 X141.25 Y98.197 E.03073
G1 X142.054 Y99.23 E.03071
G1 X142.194 Y100 E.01836
G1 X142.194 Y120 E.46919
G1 X141.803 Y121.25 E.03073
G1 X140.77 Y122.054 E.03071
G1 X140 Y122.194 E.01836
G1 X80 Y122.194 E1.40756
G1 X78.75 Y121.803 E.03073
G1 X77.946 Y120.77 E.03071
G1 X77.806 Y120 E.01836
G1 X77.806 Y100 E.46919
G1 X78.197 Y98.75 E.03073
G1 X78.904 Y98.2 E.02101
;WIPE_START
G1 F12000
G1 X78.951 Y98.163 E-.00994
G1 X79.23 Y97.946 E-.05876
G1 X80 Y97.806 E-.13011
G1 X90.834 Y97.806 E-1.80119
;WIPE_END
G1 Z.35 F1800
G1 X95.034 Y109.057 F15000
G1 Z.15 F1800
G1 E2 F2100
;TYPE:Perimeter
;WIDTH:0.419999
G1 F1080
G1 X94.956 Y109.131 E.00252
G1 X94.793 Y109.431 E.00801
G1 X94.743 Y109.737 E.00727
G1 X94.743 Y118.914 E.21529
G1 X81.086 Y118.914 E.32038
G1 X81.086 Y101.086 E.41823
G1 X138.914 Y101.086 E1.3566
G1 X138.914 Y109.15 E.18918
G1 X138.914 Y118.914 E.22906
G1 X122.804 Y118.914 E.37793
G1 X122.804 Y109.737 E.21529
G1 X122.771 Y109.486 E.00594
G1 X122.62 Y109.17 E.00822
G1 X122.426 Y108.97 E.00654
G1 X122.155 Y108.823 E.00723
G1 X121.834 Y108.768 E.00764
G1 X95.712 Y108.768 E.6128
G1 X95.41 Y108.816 E.00717
G1 X95.149 Y108.948 E.00686
G1 X95.077 Y109.016 E.00232
G1 X95.311 Y109.34 F15000
G1 F1080
G1 X95.184 Y109.494 E.00468
G1 X95.131 Y109.737 E.00583
G1 X95.131 Y119.302 E.22439
G1 X80.698 Y119.302 E.33859
G1 X80.698 Y100.698 E.43644
G1 X139.302 Y100.698 E1.37481
G1 X139.302 Y109.15 E.19828
G1 X139.302 Y119.302 E.23816
G1 X122.416 Y119.302 E.39613
G1 X122.416 Y109.737 E.22439
G1 X122.409 Y109.645 E.00216
G1 X122.306 Y109.397 E.0063
G1 X122.113 Y109.227 E.00603
G1 X121.834 Y109.156 E.00675
G1 X95.62 Y109.163 E.61496
G1 X95.374 Y109.264 E.00624
G1 X95.349 Y109.294 E.00092
G1 X95.57 Y109.617 F15000
;TYPE:External perimeter
G1 F540
G1 X95.518 Y109.737 E.00307
G1 X95.518 Y119.69 E.23349
G1 X80.31 Y119.69 E.35677
G1 X80.31 Y100.31 E.45464
G1 X139.69 Y100.31 E1.39301
G1 X139.69 Y109.15 E.20738
G1 X139.69 Y119.69 E.24726
G1 X122.028 Y119.69 E.41434
G1 X122.028 Y109.737 E.23349
G1 X121.974 Y109.603 E.00339
G1 X121.834 Y109.544 E.00356
G1 X95.712 Y109.544 E.6128
G1 X95.614 Y109.583 E.00247
G1 E-2 F2100
G1 Z.35 F1800
G1 X138.013 Y101.202 F15000
G1 Z.15 F1800
G1 E2 F2100
;TYPE:Solid infill
;WIDTH:0.420684
G1 F360
G1 X138.624 Y101.813 E.02031
G1 X138.624 Y102.362 E.0129
G1 X137.638 Y101.376 E.03277
G1 X137.088 Y101.376 E.01293
G1 X138.624 Y102.912 E.05105
G1 X138.624 Y103.461 E.0129
G1 X136.539 Y101.376 E.0693
G1 X135.989 Y101.376 E.01293
G1 X138.624 Y104.011 E.08757
G1 X138.624 Y104.56 E.0129
G1 X135.44 Y101.376 E.10582
G1 X134.891 Y101.376 E.0129
G1 X138.624 Y105.109 E.12407
G1 X138.624 Y105.659 E.01293
G1 X134.341 Y101.376 E.14235
G1 X133.792 Y101.376 E.0129
G1 X138.624 Y106.208 E.16059
G1 X138.624 Y106.758 E.01293
G1 X133.242 Y101.376 E.17887
G1 X132.693 Y101.376 E.0129
G1 X138.624 Y107.307 E.19712
G1 X138.624 Y107.856 E.0129
G1 X132.144 Y101.376 E.21536
G1 X131.594 Y101.376 E.01293
G1 X138.624 Y108.406 E.23364
G1 X138.624 Y108.955 E.0129
G1 X131.045 Y101.376 E.25189
G1 X130.495 Y101.376 E.01293
G1 X138.624 Y109.505 E.27017
G1 X138.624 Y110.054 E.0129
G1 X129.946 Y101.376 E.28841
G1 X129.397 Y101.376 E.0129
G1 X138.624 Y110.603 E.30666
G1 X138.624 Y111.153 E.01293
G1 X128.847 Y101.376 E.32494
G1 X128.298 Y101.376 E.0129
G1 X138.624 Y111.702 E.34319
G1 X138.624 Y112.252 E.01293
G1 X127.748 Y101.376 E.36146
G1 X127.199 Y101.376 E.0129
G1 X138.624 Y112.801 E.37971
G1 X138.624 Y113.351 E.01293
G1 X126.649 Y101.376 E.39799
G1 X126.1 Y101.376 E.0129
G1 X138.624 Y113.9 E.41624
G1 X138.624 Y114.449 E.0129
G1 X125.551 Y101.376 E.43448
G1 X125.001 Y101.376 E.01293
G1 X138.624 Y114.999 E.45276
G1 X138.624 Y115.548 E.0129
G1 X124.452 Y101.376 E.47101
G1 X123.902 Y101.376 E.01293
G1 X138.624 Y116.098 E.48929
G1 X138.624 Y116.647 E.0129
G1 X123.353 Y101.376 E.50753
G1 X122.804 Y101.376 E.0129
G1 X138.624 Y117.196 E.52578
G1 X138.624 Y117.746 E.01293
G1 X122.254 Y101.376 E.54406
G1 X121.705 Y101.376 E.0129
G1 X138.624 Y118.295 E.5623
G1 X138.624 Y118.624 E.00773
G1 X138.402 Y118.624 E.00522
G1 X121.155 Y101.376 E.57322
G1 X120.606 Y101.376 E.0129
G1 X137.853 Y118.624 E.57322
G1 X137.304 Y118.624 E.0129
G1 X120.057 Y101.376 E.57322
G1 X119.507 Y101.376 E.01293
G1 X136.754 Y118.624 E.57322
G1 X136.205 Y118.624 E.0129
G1 X118.958 Y101.376 E.57322
G1 X118.408 Y101.376 E.01293
G1 X135.655 Y118.624 E.57322
G1 X135.106 Y118.624 E.0129
G1 X117.859 Y101.376 E.57322
G1 X117.309 Y101.376 E.01293
G1 X134.556 Y118.624 E.57322
G1 X134.007 Y118.624 E.0129
G1 X116.76 Y101.376 E.57322
G1 X116.211 Y101.376 E.0129
G1 X133.458 Y118.624 E.57322
G1 X132.908 Y118.624 E.01293
G1 X115.661 Y101.376 E.57322
G1 X115.112 Y101.376 E.0129
G1 X132.359 Y118.624 E.57322
G1 X131.809 Y118.624 E.01293
G1 X123.095 Y109.909 E.28963
G1 X123.095 Y110.458 E.0129
G1 X131.26 Y118.624 E.27138
G1 X130.711 Y118.624 E.0129
G1 X123.095 Y111.008 E.25312
G1 X123.095 Y111.557 E.0129
G1 X130.161 Y118.624 E.23486
G1 X129.612 Y118.624 E.0129
G1 X123.095 Y112.107 E.21659
G1 X123.095 Y112.656 E.0129
G1 X129.062 Y118.624 E.19833
G1 X128.513 Y118.624 E.0129
G1 X123.095 Y113.205 E.18008
G1 X123.095 Y113.755 E.01293
G1 X127.964 Y118.624 E.16182
G1 X127.414 Y118.624 E.01293
G1 X123.095 Y114.304 E.14356
G1 X123.095 Y114.854 E.01293
G1 X126.865 Y118.624 E.1253
G1 X126.315 Y118.624 E.01293
G1 X123.095 Y115.403 E.10703
G1 X123.095 Y115.952 E.0129
G1 X125.766 Y118.624 E.08879
G1 X125.216 Y118.624 E.01293
G1 X123.095 Y116.502 E.07051
G1 X123.095 Y117.051 E.0129
G1 X124.667 Y118.624 E.05226
G1 X124.118 Y118.624 E.0129
G1 X123.095 Y117.601 E.034
G1 X123.095 Y118.15 E.0129
G1 X123.743 Y118.798 E.02154
G1 E-2 F2100
G1 Z.35 F1800
G1 X121.838 Y108.652 F15000
G1 Z.15 F1800
G1 E2 F2100
G1 F360
G1 X114.562 Y101.376 E.24182
G1 X114.013 Y101.376 E.0129
G1 X121.114 Y108.477 E.236
G1 X120.564 Y108.477 E.01293
G1 X113.464 Y101.376 E.23599
G1 X112.914 Y101.376 E.01293
G1 X120.015 Y108.477 E.236
G1 X119.465 Y108.477 E.01293
G1 X112.365 Y101.376 E.23599
G1 X111.815 Y101.376 E.01293
G1 X118.916 Y108.477 E.236
G1 X118.366 Y108.477 E.01293
G1 X111.266 Y101.376 E.23599
G1 X110.716 Y101.376 E.01293
G1 X117.817 Y108.477 E.236
G1 X117.268 Y108.477 E.0129
G1 X110.167 Y101.376 E.236
G1 X109.618 Y101.376 E.0129
G1 X116.718 Y108.477 E.23599
G1 X116.169 Y108.477 E.0129
G1 X109.068 Y101.376 E.236
G1 X108.519 Y101.376 E.0129
G1 X115.619 Y108.477 E.23599
G1 X115.07 Y108.477 E.0129
G1 X107.969 Y101.376 E.236
G1 X107.42 Y101.376 E.0129
G1 X114.521 Y108.477 E.236
G1 X113.971 Y108.477 E.01293
G1 X106.871 Y101.376 E.23599
G1 X106.321 Y101.376 E.01293
G1 X113.422 Y108.477 E.236
G1 X112.872 Y108.477 E.01293
G1 X105.772 Y101.376 E.23599
G1 X105.222 Y101.376 E.01293
G1 X112.323 Y108.477 E.236
G1 X111.774 Y108.477 E.0129
G1 X104.673 Y101.376 E.236
G1 X104.124 Y101.376 E.0129
G1 X111.224 Y108.477 E.23599
G1 X110.675 Y108.477 E.0129
G1 X103.574 Y101.376 E.236
G1 X103.025 Y101.376 E.0129
G1 X110.125 Y108.477 E.23599
G1 X109.576 Y108.477 E.0129
G1 X102.475 Y101.376 E.236
G1 X101.926 Y101.376 E.0129
G1 X109.026 Y108.477 E.23599
G1 X108.477 Y108.477 E.0129
G1 X101.376 Y101.376 E.236
G1 X100.827 Y101.376 E.0129
G1 X107.928 Y108.477 E.236
G1 X107.378 Y108.477 E.01293
G1 X100.278 Y101.376 E.23599
G1 X99.728 Y101.376 E.01293
G1 X106.829 Y108.477 E.236
G1 X106.279 Y108.477 E.01293
G1 X99.179 Y101.376 E.23599
G1 X98.629 Y101.376 E.01293
G1 X105.73 Y108.477 E.236
G1 X105.181 Y108.477 E.0129
G1 X98.08 Y101.376 E.236
G1 X97.531 Y101.376 E.0129
G1 X104.631 Y108.477 E.23599
G1 X104.082 Y108.477 E.0129
G1 X96.981 Y101.376 E.236
G1 X96.432 Y101.376 E.0129
G1 X103.532 Y108.477 E.23599
G1 X102.983 Y108.477 E.0129
G1 X95.882 Y101.376 E.236
G1 X95.333 Y101.376 E.0129
G1 X102.433 Y108.477 E.23599
G1 X101.884 Y108.477 E.0129
G1 X94.783 Y101.376 E.236
G1 X94.234 Y101.376 E.0129
G1 X101.335 Y108.477 E.236
G1 X100.785 Y108.477 E.01293
G1 X93.685 Y101.376 E.23599
G1 X93.135 Y101.376 E.01293
G1 X100.236 Y108.477 E.236
G1 X99.686 Y108.477 E.01293
G1 X92.586 Y101.376 E.23599
G1 X92.036 Y101.376 E.01293
G1 X99.137 Y108.477 E.236
G1 X98.588 Y108.477 E.0129
G1 X91.487 Y101.376 E.236
G1 X90.938 Y101.376 E.0129
G1 X98.038 Y108.477 E.23599
G1 X97.489 Y108.477 E.0129
G1 X90.388 Y101.376 E.236
G1 X89.839 Y101.376 E.0129
G1 X96.939 Y108.477 E.23599
G1 X96.39 Y108.477 E.0129
G1 X89.289 Y101.376 E.236
G1 X88.74 Y101.376 E.0129
G1 X95.841 Y108.477 E.236
G1 X95.495 Y108.496 E.00814
G1 X95.347 Y108.533 E.00359
G1 X88.191 Y101.376 E.23785
G1 X87.641 Y101.376 E.01293
G1 X94.987 Y108.722 E.24414
G1 X94.845 Y108.822 E.00408
G1 X94.704 Y108.988 E.00512
G1 X87.092 Y101.376 E.25299
G1 X86.542 Y101.376 E.01293
G1 X94.519 Y109.353 E.26512
G1 X94.459 Y109.601 E.006
G1 X94.459 Y109.843 E.00569
G1 X85.993 Y101.376 E.28138
G1 X85.443 Y101.376 E.01293
G1 X94.458 Y110.392 E.29963
G1 X94.458 Y110.94 E.01288
G1 X84.894 Y101.376 E.31786
G1 X84.345 Y101.376 E.0129
G1 X94.458 Y111.489 E.33611
G1 X94.457 Y112.038 E.0129
G1 X83.795 Y101.376 E.35435
G1 X83.246 Y101.376 E.0129
G1 X94.457 Y112.587 E.3726
G1 X94.456 Y113.136 E.0129
G1 X82.696 Y101.376 E.39084
G1 X82.147 Y101.376 E.0129
G1 X94.456 Y113.685 E.40909
G1 X94.455 Y114.234 E.0129
G1 X81.598 Y101.376 E.42732
G1 X81.376 Y101.376 E.00522
G1 X81.376 Y101.705 E.00773
G1 X94.455 Y114.783 E.43466
G1 X94.455 Y115.332 E.0129
G1 X81.376 Y102.254 E.43466
G1 X81.376 Y102.804 E.01293
G1 X94.454 Y115.881 E.43463
G1 X94.454 Y116.43 E.0129
G1 X81.376 Y103.353 E.43463
G1 X81.376 Y103.902 E.0129
G1 X94.453 Y116.979 E.43461
G1 X94.453 Y117.528 E.0129
G1 X81.376 Y104.452 E.4346
G1 X81.376 Y105.001 E.0129
G1 X94.452 Y118.077 E.43458
G1 X94.449 Y118.624 E.01286
G1 X81.376 Y105.551 E.43448
G1 X81.376 Y106.1 E.0129
G1 X93.9 Y118.624 E.41624
G1 X93.35 Y118.624 E.01293
G1 X81.376 Y106.65 E.39796
G1 X81.376 Y107.199 E.0129
G1 X92.801 Y118.624 E.37971
G1 X92.252 Y118.624 E.0129
G1 X81.376 Y107.748 E.36146
G1 X81.376 Y108.298 E.01293
G1 X91.702 Y118.624 E.34319
G1 X91.153 Y118.624 E.0129
G1 X81.376 Y108.847 E.32494
G1 X81.376 Y109.397 E.01293
G1 X90.603 Y118.624 E.30666
G1 X90.054 Y118.624 E.0129
G1 X81.376 Y109.946 E.28841
G1 X81.376 Y110.495 E.0129
G1 X89.505 Y118.624 E.27017
G1 X88.955 Y118.624 E.01293
G1 X81.376 Y111.045 E.25189
G1 X81.376 Y111.594 E.0129
G1 X88.406 Y118.624 E.23364
G1 X87.856 Y118.624 E.01293
G1 X81.376 Y112.144 E.21536
G1 X81.376 Y112.693 E.0129
G1 X87.307 Y118.624 E.19712
G1 X86.758 Y118.624 E.0129
G1 X81.376 Y113.242 E.17887
G1 X81.376 Y113.792 E.01293
G1 X86.208 Y118.624 E.16059
G1 X85.659 Y118.624 E.0129
G1 X81.376 Y114.341 E.14235
G1 X81.376 Y114.891 E.01293
G1 X85.109 Y118.624 E.12407
G1 X84.56 Y118.624 E.0129
G1 X81.376 Y115.44 E.10582
G1 X81.376 Y115.99 E.01293
G1 X84.01 Y118.624 E.08754
G1 X83.461 Y118.624 E.0129
G1 X81.376 Y116.539 E.0693
G1 X81.376 Y117.088 E.0129
G1 X82.912 Y118.624 E.05105
G1 X82.362 Y118.624 E.01293
G1 X81.376 Y117.638 E.03277
G1 X81.376 Y118.187 E.0129
G1 X81.987 Y118.798 E.02031
M106 S127.5
;LAYER_CHANGE
;Z:0.39
;HEIGHT:0.24
;BEFORE_LAYER_CHANGE
G92 E0
;0.39


;WIPE_START
G1 F12000
G1 X81.376 Y118.187 E-.14365
G1 X81.376 Y117.638 E-.09127
G1 X82.362 Y118.624 E-.23182
G1 X82.912 Y118.624 E-.09144
G1 X81.376 Y117.088 E-.36113
G1 X81.376 Y116.539 E-.09127
G1 X83.461 Y118.624 E-.49021
G1 X84.01 Y118.624 E-.09127
G1 X82.275 Y116.889 E-.40794
;WIPE_END
G1 Z.39 F1800
;AFTER_LAYER_CHANGE
;0.39
M104 S200 ; set temperature
G1 Z.59
G1 X82.155 Y119.417 F15000
G1 X81.987 Y122.97
G1 Z.39 F1800
G1 E2 F2100
;TYPE:Skirt/Brim
;WIDTH:0.42
G1 F7200
G1 X80 Y122.97 E.07087
G1 X78.523 Y122.576 E.05452
G1 X77.438 Y121.501 E.05447
G1 X77.03 Y120 E.05548
G1 X77.03 Y100 E.71331
G1 X77.424 Y98.523 E.05452
G1 X78.499 Y97.438 E.05447
G1 X80 Y97.03 E.05548
G1 X140 Y97.03 E2.13993
G1 X141.477 Y97.424 E.05452
G1 X142.562 Y98.499 E.05447
G1 X142.97 Y100 E.05548
G1 X142.97 Y120 E.71331
G1 X142.576 Y121.477 E.05452
G1 X141.501 Y122.562 E.05447
G1 X140 Y122.97 E.05548
G1 X82.047 Y122.97 E2.06693
G1 X82.047 Y122.582 F15000
G1 F7200
G1 X80 Y122.582 E.07301
G1 X78.632 Y122.189 E.05076
G1 X77.68 Y121.132 E.05073
G1 X77.418 Y120 E.04144
G1 X77.418 Y100 E.71331
G1 X77.811 Y98.632 E.05076
G1 X78.868 Y97.68 E.05073
G1 X80 Y97.418 E.04144
G1 X140 Y97.418 E2.13993
G1 X141.368 Y97.811 E.05076
G1 X142.32 Y98.868 E.05073
G1 X142.582 Y100 E.04144
G1 X142.582 Y120 E.71331
G1 X142.189 Y121.368 E.05076
G1 X141.132 Y122.32 E.05073
G1 X140 Y122.582 E.04144
G1 X82.107 Y122.582 E2.06479
G1 X82.107 Y122.194 F15000
G1 F7200
G1 X80 Y122.194 E.07515
G1 X78.75 Y121.803 E.04671
G1 X77.946 Y120.77 E.04669
G1 X77.806 Y120 E.02791
G1 X77.806 Y100 E.71331
G1 X78.197 Y98.75 E.04671
G1 X79.23 Y97.946 E.04669
G1 X80 Y97.806 E.02791
G1 X140 Y97.806 E2.13993
G1 X141.25 Y98.197 E.04671
G1 X142.054 Y99.23 E.04669
G1 X142.194 Y100 E.02791
G1 X142.194 Y120 E.71331
G1 X141.803 Y121.25 E.04671
G1 X140.77 Y122.054 E.04669
G1 X140 Y122.194 E.02791
G1 X82.167 Y122.194 E2.06265
;WIPE_START
G1 F12000
G1 X82.107 Y122.194 E-.00998
G1 X80 Y122.194 E-.35029
G1 X78.75 Y121.803 E-.21774
G1 X77.946 Y120.77 E-.21762
G1 X77.806 Y120 E-.13011
G1 X77.806 Y113.538 E-1.07426
;WIPE_END
G1 Z.59 F1800
G1 X80.583 Y112.838 F15000
G1 X95.246 Y109.271
G1 X95.142 Y109.166
G1 Z.39 F1800
G1 E2 F2100
;TYPE:Perimeter
;WIDTH:0.439999
G1 F7200
G1 X95.064 Y109.229 E.00377
G1 X94.903 Y109.52 E.01251
G1 X94.851 Y109.828 E.01175
G1 X94.851 Y119.023 E.34574
G1 X80.977 Y119.023 E.52168
G1 X80.977 Y100.977 E.67855
G1 X139.023 Y100.977 E2.1826
G1 X139.023 Y119.023 E.67855
G1 X122.695 Y119.023 E.61395
G1 X122.695 Y109.828 E.34574
G1 X122.682 Y109.668 E.00604
G1 X122.577 Y109.369 E.01192
G1 X122.321 Y109.071 E.01477
G1 X122.056 Y108.929 E.0113
G1 X121.744 Y108.877 E.01189
G1 X95.653 Y108.888 E.98105
G1 X95.374 Y108.979 E.01103
G1 X95.188 Y109.128 E.00896
G1 X95.416 Y109.442 F15000
G1 F7200
G1 X95.293 Y109.589 E.00721
G1 X95.24 Y109.828 E.00921
G1 X95.24 Y119.412 E.36037
G1 X80.588 Y119.412 E.55093
G1 X80.588 Y100.588 E.70781
G1 X139.412 Y100.588 E2.21186
G1 X139.412 Y119.412 E.70781
G1 X122.307 Y119.412 E.64317
G1 X122.307 Y109.828 E.36037
G1 X122.299 Y109.733 E.00358
G1 X122.198 Y109.495 E.00972
G1 X122.012 Y109.333 E.00927
G1 X121.744 Y109.265 E.0104
G1 X95.714 Y109.272 E.97876
G1 X95.478 Y109.368 E.00958
