; generated by PrusaSlicer 2.9.1 on 2025-05-17 at 13:26:20 UTC

; v1.0.0

; external perimeters extrusion width = 0.42mm
; perimeters extrusion width = 0.44mm
; infill extrusion width = 0.44mm
; solid infill extrusion width = 0.44mm
; top infill extrusion width = 0.40mm
; support material extrusion width = 0.35mm
; first layer extrusion width = 0.42mm

M190 S60 ; set bed temperature and wait for it to be reached
M104 S220 ; set temperature
;TYPE:Custom
G28 ; home all axes
G1 Z0.28 F5000
M109 S220 ; set temperature and wait for it to be reached
G21 ; set units to millimeters
G90 ; use absolute coordinates
M83 ; use relative distances for extrusion
; Filament gcode
M107
;LAYER_CHANGE
;Z:0.15
;HEIGHT:0.15
G1 E-2 F2100
G1 Z.35 F1800
G1 X98.423 Y97.515 F15000
G1 Z.15 F1800
G1 E2 F2100
;TYPE:Skirt/Brim
;WIDTH:0.42
G1 F1080
G1 X98.499 Y97.438 E.00254
G1 X100 Y97.03 E.03649
G1 X120 Y97.03 E.46919
G1 X121.477 Y97.424 E.03586
G1 X122.562 Y98.499 E.03583
G1 X122.97 Y100 E.03649
G1 X122.97 Y120 E.46919
G1 X122.576 Y121.477 E.03586
G1 X121.501 Y122.562 E.03583
G1 X120 Y122.97 E.03649
G1 X100 Y122.97 E.46919
G1 X98.523 Y122.576 E.03586
G1 X97.438 Y121.501 E.03583
G1 X97.03 Y120 E.03649
G1 X97.03 Y100 E.46919
G1 X97.424 Y98.523 E.03586
G1 X98.381 Y97.557 E.0319
M204 T2500
G1 X98.66 Y97.867 F15000
G1 F1080
G1 X98.868 Y97.68 E.00656
G1 X100 Y97.418 E.02726
G1 X120 Y97.418 E.46919
G1 X121.368 Y97.811 E.03339
G1 X122.32 Y98.868 E.03337
G1 X122.582 Y100 E.02726
G1 X122.582 Y120 E.46919
G1 X122.189 Y121.368 E.03339
G1 X121.132 Y122.32 E.03337
G1 X120 Y122.582 E.02726
G1 X100 Y122.582 E.46919
G1 X98.632 Y122.189 E.03339
G1 X97.68 Y121.132 E.03337
G1 X97.418 Y120 E.02726
G1 X97.418 Y100 E.46919
G1 X97.811 Y98.632 E.03339
G1 X98.615 Y97.907 E.0254
G1 X98.866 Y98.229 F15000
G1 F1080
G1 X99.23 Y97.946 E.01082
G1 X100 Y97.806 E.01836
G1 X120 Y97.806 E.46919
G1 X121.25 Y98.197 E.03073
G1 X122.054 Y99.23 E.03071
G1 X122.194 Y100 E.01836
G1 X122.194 Y120 E.46919
G1 X121.803 Y121.25 E.03073
G1 X120.77 Y122.054 E.03071
G1 X120 Y122.194 E.01836
G1 X100 Y122.194 E.46919
G1 X98.75 Y121.803 E.03073
G1 X97.946 Y120.77 E.03071
G1 X97.806 Y120 E.01836
G1 X97.806 Y100 E.46919
G1 X98.197 Y98.75 E.03073
G1 X98.819 Y98.266 E.01849
;WIPE_START
G1 F12000
G1 X98.866 Y98.229 E-.00994
G1 X99.23 Y97.946 E-.07665
G1 X100 Y97.806 E-.13011
G1 X110.727 Y97.806 E-1.7833
;WIPE_END
G1 Z.35 F1800
G1 X119.473 Y119.472 F15000
G1 Z.15 F1800
G1 E2 F2100
;TYPE:External perimeter
;WIDTH:0.405622
G1 F540
G1 X119.407 Y119.487 E.00153
;WIDTH:0.379851
G1 X119.341 Y119.501 E.00142
;WIDTH:0.35408
G1 X100.66 Y119.501 E.36375
;WIDTH:0.379993
G1 X100.594 Y119.487 E.00142
;WIDTH:0.405905
G1 X100.528 Y119.472 E.00153
G1 X100.513 Y119.406 E.00153
;WIDTH:0.379993
G1 X100.499 Y119.34 E.00142
;WIDTH:0.35408
G1 X100.499 Y100.659 E.36375
;WIDTH:0.379852
G1 X100.513 Y100.593 E.00142
;WIDTH:0.405623
G1 X100.528 Y100.527 E.00153
G1 X100.594 Y100.513 E.00152
;WIDTH:0.379603
G1 X100.66 Y100.498 E.00142
;WIDTH:0.353583
G1 X119.341 Y100.498 E.36319
;WIDTH:0.379462
G1 X119.407 Y100.513 E.00142
;WIDTH:0.40534
G1 X119.473 Y100.527 E.00152
G1 X119.487 Y100.593 E.00152
;WIDTH:0.379461
G1 X119.502 Y100.659 E.00142
;WIDTH:0.353582
G1 X119.502 Y119.34 E.36319
;WIDTH:0.379602
G1 X119.487 Y119.406 E.00142
;WIDTH:0.405622
G1 X119.486 Y119.414 E.00018
G1 X119.783 Y119.783 F15000
G1 F540
G1 X119.562 Y119.803 E.00501
;WIDTH:0.379851
G1 X119.341 Y119.823 E.00467
;WIDTH:0.35408
G1 X100.66 Y119.823 E.36375
;WIDTH:0.379993
G1 X100.439 Y119.803 E.00467
;WIDTH:0.405905
G1 X100.218 Y119.782 E.00502
G1 X100.197 Y119.561 E.00502
;WIDTH:0.379993
G1 X100.177 Y119.34 E.00467
;WIDTH:0.35408
G1 X100.177 Y100.659 E.36375
;WIDTH:0.379852
G1 X100.197 Y100.438 E.00467
;WIDTH:0.405623
G1 X100.217 Y100.217 E.00501
G1 X100.439 Y100.197 E.00504
;WIDTH:0.379603
G1 X100.66 Y100.177 E.00466
;WIDTH:0.353583
G1 X119.341 Y100.177 E.36319
;WIDTH:0.379462
G1 X119.562 Y100.197 E.00466
;WIDTH:0.40534
G1 X119.783 Y100.217 E.00501
G1 X119.814 Y100.509 E.00663
;WIDTH:0.371074
G1 X119.823 Y100.659 E.00308
;WIDTH:0.353582
G1 X119.823 Y119.34 E.36319
;WIDTH:0.379602
G1 X119.803 Y119.561 E.00466
;WIDTH:0.405622
G1 X119.788 Y119.723 E.00368
M106 S127.5
;LAYER_CHANGE
;Z:0.39
;HEIGHT:0.24
;BEFORE_LAYER_CHANGE
G92 E0
;0.39


;WIPE_START
G1 F12000
G1 X119.783 Y119.783 E-.01001
G1 X119.562 Y119.803 E-.03689
G1 X119.341 Y119.823 E-.03689
G1 X107.815 Y119.823 E-1.91621
;WIPE_END
G1 Z.39 F1800
;AFTER_LAYER_CHANGE
;0.39
M104 S200 ; set temperature
G1 Z.59
G1 X122.828 Y120.532 F15000
G1 Z.39 F1800
G1 E2 F2100
;TYPE:Skirt/Brim
;WIDTH:0.42
G1 F2803
G1 X122.576 Y121.477 E.03488
G1 X121.501 Y122.562 E.05447
G1 X120 Y122.97 E.05548
G1 X100 Y122.97 E.71331
G1 X98.523 Y122.576 E.05452
G1 X97.438 Y121.501 E.05447
G1 X97.03 Y120 E.05548
G1 X97.03 Y100 E.71331
G1 X97.424 Y98.523 E.05452
G1 X98.499 Y97.438 E.05447
G1 X100 Y97.03 E.05548
G1 X120 Y97.03 E.71331
G1 X121.477 Y97.424 E.05452
G1 X122.562 Y98.499 E.05447
G1 X122.97 Y100 E.05548
G1 X122.97 Y120 E.71331
G1 X122.843 Y120.474 E.0175
G1 X122.476 Y120.369 F15000
G1 F2803
G1 X122.189 Y121.368 E.03707
G1 X121.132 Y122.32 E.05073
G1 X120 Y122.582 E.04144
G1 X100 Y122.582 E.71331
G1 X98.632 Y122.189 E.05076
G1 X97.68 Y121.132 E.05073
G1 X97.418 Y120 E.04144
G1 X97.418 Y100 E.71331
G1 X97.811 Y98.632 E.05076
G1 X98.868 Y97.68 E.05073
G1 X100 Y97.418 E.04144
G1 X120 Y97.418 E.71331
G1 X121.368 Y97.811 E.05076
G1 X122.32 Y98.868 E.05073
G1 X122.582 Y100 E.04144
G1 X122.582 Y120 E.71331
G1 X122.492 Y120.311 E.01155
G1 X122.132 Y120.199 F15000
G1 F2803
G1 X121.803 Y121.25 E.03928
G1 X120.77 Y122.054 E.04669
G1 X120 Y122.194 E.02791
G1 X100 Y122.194 E.71331
G1 X98.75 Y121.803 E.04671
G1 X97.946 Y120.77 E.04669
G1 X97.806 Y120 E.02791
G1 X97.806 Y100 E.71331
G1 X98.197 Y98.75 E.04671
G1 X99.23 Y97.946 E.04669
G1 X100 Y97.806 E.02791
G1 X120 Y97.806 E.71331
G1 X121.25 Y98.197 E.04671
G1 X122.054 Y99.23 E.04669
G1 X122.194 Y100 E.02791
G1 X122.194 Y120 E.71331
G1 X122.15 Y120.141 E.00527
;WIPE_START
G1 F12000
G1 X122.132 Y120.199 E-.0101
G1 X121.803 Y121.25 E-.18309
G1 X120.77 Y122.054 E-.21762
G1 X120 Y122.194 E-.13011
G1 X111.224 Y122.194 E-1.45908
;WIPE_END
G1 Z.59 F1800
G1 X118.236 Y119.419 F15000
G1 X118.839 Y119.419
G1 X119.325 Y119.419
G1 X119.325 Y119.325
G1 Z.39 F1800
G1 E2 F2100
;TYPE:External perimeter
;WIDTH:0.531202
G1 F2803
G1 X119.241 Y119.342 E.00398
;WIDTH:0.496199
G1 X119.156 Y119.36 E.00374
;WIDTH:0.461195
G1 X100.845 Y119.36 E.72608
;WIDTH:0.496341
G1 X100.76 Y119.342 E.00374
;WIDTH:0.531487
G1 X100.675 Y119.325 E.00403
G1 X100.658 Y119.24 E.00403
;WIDTH:0.496342
G1 X100.64 Y119.155 E.00374
;WIDTH:0.461196
G1 X100.64 Y100.844 E.72608
;WIDTH:0.496199
G1 X100.658 Y100.759 E.00374
;WIDTH:0.531202
G1 X100.675 Y100.675 E.00398
G1 X100.76 Y100.657 E.00403
;WIDTH:0.495956
G1 X100.845 Y100.64 E.00373
;WIDTH:0.460709
G1 X119.156 Y100.64 E.72522
;WIDTH:0.495813
G1 X119.241 Y100.657 E.00373
;WIDTH:0.530917
G1 X119.325 Y100.675 E.00399
G1 X119.343 Y100.759 E.00399
;WIDTH:0.495813
G1 X119.36 Y100.844 E.00373
;WIDTH:0.460708
G1 X119.36 Y119.155 E.72522
;WIDTH:0.495955
G1 X119.343 Y119.24 E.00373
;WIDTH:0.531202
G1 X119.337 Y119.266 E.00124
G1 X119.734 Y119.734 F15000
G1 F2803
G1 X119.445 Y119.752 E.01344
;WIDTH:0.496199
G1 X119.156 Y119.769 E.01246
;WIDTH:0.461195
G1 X100.845 Y119.769 E.72608
;WIDTH:0.496341
G1 X100.555 Y119.752 E.01251
;WIDTH:0.531487
G1 X100.266 Y119.734 E.01345
G1 X100.248 Y119.445 E.01345
;WIDTH:0.496342
G1 X100.231 Y119.155 E.01251
;WIDTH:0.461196
G1 X100.231 Y100.844 E.72608
;WIDTH:0.496199
G1 X100.248 Y100.555 E.01246
;WIDTH:0.531202
G1 X100.266 Y100.266 E.01344
G1 X100.555 Y100.248 E.01344
;WIDTH:0.495956
G1 X100.845 Y100.23 E.0125
;WIDTH:0.460709
G1 X119.156 Y100.23 E.72522
;WIDTH:0.495813
G1 X119.445 Y100.248 E.01245
;WIDTH:0.530917
G1 X119.735 Y100.265 E.01348
G1 X119.735 Y100.505 E.01114
G1 X119.752 Y100.675 E.00793
;WIDTH:0.495813
G1 X119.77 Y100.844 E.00731
;WIDTH:0.460708
G1 X119.77 Y119.155 E.72522
;WIDTH:0.463808
G1 X119.768 Y119.226 E.00283
;WIDTH:0.497505
G1 X119.751 Y119.48 E.01099
;WIDTH:0.531202
G1 X119.738 Y119.675 E.00907
M106 S255
;LAYER_CHANGE
;Z:0.63
;HEIGHT:0.24
;BEFORE_LAYER_CHANGE
G92 E0
;0.63


;WIPE_START
G1 F12000
G1 X119.734 Y119.734 E-.00983
G1 X119.445 Y119.752 E-.04814
G1 X119.156 Y119.769 E-.04813
G1 X107.764 Y119.769 E-1.8939
;WIPE_END
G1 Z.63 F1800
;AFTER_LAYER_CHANGE
;0.63
G1 Z.83
G1 X110.549 Y119.299 F15000
G1 X118.599 Y119.299
G1 X119.046 Y119.299
G1 X119.046 Y119.045
G1 Z.63 F1800
G1 E2 F2100
;WIDTH:0.419999
G1 F1420
G1 X118.916 Y119.099 E.00502
G1 X101.085 Y119.099 E.63595
G1 X100.955 Y119.045 E.00502
G1 X100.901 Y118.915 E.00502
G1 X100.901 Y101.084 E.63595
G1 X100.955 Y100.954 E.00502
G1 X101.085 Y100.9 E.00502
G1 X118.916 Y100.9 E.63595
G1 X119.046 Y100.954 E.00502
G1 X119.1 Y101.084 E.00502
G1 X119.1 Y118.915 E.63595
G1 X119.069 Y118.99 E.00289
G1 X119.354 Y119.354 F15000
;TYPE:Perimeter
;WIDTH:0.554982
G1 F1420
G1 X119.244 Y119.377 E.00548
;WIDTH:0.509685
G1 X119.135 Y119.399 E.00493
;WIDTH:0.464388
G1 X119.025 Y119.422 E.00449
;WIDTH:0.419091
G1 X118.916 Y119.445 E.00396
;WIDTH:0.373794
G1 X101.085 Y119.445 E.55621
;WIDTH:0.41923
G1 X100.975 Y119.422 E.004
;WIDTH:0.464665
G1 X100.866 Y119.399 E.00445
;WIDTH:0.510101
G1 X100.756 Y119.376 E.00499
;WIDTH:0.555536
G1 X100.646 Y119.354 E.00547
G1 X100.624 Y119.244 E.00547
;WIDTH:0.510101
G1 X100.601 Y119.134 E.00499
;WIDTH:0.464665
G1 X100.578 Y119.025 E.00445
;WIDTH:0.41923
G1 X100.555 Y118.915 E.004
;WIDTH:0.373794
G1 X100.555 Y101.084 E.55621
;WIDTH:0.419091
G1 X100.578 Y100.975 E.00396
;WIDTH:0.464388
G1 X100.601 Y100.865 E.00449
;WIDTH:0.509685
G1 X100.623 Y100.756 E.00493
;WIDTH:0.554982
G1 X100.646 Y100.646 E.00548
G1 X100.756 Y100.623 E.00548
;WIDTH:0.509449
G1 X100.866 Y100.6 E.00498
;WIDTH:0.463915
G1 X100.975 Y100.578 E.00444
;WIDTH:0.418382
G1 X101.085 Y100.555 E.00399
;WIDTH:0.372848
G1 X118.916 Y100.555 E.55458
;WIDTH:0.418243
G1 X119.026 Y100.578 E.00399
;WIDTH:0.463638
G1 X119.135 Y100.6 E.00444
;WIDTH:0.509033
G1 X119.245 Y100.623 E.00498
;WIDTH:0.554428
G1 X119.354 Y100.646 E.00542
G1 X119.377 Y100.755 E.00542
;WIDTH:0.509033
G1 X119.4 Y100.865 E.00498
;WIDTH:0.463637
G1 X119.422 Y100.974 E.00444
;WIDTH:0.418242
G1 X119.445 Y101.084 E.00399
;WIDTH:0.372846
G1 X119.445 Y118.915 E.55457
;WIDTH:0.41838
G1 X119.422 Y119.025 E.00399
;WIDTH:0.463914
G1 X119.4 Y119.134 E.00444
;WIDTH:0.509448
G1 X119.377 Y119.244 E.00498
;WIDTH:0.554982
G1 X119.366 Y119.295 E.00254
G1 X119.79 Y119.79 F15000
;TYPE:External perimeter
;WIDTH:0.419999
G1 F1420
G1 X100.21 Y119.79 E.69833
G1 X100.21 Y100.21 E.69833
G1 X119.79 Y100.21 E.69833
G1 X119.79 Y119.73 E.69619
;LAYER_CHANGE
;Z:0.87
;HEIGHT:0.24
;BEFORE_LAYER_CHANGE
G92 E0
;0.87


;WIPE_START
G1 F12000
G1 X119.79 Y119.79 E-.00998
G1 X107.82 Y119.79 E-1.99002
;WIPE_END
G1 Z.87 F1800
;AFTER_LAYER_CHANGE
;0.87
G1 Z1.07
G1 X107.948 Y119.105 F15000
G1 X119.105 Y119.105
G1 X119.18 Y118.358
G1 X119.18 Y101.641
G1 X119.105 Y100.895
G1 X118.796 Y100.895
G1 X118.796 Y101.2
G1 Z.87 F1800
G1 E2 F2100
G1 F1469
G1 X118.824 Y101.214 E.00112
G1 X118.86 Y101.324 E.00413
G1 X118.86 Y118.675 E.61883
G1 X118.824 Y118.785 E.00413
G1 X118.676 Y118.859 E.0059
G1 X101.325 Y118.859 E.61883
G1 X101.195 Y118.805 E.00502
G1 X101.141 Y118.675 E.00502
G1 X101.141 Y101.324 E.61883
G1 X101.195 Y101.194 E.00502
G1 X101.325 Y101.14 E.00502
G1 X118.676 Y101.14 E.61883
G1 X118.742 Y101.173 E.00263
G1 X119.037 Y100.956 F15000
;TYPE:Perimeter
;WIDTH:0.433397
G1 F1469
G1 X118.895 Y100.875 E.00604
;WIDTH:0.463726
G1 X118.676 Y100.749 E.01008
G1 X118.965 Y100.734 E.01155
;WIDTH:0.433397
G1 X119.254 Y100.719 E.0107
;WIDTH:0.403067
G1 X119.43 Y100.649 E.00644
G1 X119.43 Y100.887 E.0081
;WIDTH:0.445008
G1 X119.409 Y100.975 E.00345
;WIDTH:0.486948
G1 X119.388 Y101.062 E.00377
;WIDTH:0.528888
G1 X119.367 Y101.149 E.00414
;WIDTH:0.570828
G1 X119.346 Y101.237 E.00455
;WIDTH:0.612768
G1 X119.325 Y101.324 E.00486
G1 X119.283 Y101.259 E.0042
;WIDTH:0.570828
G1 X119.24 Y101.194 E.00392
;WIDTH:0.528888
G1 X119.198 Y101.129 E.00358
;WIDTH:0.486948
G1 X119.155 Y101.064 E.00328
;WIDTH:0.445008
G1 X119.113 Y101 E.00292
;WIDTH:0.433397
G1 X119.089 Y100.986 E.00103
G1 X119.325 Y101.324 F15000
;WIDTH:0.612768
G1 F1469
G1 X119.325 Y118.675 E.94256
;WIDTH:0.660206
G1 X119.301 Y118.818 E.00854
;WIDTH:0.707643
G1 X119.278 Y118.962 E.00926
;WIDTH:0.75508
G1 X119.254 Y119.105 E.00987
G1 X119.158 Y119.129 E.00674
;WIDTH:0.706672
G1 X119.061 Y119.153 E.00634
;WIDTH:0.658264
G1 X118.965 Y119.178 E.00583
;WIDTH:0.609855
G1 X118.869 Y119.202 E.00535
;WIDTH:0.561447
G1 X118.772 Y119.226 E.00493
;WIDTH:0.513039
G1 X118.676 Y119.25 E.00442
;WIDTH:0.46463
G1 X101.325 Y119.25 E.69378
;WIDTH:0.513965
G1 X101.206 Y119.225 E.00544
;WIDTH:0.5633
G1 X101.087 Y119.201 E.00601
;WIDTH:0.612635
G1 X100.968 Y119.176 E.0066
;WIDTH:0.66197
G1 X100.849 Y119.151 E.00718
G1 X100.824 Y119.032 E.00718
;WIDTH:0.612641
G1 X100.799 Y118.913 E.0066
;WIDTH:0.563311
G1 X100.775 Y118.794 E.00601
;WIDTH:0.513982
G1 X100.75 Y118.675 E.00544
;WIDTH:0.464652
G1 X100.75 Y101.324 E.69382
;WIDTH:0.513846
G1 X100.774 Y101.205 E.00543
;WIDTH:0.563043
G1 X100.799 Y101.086 E.00602
;WIDTH:0.612241
G1 X100.824 Y100.967 E.0066
;WIDTH:0.661438
G1 X100.848 Y100.848 E.00717
G1 X100.967 Y100.824 E.00717
;WIDTH:0.61201
G1 X101.087 Y100.799 E.00665
;WIDTH:0.562582
G1 X101.206 Y100.774 E.00601
;WIDTH:0.513154
G1 X101.325 Y100.749 E.00543
;WIDTH:0.463726
G1 X118.676 Y100.749 E.69227
;WIPE_START
G1 F12000
G1 X106.646 Y100.749 E-2
;WIPE_END
G1 Z1.07 F1800
G1 X106.646 Y100.604 F15000
G1 X102.709 Y100.604
G1 X100.225 Y100.225
G1 Z.87 F1800
G1 E2 F2100
;TYPE:External perimeter
;WIDTH:0.450347
G1 F1469
G1 X100.508 Y100.225 E.01092
G1 X100.598 Y100.315 E.00491
G1 X100.848 Y100.359 E.0098
;WIDTH:0.419999
G1 X119.254 Y100.359 E.65646
G1 X119.392 Y100.305 E.00529
G1 X119.487 Y100.21 E.00479
G1 X119.79 Y100.21 E.01081
G1 X119.79 Y119.79 E.69833
G1 X119.487 Y119.79 E.01081
G1 X119.424 Y119.727 E.00318
G1 X119.262 Y119.641 E.00654
G1 X100.849 Y119.641 E.65671
;WIDTH:0.450335
G1 X100.598 Y119.684 E.00983
G1 X100.508 Y119.775 E.00494
G1 X100.225 Y119.775 E.01092
G1 X100.225 Y119.493 E.01089
G1 X100.316 Y119.403 E.00494
G1 X100.359 Y119.151 E.00987
;WIDTH:0.419999
G1 X100.359 Y100.848 E.65279
;WIDTH:0.451864
G1 X100.328 Y100.61 E.0093
G1 X100.225 Y100.507 E.00564
;WIDTH:0.450347
G1 X100.225 Y100.285 E.00857
;LAYER_CHANGE
;Z:1.11
;HEIGHT:0.24
;BEFORE_LAYER_CHANGE
G92 E0
;1.11


;WIPE_START
G1 F12000
G1 X100.225 Y100.225 E-.00997
G1 X100.508 Y100.225 E-.04705
G1 X100.598 Y100.315 E-.02116
G1 X100.848 Y100.359 E-.0422
G1 X112.154 Y100.359 E-1.87962
;WIPE_END
G1 Z1.11 F1800
;AFTER_LAYER_CHANGE
;1.11
G1 Z1.31
G1 X112.454 Y101.135 F15000
G1 X118.554 Y101.135
G1 X118.554 Y101.442
G1 Z1.11 F1800
G1 E2 F2100
;WIDTH:0.419999
G1 F1533
G1 X118.589 Y101.461 E.00142
G1 X118.62 Y101.564 E.00384
G1 X118.62 Y118.435 E.60171
G1 X118.585 Y118.544 E.00408
G1 X118.436 Y118.619 E.00595
G1 X101.565 Y118.619 E.60171
G1 X101.435 Y118.565 E.00502
G1 X101.381 Y118.435 E.00502
G1 X101.381 Y101.564 E.60171
G1 X101.434 Y101.434 E.00501
G1 X101.533 Y101.382 E.00399
G1 X101.565 Y101.38 E.00114
G1 X118.436 Y101.38 E.60171
G1 X118.501 Y101.414 E.00262
G1 X118.8 Y101.192 F15000
;TYPE:Perimeter
;WIDTH:0.463572
G1 F1533
G1 X118.436 Y100.989 E.01662
G1 X119.022 Y100.968 E.02339
;WIDTH:0.421417
G1 X119.247 Y100.926 E.00819
G1 X119.23 Y101.079 E.00551
;WIDTH:0.46967
G1 X119.206 Y101.176 E.00404
;WIDTH:0.517923
G1 X119.182 Y101.273 E.00451
;WIDTH:0.566176
G1 X119.158 Y101.37 E.00498
;WIDTH:0.614429
G1 X119.134 Y101.467 E.00544
;WIDTH:0.662682
G1 X119.11 Y101.564 E.00591
G1 X119.065 Y101.499 E.00468
;WIDTH:0.614177
G1 X119.019 Y101.434 E.00434
;WIDTH:0.565671
G1 X118.974 Y101.369 E.00393
;WIDTH:0.517166
G1 X118.929 Y101.304 E.00356
;WIDTH:0.46866
G1 X118.883 Y101.239 E.00322
;WIDTH:0.463572
G1 X118.852 Y101.222 E.00141
G1 E-2 F2100
G1 Z1.31 F1800
G1 X119.11 Y118.435 F15000
G1 Z1.11 F1800
G1 E2 F2100
;WIDTH:0.66265
