; generated by PrusaSlicer 2.9.1 on 2025-05-17 at 18:50:26 UTC

; v1.0.0

; external perimeters extrusion width = 0.42mm
; perimeters extrusion width = 0.44mm
; infill extrusion width = 0.44mm
; solid infill extrusion width = 0.44mm
; top infill extrusion width = 0.40mm
; support material extrusion width = 0.35mm
; first layer extrusion width = 0.42mm

M190 S60 ; set bed temperature and wait for it to be reached
M104 S220 ; set temperature
;TYPE:Custom
G28 ; home all axes
G1 X0.000 Y0.000 Z1.427 F5000.000 
G1 X0.000 Y0.000 Z1.853 F5000.000 
M109 S220 ; set temperature and wait for it to be reached
G21 ; set units to millimeters
G90 ; use absolute coordinates
M83 ; use relative distances for extrusion
; Filament gcode
M107
;LAYER_CHANGE
;Z:0.15
;HEIGHT:0.15
G1 X0.000 Y0.000 Z1.427 E-0.667 F2100.000 
G1 X0.000 Y0.000 Z1.853 E-0.667 F2100.000 
G1 X0.000 Y0.000 Z1.637 F1800.000 
G1 X0.000 Y0.000 Z1.993 F1800.000 
G1 X0.354 Y0.351 Z1.281 F15000.000 
G1 X0.708 Y0.702 Z1.277 F15000.000 
G1 X1.062 Y1.052 Z1.268 F15000.000 
G1 X1.416 Y1.403 Z1.255 F15000.000 
G1 X1.770 Y1.754 Z1.236 F15000.000 
G1 X2.124 Y2.105 Z1.213 F15000.000 
G1 X2.478 Y2.455 Z1.185 F15000.000 
G1 X2.832 Y2.806 Z1.153 F15000.000 
G1 X3.186 Y3.157 Z1.117 F15000.000 
G1 X3.540 Y3.508 Z1.077 F15000.000 
G1 X3.894 Y3.859 Z1.032 F15000.000 
G1 X4.248 Y4.209 Z0.985 F15000.000 
G1 X4.603 Y4.560 Z0.934 F15000.000 
G1 X4.957 Y4.911 Z0.879 F15000.000 
G1 X5.311 Y5.262 Z0.823 F15000.000 
G1 X5.665 Y5.612 Z0.763 F15000.000 
G1 X6.019 Y5.963 Z0.702 F15000.000 
G1 X6.373 Y6.314 Z0.638 F15000.000 
G1 X6.727 Y6.665 Z0.573 F15000.000 
G1 X7.081 Y7.015 Z0.507 F15000.000 
G1 X7.435 Y7.366 Z0.440 F15000.000 
G1 X7.789 Y7.717 Z0.373 F15000.000 
G1 X8.143 Y8.068 Z0.305 F15000.000 
G1 X8.497 Y8.419 Z0.238 F15000.000 
G1 X8.851 Y8.769 Z0.171 F15000.000 
G1 X9.205 Y9.120 Z0.130 F15000.000 
G1 X9.559 Y9.471 Z0.130 F15000.000 
G1 X9.913 Y9.822 Z0.130 F15000.000 
G1 X10.267 Y10.172 Z0.130 F15000.000 
G1 X10.621 Y10.523 Z0.130 F15000.000 
G1 X10.975 Y10.874 Z0.130 F15000.000 
G1 X11.329 Y11.225 Z0.130 F15000.000 
G1 X11.683 Y11.576 Z0.130 F15000.000 
G1 X12.037 Y11.926 Z0.130 F15000.000 
G1 X12.391 Y12.277 Z0.130 F15000.000 
G1 X12.745 Y12.628 Z0.130 F15000.000 
G1 X13.099 Y12.979 Z0.130 F15000.000 
G1 X13.454 Y13.329 Z0.130 F15000.000 
G1 X13.808 Y13.680 Z0.130 F15000.000 
G1 X14.162 Y14.031 Z0.130 F15000.000 
G1 X14.516 Y14.382 Z0.130 F15000.000 
G1 X14.870 Y14.732 Z0.130 F15000.000 
G1 X15.224 Y15.083 Z0.130 F15000.000 
G1 X15.578 Y15.434 Z0.130 F15000.000 
G1 X15.932 Y15.785 Z0.130 F15000.000 
G1 X16.286 Y16.136 Z0.130 F15000.000 
G1 X16.640 Y16.486 Z0.130 F15000.000 
G1 X16.994 Y16.837 Z0.130 F15000.000 
G1 X17.348 Y17.188 Z0.130 F15000.000 
G1 X17.702 Y17.539 Z0.130 F15000.000 
G1 X18.056 Y17.889 Z0.130 F15000.000 
G1 X18.410 Y18.240 Z0.130 F15000.000 
G1 X18.764 Y18.591 Z0.130 F15000.000 
G1 X19.118 Y18.942 Z0.130 F15000.000 
G1 X19.472 Y19.293 Z0.130 F15000.000 
G1 X19.826 Y19.643 Z0.130 F15000.000 
G1 X20.180 Y19.994 Z0.130 F15000.000 
G1 X20.534 Y20.345 Z0.130 F15000.000 
G1 X20.888 Y20.696 Z0.130 F15000.000 
G1 X21.242 Y21.046 Z0.130 F15000.000 
G1 X21.596 Y21.397 Z0.130 F15000.000 
G1 X21.950 Y21.748 Z0.130 F15000.000 
G1 X22.304 Y22.099 Z0.186 F15000.000 
G1 X22.659 Y22.449 Z0.257 F15000.000 
G1 X23.013 Y22.800 Z0.330 F15000.000 
G1 X23.367 Y23.151 Z0.403 F15000.000 
G1 X23.721 Y23.502 Z0.476 F15000.000 
G1 X24.075 Y23.853 Z0.549 F15000.000 
G1 X24.429 Y24.203 Z0.622 F15000.000 
G1 X24.783 Y24.554 Z0.694 F15000.000 
G1 X25.137 Y24.905 Z0.766 F15000.000 
G1 X25.491 Y25.256 Z0.835 F15000.000 
G1 X25.845 Y25.606 Z0.904 F15000.000 
G1 X26.199 Y25.957 Z0.970 F15000.000 
G1 X26.553 Y26.308 Z1.033 F15000.000 
G1 X26.907 Y26.659 Z1.094 F15000.000 
G1 X27.261 Y27.010 Z1.152 F15000.000 
G1 X27.615 Y27.360 Z1.207 F15000.000 
G1 X27.969 Y27.711 Z1.259 F15000.000 
G1 X28.323 Y28.062 Z1.306 F15000.000 
G1 X28.677 Y28.413 Z1.350 F15000.000 
G1 X29.031 Y28.763 Z1.390 F15000.000 
G1 X29.385 Y29.114 Z1.425 F15000.000 
G1 X29.739 Y29.465 Z1.456 F15000.000 
G1 X30.093 Y29.816 Z1.482 F15000.000 
G1 X30.447 Y30.167 Z1.503 F15000.000 
G1 X30.801 Y30.517 Z1.520 F15000.000 
G1 X31.155 Y30.868 Z1.532 F15000.000 
G1 X31.510 Y31.219 Z1.538 F15000.000 
G1 X31.864 Y31.570 Z1.540 F15000.000 
G1 X32.218 Y31.920 Z1.537 F15000.000 
G1 X32.572 Y32.271 Z1.529 F15000.000 
G1 X32.926 Y32.622 Z1.516 F15000.000 
G1 X33.280 Y32.973 Z1.498 F15000.000 
G1 X33.634 Y33.323 Z1.475 F15000.000 
G1 X33.988 Y33.674 Z1.448 F15000.000 
G1 X34.342 Y34.025 Z1.417 F15000.000 
G1 X34.696 Y34.376 Z1.381 F15000.000 
G1 X35.050 Y34.727 Z1.342 F15000.000 
G1 X35.404 Y35.077 Z1.298 F15000.000 
G1 X35.758 Y35.428 Z1.251 F15000.000 
G1 X36.112 Y35.779 Z1.200 F15000.000 
G1 X36.466 Y36.130 Z1.147 F15000.000 
G1 X36.820 Y36.480 Z1.090 F15000.000 
G1 X37.174 Y36.831 Z1.031 F15000.000 
G1 X37.528 Y37.182 Z0.970 F15000.000 
G1 X37.882 Y37.533 Z0.907 F15000.000 
G1 X38.236 Y37.884 Z0.842 F15000.000 
G1 X38.590 Y38.234 Z0.776 F15000.000 
G1 X38.944 Y38.585 Z0.710 F15000.000 
G1 X39.298 Y38.936 Z0.642 F15000.000 
G1 X39.652 Y39.287 Z0.575 F15000.000 
G1 X40.006 Y39.637 Z0.507 F15000.000 
G1 X40.361 Y39.988 Z0.440 F15000.000 
G1 X40.715 Y40.339 Z0.374 F15000.000 
G1 X41.069 Y40.690 Z0.310 F15000.000 
G1 X41.423 Y41.040 Z0.246 F15000.000 
G1 X41.777 Y41.391 Z0.185 F15000.000 
G1 X42.131 Y41.742 Z0.130 F15000.000 
G1 X42.485 Y42.093 Z0.130 F15000.000 
G1 X42.839 Y42.444 Z0.130 F15000.000 
G1 X43.193 Y42.794 Z0.130 F15000.000 
G1 X43.547 Y43.145 Z0.130 F15000.000 
G1 X43.901 Y43.496 Z0.130 F15000.000 
G1 X44.255 Y43.847 Z0.130 F15000.000 
G1 X44.609 Y44.197 Z0.130 F15000.000 
G1 X44.963 Y44.548 Z0.130 F15000.000 
G1 X45.317 Y44.899 Z0.130 F15000.000 
G1 X45.671 Y45.250 Z0.130 F15000.000 
G1 X46.025 Y45.601 Z0.130 F15000.000 
G1 X46.379 Y45.951 Z0.130 F15000.000 
G1 X46.733 Y46.302 Z0.130 F15000.000 
G1 X47.087 Y46.653 Z0.130 F15000.000 
G1 X47.441 Y47.004 Z0.130 F15000.000 
G1 X47.795 Y47.354 Z0.130 F15000.000 
G1 X48.149 Y47.705 Z0.130 F15000.000 
G1 X48.503 Y48.056 Z0.130 F15000.000 
G1 X48.857 Y48.407 Z0.130 F15000.000 
G1 X49.212 Y48.758 Z0.130 F15000.000 
G1 X49.566 Y49.108 Z0.130 F15000.000 
G1 X49.920 Y49.459 Z0.130 F15000.000 
G1 X50.274 Y49.810 Z0.130 F15000.000 
G1 X50.628 Y50.161 Z0.130 F15000.000 
G1 X50.982 Y50.511 Z0.130 F15000.000 
G1 X51.336 Y50.862 Z0.130 F15000.000 
G1 X51.690 Y51.213 Z0.130 F15000.000 
G1 X52.044 Y51.564 Z0.130 F15000.000 
G1 X52.398 Y51.914 Z0.169 F15000.000 
G1 X52.752 Y52.265 Z0.232 F15000.000 
G1 X53.106 Y52.616 Z0.298 F15000.000 
G1 X53.460 Y52.967 Z0.366 F15000.000 
G1 X53.814 Y53.318 Z0.435 F15000.000 
G1 X54.168 Y53.668 Z0.506 F15000.000 
G1 X54.522 Y54.019 Z0.578 F15000.000 
G1 X54.876 Y54.370 Z0.651 F15000.000 
G1 X55.230 Y54.721 Z0.724 F15000.000 
G1 X55.584 Y55.071 Z0.798 F15000.000 
G1 X55.938 Y55.422 Z0.871 F15000.000 
G1 X56.292 Y55.773 Z0.943 F15000.000 
G1 X56.646 Y56.124 Z1.014 F15000.000 
G1 X57.000 Y56.475 Z1.084 F15000.000 
G1 X57.354 Y56.825 Z1.152 F15000.000 
G1 X57.708 Y57.176 Z1.219 F15000.000 
G1 X58.062 Y57.527 Z1.283 F15000.000 
G1 X58.417 Y57.878 Z1.344 F15000.000 
G1 X58.771 Y58.228 Z1.403 F15000.000 
G1 X59.125 Y58.579 Z1.458 F15000.000 
G1 X59.479 Y58.930 Z1.510 F15000.000 
G1 X59.833 Y59.281 Z1.558 F15000.000 
G1 X60.187 Y59.631 Z1.602 F15000.000 
G1 X60.541 Y59.982 Z1.642 F15000.000 
G1 X60.895 Y60.333 Z1.678 F15000.000 
G1 X61.249 Y60.684 Z1.710 F15000.000 
G1 X61.603 Y61.035 Z1.736 F15000.000 
G1 X61.957 Y61.385 Z1.758 F15000.000 
G1 X62.311 Y61.736 Z1.776 F15000.000 
G1 X62.665 Y62.087 Z1.788 F15000.000 
G1 X63.019 Y62.438 Z1.796 F15000.000 
G1 X63.373 Y62.788 Z1.798 F15000.000 
G1 X63.727 Y63.139 Z1.796 F15000.000 
G1 X64.081 Y63.490 Z1.788 F15000.000 
G1 X64.435 Y63.841 Z1.776 F15000.000 
G1 X64.789 Y64.192 Z1.759 F15000.000 
G1 X65.143 Y64.542 Z1.737 F15000.000 
G1 X65.497 Y64.893 Z1.711 F15000.000 
G1 X65.851 Y65.244 Z1.680 F15000.000 
G1 X66.205 Y65.595 Z1.645 F15000.000 
G1 X66.559 Y65.945 Z1.606 F15000.000 
G1 X66.913 Y66.296 Z1.563 F15000.000 
G1 X67.268 Y66.647 Z1.516 F15000.000 
G1 X67.622 Y66.998 Z1.466 F15000.000 
G1 X67.976 Y67.348 Z1.413 F15000.000 
G1 X68.330 Y67.699 Z1.357 F15000.000 
G1 X68.684 Y68.050 Z1.299 F15000.000 
G1 X69.038 Y68.401 Z1.238 F15000.000 
G1 X69.392 Y68.752 Z1.175 F15000.000 
G1 X69.746 Y69.102 Z1.111 F15000.000 
G1 X70.100 Y69.453 Z1.045 F15000.000 
G1 X70.454 Y69.804 Z0.978 F15000.000 
G1 X70.808 Y70.155 Z0.911 F15000.000 
G1 X71.162 Y70.505 Z0.844 F15000.000 
G1 X71.516 Y70.856 Z0.777 F15000.000 
G1 X71.870 Y71.207 Z0.710 F15000.000 
G1 X72.224 Y71.558 Z0.644 F15000.000 
G1 X72.578 Y71.909 Z0.579 F15000.000 
G1 X72.932 Y72.259 Z0.515 F15000.000 
G1 X73.286 Y72.610 Z0.454 F15000.000 
G1 X73.640 Y72.961 Z0.394 F15000.000 
G1 X73.994 Y73.312 Z0.337 F15000.000 
G1 X74.348 Y73.662 Z0.283 F15000.000 
G1 X74.702 Y74.013 Z0.232 F15000.000 
G1 X75.056 Y74.364 Z0.184 F15000.000 
G1 X75.410 Y74.715 Z0.139 F15000.000 
G1 X75.764 Y75.066 Z0.130 F15000.000 
G1 X76.119 Y75.416 Z0.130 F15000.000 
G1 X76.473 Y75.767 Z0.130 F15000.000 
G1 X76.827 Y76.118 Z0.130 F15000.000 
G1 X77.181 Y76.469 Z0.130 F15000.000 
G1 X77.535 Y76.819 Z0.130 F15000.000 
G1 X77.889 Y77.170 Z0.130 F15000.000 
G1 X78.243 Y77.521 Z0.130 F15000.000 
G1 X78.597 Y77.872 Z0.130 F15000.000 
G1 X78.951 Y78.222 Z0.130 F15000.000 
G1 X79.305 Y78.573 Z0.130 F15000.000 
G1 X79.659 Y78.924 Z0.130 F15000.000 
G1 X80.013 Y79.275 Z0.130 F15000.000 
G1 X80.367 Y79.626 Z0.130 F15000.000 
G1 X80.721 Y79.976 Z0.130 F15000.000 
G1 X81.075 Y80.327 Z0.130 F15000.000 
G1 X81.429 Y80.678 Z0.130 F15000.000 
G1 X81.783 Y81.029 Z0.130 F15000.000 
G1 X82.137 Y81.379 Z0.152 F15000.000 
G1 X82.491 Y81.730 Z0.198 F15000.000 
G1 X82.845 Y82.081 Z0.249 F15000.000 
G1 X83.199 Y82.432 Z0.303 F15000.000 
G1 X83.553 Y82.783 Z0.360 F15000.000 
G1 X83.907 Y83.133 Z0.420 F15000.000 
G1 X84.261 Y83.484 Z0.483 F15000.000 
G1 X84.615 Y83.835 Z0.548 F15000.000 
G1 X84.969 Y84.186 Z0.616 F15000.000 
G1 X85.324 Y84.536 Z0.685 F15000.000 
G1 X85.678 Y84.887 Z0.755 F15000.000 
G1 X86.032 Y85.238 Z0.827 F15000.000 
G1 X86.386 Y85.589 Z0.900 F15000.000 
G1 X86.740 Y85.939 Z0.973 F15000.000 
G1 X87.094 Y86.290 Z1.046 F15000.000 
G1 X87.448 Y86.641 Z1.119 F15000.000 
G1 X87.802 Y86.992 Z1.191 F15000.000 
G1 X88.156 Y87.343 Z1.263 F15000.000 
G1 X88.510 Y87.693 Z1.333 F15000.000 
G1 X88.864 Y88.044 Z1.401 F15000.000 
G1 X89.218 Y88.395 Z1.468 F15000.000 
G1 X89.572 Y88.746 Z1.532 F15000.000 
G1 X89.926 Y89.096 Z1.593 F15000.000 
G1 X90.280 Y89.447 Z1.652 F15000.000 
G1 X90.634 Y89.798 Z1.708 F15000.000 
G1 X90.988 Y90.149 Z1.760 F15000.000 
G1 X91.342 Y90.500 Z1.809 F15000.000 
G1 X91.696 Y90.850 Z1.854 F15000.000 
G1 X92.050 Y91.201 Z1.894 F15000.000 
G1 X92.404 Y91.552 Z1.931 F15000.000 
G1 X92.758 Y91.903 Z1.963 F15000.000 
G1 X93.112 Y92.253 Z1.990 F15000.000 
G1 X93.466 Y92.604 Z2.013 F15000.000 
G1 X93.820 Y92.955 Z2.031 F15000.000 
G1 X94.175 Y93.306 Z2.044 F15000.000 
G1 X94.529 Y93.656 Z2.052 F15000.000 
G1 X94.883 Y94.007 Z2.055 F15000.000 
G1 X95.237 Y94.358 Z2.053 F15000.000 
G1 X95.591 Y94.709 Z2.047 F15000.000 
G1 X95.945 Y95.060 Z2.035 F15000.000 
G1 X96.299 Y95.410 Z2.019 F15000.000 
G1 X96.653 Y95.761 Z1.998 F15000.000 
G1 X97.007 Y96.112 Z1.972 F15000.000 
G1 X97.361 Y96.463 Z1.942 F15000.000 
G1 X97.715 Y96.813 Z1.908 F15000.000 
G1 X98.069 Y97.164 Z1.869 F15000.000 
G1 X0.354 Y0.351 Z1.350 F1800.000 
G1 X0.708 Y0.702 Z1.345 F1800.000 
G1 X1.062 Y1.052 Z1.335 F1800.000 
G1 X1.416 Y1.403 Z1.321 F1800.000 
G1 X1.770 Y1.754 Z1.301 F1800.000 
G1 X2.124 Y2.105 Z1.277 F1800.000 
G1 X2.478 Y2.455 Z1.248 F1800.000 
G1 X2.832 Y2.806 Z1.215 F1800.000 
G1 X3.186 Y3.157 Z1.178 F1800.000 
G1 X3.540 Y3.508 Z1.137 F1800.000 
G1 X3.894 Y3.859 Z1.092 F1800.000 
G1 X4.248 Y4.209 Z1.043 F1800.000 
G1 X4.603 Y4.560 Z0.991 F1800.000 
G1 X4.957 Y4.911 Z0.936 F1800.000 
G1 X5.311 Y5.262 Z0.878 F1800.000 
G1 X5.665 Y5.612 Z0.818 F1800.000 
G1 X6.019 Y5.963 Z0.755 F1800.000 
G1 X6.373 Y6.314 Z0.691 F1800.000 
G1 X6.727 Y6.665 Z0.625 F1800.000 
G1 X7.081 Y7.015 Z0.558 F1800.000 
G1 X7.435 Y7.366 Z0.490 F1800.000 
G1 X7.789 Y7.717 Z0.422 F1800.000 
G1 X8.143 Y8.068 Z0.353 F1800.000 
G1 X8.497 Y8.419 Z0.285 F1800.000 
G1 X8.851 Y8.769 Z0.217 F1800.000 
G1 X9.205 Y9.120 Z0.150 F1800.000 
G1 X9.559 Y9.471 Z0.130 F1800.000 
G1 X9.913 Y9.822 Z0.130 F1800.000 
G1 X10.267 Y10.172 Z0.130 F1800.000 
G1 X10.621 Y10.523 Z0.130 F1800.000 
G1 X10.975 Y10.874 Z0.130 F1800.000 
G1 X11.329 Y11.225 Z0.130 F1800.000 
G1 X11.683 Y11.576 Z0.130 F1800.000 
G1 X12.037 Y11.926 Z0.130 F1800.000 
G1 X12.391 Y12.277 Z0.130 F1800.000 
G1 X12.745 Y12.628 Z0.130 F1800.000 
G1 X13.099 Y12.979 Z0.130 F1800.000 
G1 X13.454 Y13.329 Z0.130 F1800.000 
G1 X13.808 Y13.680 Z0.130 F1800.000 
G1 X14.162 Y14.031 Z0.130 F1800.000 
G1 X14.516 Y14.382 Z0.130 F1800.000 
G1 X14.870 Y14.732 Z0.130 F1800.000 
G1 X15.224 Y15.083 Z0.130 F1800.000 
G1 X15.578 Y15.434 Z0.130 F1800.000 
G1 X15.932 Y15.785 Z0.130 F1800.000 
G1 X16.286 Y16.136 Z0.130 F1800.000 
G1 X16.640 Y16.486 Z0.130 F1800.000 
G1 X16.994 Y16.837 Z0.130 F1800.000 
G1 X17.348 Y17.188 Z0.130 F1800.000 
G1 X17.702 Y17.539 Z0.130 F1800.000 
G1 X18.056 Y17.889 Z0.130 F1800.000 
G1 X18.410 Y18.240 Z0.130 F1800.000 
G1 X18.764 Y18.591 Z0.130 F1800.000 
G1 X19.118 Y18.942 Z0.130 F1800.000 
G1 X19.472 Y19.293 Z0.130 F1800.000 
G1 X19.826 Y19.643 Z0.130 F1800.000 
G1 X20.180 Y19.994 Z0.130 F1800.000 
G1 X20.534 Y20.345 Z0.130 F1800.000 
G1 X20.888 Y20.696 Z0.130 F1800.000 
G1 X21.242 Y21.046 Z0.130 F1800.000 
G1 X21.596 Y21.397 Z0.130 F1800.000 
G1 X21.950 Y21.748 Z0.130 F1800.000 
G1 X22.304 Y22.099 Z0.195 F1800.000 
G1 X22.659 Y22.449 Z0.265 F1800.000 
G1 X23.013 Y22.800 Z0.336 F1800.000 
G1 X23.367 Y23.151 Z0.408 F1800.000 
G1 X23.721 Y23.502 Z0.481 F1800.000 
G1 X24.075 Y23.853 Z0.553 F1800.000 
G1 X24.429 Y24.203 Z0.625 F1800.000 
G1 X24.783 Y24.554 Z0.696 F1800.000 
G1 X25.137 Y24.905 Z0.767 F1800.000 
G1 X25.491 Y25.256 Z0.835 F1800.000 
G1 X25.845 Y25.606 Z0.903 F1800.000 
G1 X26.199 Y25.957 Z0.968 F1800.000 
G1 X26.553 Y26.308 Z1.030 F1800.000 
G1 X26.907 Y26.659 Z1.090 F1800.000 
G1 X27.261 Y27.010 Z1.148 F1800.000 
G1 X27.615 Y27.360 Z1.202 F1800.000 
G1 X27.969 Y27.711 Z1.252 F1800.000 
G1 X28.323 Y28.062 Z1.299 F1800.000 
G1 X28.677 Y28.413 Z1.341 F1800.000 
G1 X29.031 Y28.763 Z1.380 F1800.000 
G1 X29.385 Y29.114 Z1.414 F1800.000 
G1 X29.739 Y29.465 Z1.444 F1800.000 
G1 X30.093 Y29.816 Z1.469 F1800.000 
G1 X30.447 Y30.167 Z1.490 F1800.000 
G1 X30.801 Y30.517 Z1.505 F1800.000 
G1 X31.155 Y30.868 Z1.516 F1800.000 
G1 X31.510 Y31.219 Z1.522 F1800.000 
G1 X31.864 Y31.570 Z1.523 F1800.000 
G1 X32.218 Y31.920 Z1.518 F1800.000 
G1 X32.572 Y32.271 Z1.509 F1800.000 
G1 X32.926 Y32.622 Z1.495 F1800.000 
G1 X33.280 Y32.973 Z1.477 F1800.000 
G1 X33.634 Y33.323 Z1.453 F1800.000 
G1 X33.988 Y33.674 Z1.425 F1800.000 
G1 X34.342 Y34.025 Z1.393 F1800.000 
G1 X34.696 Y34.376 Z1.356 F1800.000 
G1 X35.050 Y34.727 Z1.315 F1800.000 
G1 X35.404 Y35.077 Z1.271 F1800.000 
G1 X35.758 Y35.428 Z1.223 F1800.000 
G1 X36.112 Y35.779 Z1.171 F1800.000 
G1 X36.466 Y36.130 Z1.117 F1800.000 
G1 X36.820 Y36.480 Z1.059 F1800.000 
G1 X37.174 Y36.831 Z0.999 F1800.000 
G1 X37.528 Y37.182 Z0.937 F1800.000 
G1 X37.882 Y37.533 Z0.873 F1800.000 
G1 X38.236 Y37.884 Z0.807 F1800.000 
G1 X38.590 Y38.234 Z0.740 F1800.000 
G1 X38.944 Y38.585 Z0.673 F1800.000 
G1 X39.298 Y38.936 Z0.604 F1800.000 
G1 X39.652 Y39.287 Z0.536 F1800.000 
G1 X40.006 Y39.637 Z0.468 F1800.000 
G1 X40.361 Y39.988 Z0.400 F1800.000 
G1 X40.715 Y40.339 Z0.333 F1800.000 
G1 X41.069 Y40.690 Z0.267 F1800.000 
G1 X41.423 Y41.040 Z0.203 F1800.000 
G1 X41.777 Y41.391 Z0.140 F1800.000 
G1 X42.131 Y41.742 Z0.130 F1800.000 
G1 X42.485 Y42.093 Z0.130 F1800.000 
G1 X42.839 Y42.444 Z0.130 F1800.000 
G1 X43.193 Y42.794 Z0.130 F1800.000 
G1 X43.547 Y43.145 Z0.130 F1800.000 
G1 X43.901 Y43.496 Z0.130 F1800.000 
G1 X44.255 Y43.847 Z0.130 F1800.000 
G1 X44.609 Y44.197 Z0.130 F1800.000 
