; generated by PrusaSlicer 2.9.1 on 2025-05-18 at 09:40:59 UTC

; v1.0.0

; external perimeters extrusion width = 0.42mm
; perimeters extrusion width = 0.44mm
; infill extrusion width = 0.44mm
; solid infill extrusion width = 0.44mm
; top infill extrusion width = 0.40mm
; support material extrusion width = 0.35mm
; first layer extrusion width = 0.42mm

M190 S60 ; set bed temperature and wait for it to be reached
M104 S220 ; set temperature
;TYPE:Custom
G28 ; home all axes
G1 Z0.28 F5000
M109 S220 ; set temperature and wait for it to be reached
G21 ; set units to millimeters
G90 ; use absolute coordinates
M83 ; use relative distances for extrusion
; Filament gcode
M107
;LAYER_CHANGE
;Z:0.15
;HEIGHT:0.15
G1 E-2 F2100
G1 Z.35 F1800
G1 X81.966 Y91.812 F15000
G1 Z.15 F1800
G1 E2 F2100
;TYPE:Skirt/Brim
;WIDTH:0.42
G1 F1080
G1 X94.598 Y82.601 E.36675
G1 X96.348 Y82.03 E.04318
G1 X126.348 Y82.03 E.70378
G1 X128.105 Y82.606 E.04338
G1 X138.166 Y89.99 E.29277
G1 X139.124 Y91.18 E.03584
G1 X139.299 Y93.066 E.04443
G1 X129.238 Y135.682 E1.02723
G1 X128.516 Y137.029 E.03585
G1 X127.22 Y137.839 E.03585
G1 X126.348 Y137.97 E.02069
G1 X96.348 Y137.97 E.70378
G1 X94.871 Y137.576 E.03586
G1 X93.511 Y135.879 E.05102
G1 X80.879 Y95.09 E1.00172
G1 X80.817 Y93.563 E.03585
G1 X81.933 Y91.862 E.04773
M204 T2500
G1 X82.194 Y92.125 F15000
G1 F1080
G1 X94.827 Y82.914 E.36677
G1 X96.348 Y82.418 E.03753
G1 X126.348 Y82.418 E.70378
G1 X127.875 Y82.919 E.0377
G1 X137.936 Y90.302 E.29276
G1 X138.807 Y91.428 E.0334
G1 X138.921 Y92.977 E.03644
G1 X128.86 Y135.593 E1.02723
G1 X128.164 Y136.834 E.03338
G1 X126.348 Y137.582 E.04607
G1 X96.348 Y137.582 E.70378
G1 X94.98 Y137.189 E.03339
G1 X93.882 Y135.764 E.0422
G1 X81.249 Y94.975 E1.00173
G1 X81.219 Y93.552 E.03339
G1 X82.16 Y92.175 E.03913
G1 X82.423 Y92.438 F15000
G1 F1080
G1 X95.055 Y83.227 E.36675
G1 X96.348 Y82.806 E.0319
G1 X126.348 Y82.806 E.70378
G1 X127.646 Y83.231 E.03204
G1 X137.707 Y90.615 E.29277
G1 X138.483 Y91.669 E.0307
G1 X138.544 Y92.888 E.02863
G1 X128.483 Y135.504 E1.02723
G1 X127.815 Y136.631 E.03073
G1 X126.348 Y137.194 E.03686
G1 X96.348 Y137.194 E.70378
G1 X95.098 Y136.803 E.03073
G1 X94.252 Y135.649 E.03357
G1 X81.62 Y94.86 E1.00172
G1 X81.623 Y93.55 E.03073
G1 X82.388 Y92.487 E.03072
;WIPE_START
G1 F12000
G1 X82.423 Y92.438 E-.01001
G1 X92.095 Y85.386 E-1.98999
;WIPE_END
G1 Z.35 F1800
G1 X110.842 Y100.988 F15000
G1 Z.15 F1800
G1 E2 F2100
;TYPE:Perimeter
;WIDTH:0.419999
G1 F1080
G1 X110.946 Y101.033 E.00266
G1 X111.175 Y101.246 E.00734
G1 X111.272 Y101.4 E.00427
G1 X115.788 Y110.274 E.23358
G1 X115.879 Y110.546 E.00673
G1 X115.879 Y110.881 E.00786
G1 X115.762 Y111.2 E.00797
G1 X115.609 Y111.399 E.00589
G1 X108.565 Y118.436 E.23358
G1 X108.298 Y118.624 E.00766
G1 X107.957 Y118.716 E.00829
G1 X107.601 Y118.678 E.0084
G1 X106.949 Y118.363 E.01699
G1 X98.57 Y114.089 E.22066
G1 X98.309 Y113.894 E.00764
G1 X98.116 Y113.599 E.00827
G1 X98.042 Y113.247 E.00844
G1 X98.053 Y113.073 E.00409
G1 X99.616 Y103.24 E.23357
G1 X99.728 Y102.918 E.008
G1 X99.968 Y102.635 E.0087
G1 X100.264 Y102.473 E.00792
G1 X100.655 Y102.398 E.00934
G1 X110.257 Y100.882 E.22805
G1 X110.623 Y100.894 E.00859
G1 X110.786 Y100.964 E.00416
G1 X110.666 Y101.337 F15000
G1 F1080
G1 X110.838 Y101.448 E.0048
G1 X110.927 Y101.576 E.00366
G1 X115.442 Y110.45 E.23357
G1 X115.505 Y110.713 E.00634
G1 X115.462 Y110.933 E.00526
G1 X115.335 Y111.125 E.0054
G1 X108.291 Y118.161 E.23356
G1 X108.083 Y118.295 E.0058
G1 X107.818 Y118.328 E.00626
G1 X107.615 Y118.268 E.00497
G1 X98.746 Y113.743 E.23358
G1 X98.525 Y113.544 E.00698
G1 X98.434 Y113.298 E.00615
G1 X98.436 Y113.134 E.00385
G1 X99.999 Y103.301 E.23357
G1 X100.1 Y103.054 E.00626
G1 X100.317 Y102.87 E.00667
G1 X100.715 Y102.781 E.00957
G1 X110.318 Y101.265 E.22807
G1 X110.59 Y101.287 E.0064
G1 X110.616 Y101.304 E.00073
G1 X110.488 Y101.677 F15000
;TYPE:External perimeter
G1 F540
G1 X110.529 Y101.688 E.001
G1 X110.581 Y101.752 E.00193
G1 X115.097 Y110.625 E.23356
G1 X115.103 Y110.787 E.0038
G1 X115.061 Y110.851 E.0018
G1 X108.017 Y117.887 E.23356
G1 X107.877 Y117.944 E.00355
G1 X107.301 Y117.672 E.01494
G1 X98.923 Y113.398 E.22064
G1 X98.821 Y113.265 E.00393
G1 X98.819 Y113.195 E.00164
G1 X100.382 Y103.362 E.23357
G1 X100.466 Y103.23 E.00367
G1 X100.776 Y103.164 E.00744
G1 X110.378 Y101.648 E.22805
G1 X110.43 Y101.662 E.00126
G1 E-2 F2100
G1 Z.35 F1800
G1 X125.411 Y97.469 F15000
G1 Z.15 F1800
G1 E2 F2100
;TYPE:Perimeter
G1 F1080
G1 X125.315 Y97.635 E.0045
G1 X125.262 Y97.95 E.00749
G1 X125.262 Y133.914 E.84369
G1 X97.148 Y133.914 E.65953
G1 X84.982 Y94.631 E.96473
G1 X96.702 Y86.086 E.34026
G1 X125.992 Y86.086 E.68712
G1 X127.457 Y87.161 E.04263
G1 X134.406 Y92.261 E.20221
G1 X125.758 Y97.104 E.23252
G1 X125.501 Y97.314 E.00779
G1 X125.441 Y97.417 E.0028
G1 X125.734 Y97.654 F15000
G1 F1080
G1 X125.725 Y97.665 E.00033
G1 X125.65 Y97.95 E.00691
G1 X125.65 Y134.302 E.85279
G1 X96.862 Y134.302 E.67535
G1 X84.529 Y94.481 E.97795
G1 X96.575 Y85.698 E.34973
G1 X126.119 Y85.698 E.69308
G1 X127.687 Y86.848 E.04562
G1 X135.122 Y92.305 E.21636
G1 X125.947 Y97.443 E.24669
G1 X125.889 Y97.48 E.00161
G1 X125.774 Y97.609 E.00405
G1 X126.077 Y97.86 F15000
;TYPE:External perimeter
G1 F540
G1 X126.038 Y97.95 E.0023
G1 X126.038 Y134.69 E.86189
G1 X96.576 Y134.69 E.69116
G1 X84.077 Y94.331 E.99116
G1 X96.449 Y85.31 E.3592
G1 X126.246 Y85.31 E.69902
G1 X127.916 Y86.535 E.04859
G1 X135.837 Y92.348 E.23049
G1 X126.137 Y97.781 E.26082
G1 X126.102 Y97.806 E.00101
G1 E-2 F2100
G1 Z.35 F1800
G1 X131.221 Y90.067 F15000
G1 Z.15 F1800
G1 E2 F2100
;TYPE:Solid infill
;WIDTH:0.420731
G1 F360
G1 X133.557 Y92.403 E.07765
G1 X133.205 Y92.6 E.00948
G1 X129.969 Y89.365 E.10755
G1 X127.904 Y87.85 E.0602
G1 X132.852 Y92.798 E.16447
G1 X132.5 Y92.995 E.00948
G1 X125.882 Y86.376 E.21999
G1 X125.332 Y86.376 E.01293
G1 X132.148 Y93.192 E.22656
G1 X131.796 Y93.389 E.00948
G1 X124.783 Y86.376 E.23311
G1 X124.233 Y86.376 E.01293
G1 X131.444 Y93.587 E.23969
G1 X131.091 Y93.784 E.0095
G1 X123.684 Y86.376 E.24622
G1 X123.134 Y86.376 E.01293
G1 X130.739 Y93.981 E.25278
G1 X130.387 Y94.179 E.00949
G1 X122.585 Y86.376 E.25935
G1 X122.035 Y86.376 E.01293
G1 X130.035 Y94.376 E.26591
G1 X129.682 Y94.573 E.0095
G1 X121.486 Y86.376 E.27244
G1 X120.936 Y86.376 E.01293
G1 X129.33 Y94.77 E.27901
G1 X128.978 Y94.968 E.00949
G1 X120.387 Y86.376 E.28557
G1 X119.837 Y86.376 E.01293
G1 X128.626 Y95.165 E.29214
G1 X128.274 Y95.362 E.00948
G1 X119.288 Y86.376 E.29869
G1 X118.738 Y86.376 E.01293
G1 X127.921 Y95.559 E.30523
G1 X127.569 Y95.757 E.00949
G1 X118.189 Y86.376 E.3118
G1 X117.639 Y86.376 E.01293
G1 X127.217 Y95.954 E.31836
G1 X126.865 Y96.151 E.00948
G1 X117.09 Y86.376 E.32491
G1 X116.541 Y86.376 E.0129
G1 X126.513 Y96.348 E.33146
G1 X126.16 Y96.546 E.00951
G1 X115.991 Y86.376 E.33802
G1 X115.442 Y86.376 E.0129
G1 X125.808 Y96.743 E.34457
G1 X125.471 Y96.955 E.00936
G1 X114.892 Y86.376 E.35164
G1 X114.343 Y86.376 E.0129
G1 X125.197 Y97.231 E.36079
G1 X125.079 Y97.438 E.0056
G1 X125.027 Y97.61 E.00422
G1 X113.793 Y86.376 E.37341
G1 X113.244 Y86.376 E.0129
G1 X124.971 Y98.104 E.38981
G1 X124.971 Y98.654 E.01293
G1 X112.694 Y86.376 E.40809
G1 X112.145 Y86.376 E.0129
G1 X124.971 Y99.203 E.42634
G1 X124.971 Y99.753 E.01293
G1 X111.595 Y86.376 E.44462
G1 X111.046 Y86.376 E.0129
G1 X124.971 Y100.302 E.46287
G1 X124.971 Y100.852 E.01293
G1 X110.496 Y86.376 E.48115
G1 X109.947 Y86.376 E.0129
G1 X124.971 Y101.401 E.4994
G1 X124.971 Y101.951 E.01293
G1 X109.397 Y86.376 E.51768
G1 X108.848 Y86.376 E.0129
G1 X124.971 Y102.5 E.53593
G1 X124.971 Y103.049 E.0129
G1 X108.298 Y86.376 E.5542
G1 X107.749 Y86.376 E.0129
G1 X124.971 Y103.599 E.57246
G1 X124.971 Y104.148 E.0129
G1 X107.199 Y86.376 E.59072
G1 X106.65 Y86.376 E.0129
G1 X124.971 Y104.698 E.60899
G1 X124.971 Y105.247 E.0129
G1 X106.1 Y86.376 E.62725
G1 X105.551 Y86.376 E.0129
G1 X124.971 Y105.797 E.64552
G1 X124.971 Y106.346 E.0129
G1 X105.001 Y86.376 E.66378
G1 X104.452 Y86.376 E.0129
G1 X124.971 Y106.896 E.68205
G1 X124.971 Y107.445 E.0129
G1 X103.902 Y86.376 E.70031
G1 X103.353 Y86.376 E.0129
G1 X124.971 Y107.995 E.71858
G1 X124.971 Y108.544 E.0129
G1 X102.804 Y86.376 E.73683
G1 X102.254 Y86.376 E.01293
G1 X124.971 Y109.094 E.75511
G1 X124.971 Y109.643 E.0129
G1 X101.705 Y86.376 E.77336
G1 X101.155 Y86.376 E.01293
G1 X124.971 Y110.193 E.79164
G1 X124.971 Y110.742 E.0129
G1 X100.606 Y86.376 E.80989
G1 X100.056 Y86.376 E.01293
G1 X124.971 Y111.292 E.82817
G1 X124.971 Y111.841 E.0129
G1 X99.507 Y86.376 E.84642
G1 X98.957 Y86.376 E.01293
G1 X124.971 Y112.391 E.8647
G1 X124.971 Y112.94 E.0129
G1 X98.408 Y86.376 E.88295
G1 X97.858 Y86.376 E.01293
G1 X124.971 Y113.49 E.90123
G1 X124.971 Y114.039 E.0129
G1 X97.309 Y86.376 E.91948
G1 X96.796 Y86.376 E.01206
G1 X96.775 Y86.392 E.00062
G1 X124.971 Y114.589 E.93723
G1 X124.971 Y115.138 E.0129
G1 X111.977 Y102.144 E.43191
G1 X111.523 Y101.252 E.02352
G1 X111.405 Y101.068 E.00514
G1 X111.273 Y100.922 E.00463
G1 X111.012 Y100.733 E.00757
G1 X110.688 Y100.61 E.00815
G1 X110.421 Y100.588 E.0063
G1 X96.457 Y86.624 E.46415
G1 X96.139 Y86.856 E.00925
G1 X109.928 Y100.645 E.45833
G1 X109.454 Y100.719 E.01128
G1 X95.822 Y87.087 E.45312
G1 X95.504 Y87.319 E.00925
G1 X108.979 Y100.794 E.4479
G1 X108.504 Y100.869 E.0113
G1 X95.186 Y87.551 E.44268
G1 X94.868 Y87.782 E.00924
G1 X108.029 Y100.943 E.43746
G1 X107.554 Y101.018 E.0113
G1 X94.55 Y88.014 E.43224
G1 X94.233 Y88.246 E.00923
G1 X107.08 Y101.093 E.42702
G1 X106.605 Y101.167 E.0113
G1 X93.915 Y88.477 E.4218
G1 X93.597 Y88.709 E.00925
G1 X106.13 Y101.242 E.41659
G1 X105.655 Y101.317 E.0113
G1 X93.279 Y88.941 E.41137
G1 X92.962 Y89.173 E.00923
G1 X105.18 Y101.391 E.40611
G1 X104.706 Y101.466 E.01128
G1 X92.644 Y89.404 E.40093
G1 X92.326 Y89.636 E.00925
G1 X104.231 Y101.541 E.39571
G1 X103.756 Y101.615 E.0113
G1 X92.008 Y89.868 E.39048
G1 X91.69 Y90.099 E.00924
G1 X103.281 Y101.69 E.38527
G1 X102.806 Y101.765 E.0113
G1 X91.373 Y90.331 E.38004
G1 X91.055 Y90.563 E.00925
G1 X102.332 Y101.84 E.37484
G1 X101.857 Y101.914 E.0113
G1 X90.737 Y90.795 E.3696
G1 X90.419 Y91.026 E.00924
G1 X101.382 Y101.989 E.3644
G1 X100.907 Y102.064 E.0113
G1 X90.102 Y91.258 E.35916
G1 X89.784 Y91.49 E.00925
G1 X100.432 Y102.138 E.35393
G1 X100.171 Y102.197 E.00629
G1 X100.01 Y102.265 E.00411
G1 X89.466 Y91.721 E.35047
G1 X89.148 Y91.953 E.00925
G1 X99.69 Y102.495 E.35041
G1 X99.458 Y102.812 E.00923
G1 X88.831 Y92.185 E.35323
G1 X88.513 Y92.416 E.00924
G1 X99.324 Y103.227 E.35935
G1 X99.248 Y103.701 E.01128
G1 X88.195 Y92.648 E.36739
G1 X87.877 Y92.88 E.00925
G1 X99.173 Y104.176 E.37547
G1 X99.098 Y104.65 E.01128
G1 X87.559 Y93.112 E.38353
G1 X87.242 Y93.343 E.00922
G1 X99.022 Y105.124 E.39157
G1 X98.947 Y105.598 E.01128
G1 X86.924 Y93.575 E.39963
G1 X86.606 Y93.807 E.00925
G1 X98.872 Y106.072 E.40769
G1 X98.796 Y106.546 E.01128
G1 X86.288 Y94.038 E.41575
G1 X85.971 Y94.27 E.00923
G1 X98.721 Y107.02 E.4238
G1 X98.645 Y107.494 E.01128
G1 X85.653 Y94.502 E.43184
G1 X85.335 Y94.734 E.00925
G1 X98.57 Y107.969 E.43992
G1 X98.495 Y108.443 E.01128
G1 X85.557 Y95.505 E.43005
G1 X85.804 Y96.301 E.01959
G1 X98.419 Y108.917 E.41933
G1 X98.344 Y109.391 E.01128
G1 X86.05 Y97.097 E.40864
G1 X86.297 Y97.893 E.01959
G1 X98.269 Y109.865 E.39794
G1 X98.193 Y110.339 E.01128
G1 X86.543 Y98.689 E.38724
G1 X86.79 Y99.485 E.01959
G1 X98.118 Y110.813 E.37653
G1 X98.043 Y111.287 E.01128
G1 X87.036 Y100.281 E.36585
G1 X87.283 Y101.077 E.01959
G1 X97.967 Y111.762 E.35514
G1 X97.892 Y112.236 E.01128
G1 X87.529 Y101.873 E.34446
G1 X87.776 Y102.669 E.01959
G1 X97.817 Y112.71 E.33375
G1 X97.765 Y113.034 E.00771
G1 X97.762 Y113.205 E.00402
G1 X87.758 Y103.2 E.33254
G1 E-2 F2100
G1 Z.35 F1800
G1 X87.165 Y103.384 F15000
G1 X110.67 Y101.327
G1 X111.422 Y102.805
G1 X111.595 Y103.145
G1 X112.148 Y102.864
G1 Z.15 F1800
G1 E2 F2100
G1 F360
G1 X124.971 Y115.688 E.42624
G1 X124.971 Y116.237 E.0129
G1 X113.116 Y104.382 E.39405
G1 X113.685 Y105.5 E.02948
G1 X124.971 Y116.786 E.37514
G1 X124.971 Y117.336 E.01293
G1 X114.255 Y106.619 E.35621
G1 X114.824 Y107.738 E.02951
G1 X124.971 Y117.885 E.33728
G1 X124.971 Y118.435 E.01293
G1 X115.393 Y108.857 E.31836
G1 X115.962 Y109.976 E.02951
G1 X124.971 Y118.984 E.29943
G1 X124.971 Y119.534 E.01293
G1 X116.182 Y110.744 E.29215
G1 X116.165 Y110.932 E.00444
G1 X116.087 Y111.199 E.00654
G1 X124.971 Y120.083 E.2953
G1 X124.971 Y120.633 E.01293
G1 X115.871 Y111.533 E.30248
G1 X115.604 Y111.815 E.00913
G1 X124.971 Y121.182 E.31135
G1 X124.971 Y121.732 E.01293
G1 X115.329 Y112.09 E.32049
G1 X115.054 Y112.364 E.00912
G1 X124.971 Y122.281 E.32963
G1 X124.971 Y122.831 E.01293
G1 X114.78 Y112.639 E.33876
G1 X114.505 Y112.914 E.00914
G1 X124.971 Y123.38 E.34788
G1 X124.971 Y123.93 E.01293
G1 X114.23 Y113.188 E.35704
G1 X113.955 Y113.463 E.00914
G1 X124.971 Y124.479 E.36616
G1 X124.971 Y125.029 E.01293
G1 X113.68 Y113.737 E.37532
G1 X113.405 Y114.012 E.00914
G1 X124.971 Y125.578 E.38444
G1 X124.971 Y126.128 E.01293
G1 X113.13 Y114.287 E.39358
G1 X112.855 Y114.561 E.00912
G1 X124.971 Y126.677 E.40272
G1 X124.971 Y127.227 E.01293
G1 X112.58 Y114.836 E.41187
G1 X112.306 Y115.11 E.00911
G1 X124.971 Y127.776 E.42099
G1 X124.971 Y128.326 E.01293
G1 X112.031 Y115.385 E.43013
G1 X111.756 Y115.659 E.00912
G1 X124.971 Y128.875 E.43927
G1 X124.971 Y129.425 E.01293
G1 X111.481 Y115.934 E.44841
G1 X111.206 Y116.209 E.00914
G1 X124.971 Y129.974 E.45754
G1 X124.971 Y130.523 E.0129
G1 X110.931 Y116.483 E.46668
G1 X110.656 Y116.758 E.00914
G1 X124.971 Y131.073 E.47582
G1 X124.971 Y131.622 E.0129
G1 X110.381 Y117.032 E.48496
G1 X110.106 Y117.307 E.00914
G1 X124.971 Y132.172 E.4941
G1 X124.971 Y132.721 E.0129
G1 X109.832 Y117.582 E.50321
G1 X109.557 Y117.856 E.00912
G1 X124.971 Y133.271 E.51236
G1 X124.971 Y133.624 E.0083
G1 X124.774 Y133.624 E.00463
G1 X109.282 Y118.131 E.51496
G1 X109.007 Y118.405 E.00912
G1 X124.225 Y133.624 E.50585
G1 X123.676 Y133.624 E.0129
G1 X108.728 Y118.676 E.49686
G1 X108.522 Y118.836 E.00613
G1 X108.393 Y118.89 E.00329
G1 X123.126 Y133.624 E.48973
G1 X122.577 Y133.624 E.0129
G1 X107.959 Y119.006 E.48589
G1 X107.661 Y118.992 E.00701
G1 X107.244 Y118.841 E.01042
G1 X122.027 Y133.624 E.49137
G1 X121.478 Y133.624 E.0129
G1 X106.122 Y118.268 E.51042
G1 X105 Y117.696 E.0296
G1 X120.928 Y133.624 E.52943
G1 X120.379 Y133.624 E.0129
G1 X103.879 Y117.123 E.54846
G1 X102.757 Y116.551 E.0296
G1 X119.829 Y133.624 E.56747
G1 X119.28 Y133.624 E.0129
G1 X101.635 Y115.979 E.5865
G1 X100.513 Y115.406 E.02961
G1 X118.73 Y133.624 E.60553
G1 X118.181 Y133.624 E.0129
G1 X98.991 Y114.434 E.63786
G1 E-2 F2100
G1 Z.35 F1800
G1 X88.004 Y103.996 F15000
G1 Z.15 F1800
G1 E2 F2100
G1 F360
G1 X117.631 Y133.624 E.98479
G1 X117.082 Y133.624 E.0129
G1 X88.515 Y105.057 E.94954
G1 X88.762 Y105.853 E.01959
G1 X116.532 Y133.624 E.92307
G1 X115.983 Y133.624 E.0129
G1 X89.008 Y106.649 E.89662
G1 X89.255 Y107.445 E.01959
G1 X115.433 Y133.624 E.87015
G1 X114.884 Y133.624 E.0129
G1 X89.501 Y108.241 E.84371
G1 X89.748 Y109.037 E.01959
G1 X114.334 Y133.624 E.81723
G1 X113.785 Y133.624 E.0129
G1 X89.994 Y109.833 E.79079
G1 X90.241 Y110.629 E.01959
G1 X113.235 Y133.624 E.76432
G1 X112.686 Y133.624 E.0129
G1 X90.488 Y111.425 E.73786
G1 X90.734 Y112.221 E.01958
G1 X112.136 Y133.624 E.7114
G1 X111.587 Y133.624 E.0129
G1 X90.981 Y113.017 E.68494
G1 X91.227 Y113.813 E.01958
G1 X111.037 Y133.624 E.65848
G1 X110.488 Y133.624 E.0129
G1 X91.474 Y114.609 E.63202
G1 X91.72 Y115.405 E.01958
G1 X109.939 Y133.624 E.60558
G1 X109.389 Y133.624 E.01293
G1 X91.967 Y116.201 E.57911
G1 X92.213 Y116.997 E.01958
G1 X108.84 Y133.624 E.55267
G1 X108.29 Y133.624 E.01293
G1 X92.46 Y117.793 E.52619
G1 X92.706 Y118.589 E.01958
G1 X107.741 Y133.624 E.49975
G1 X107.191 Y133.624 E.01293
G1 X92.953 Y119.385 E.47327
G1 X93.199 Y120.181 E.01958
G1 X106.642 Y133.624 E.44683
G1 X106.092 Y133.624 E.01293
G1 X93.446 Y120.977 E.42036
G1 X93.692 Y121.773 E.01958
G1 X105.543 Y133.624 E.39392
G1 X104.993 Y133.624 E.01293
G1 X93.939 Y122.569 E.36744
G1 X94.185 Y123.365 E.01958
G1 X104.444 Y133.624 E.341
