; generated by PrusaSlicer 2.9.1 on 2025-05-18 at 09:21:19 UTC

; v1.0.0

; external perimeters extrusion width = 0.42mm
; perimeters extrusion width = 0.44mm
; infill extrusion width = 0.44mm
; solid infill extrusion width = 0.44mm
; top infill extrusion width = 0.40mm
; support material extrusion width = 0.35mm
; first layer extrusion width = 0.42mm

M190 S60 ; set bed temperature and wait for it to be reached
M104 S220 ; set temperature
;TYPE:Custom
G28 ; home all axes
G1 Z0.28 F5000
M109 S220 ; set temperature and wait for it to be reached
G21 ; set units to millimeters
G90 ; use absolute coordinates
M83 ; use relative distances for extrusion
; Filament gcode
M107
;LAYER_CHANGE
;Z:0.15
;HEIGHT:0.15
G1 E-2 F2100
G1 Z.35 F1800
G1 X91.929 Y96.8 F15000
G1 Z.15 F1800
G1 E2 F2100
;TYPE:Skirt/Brim
;WIDTH:0.42
G1 F1080
G1 X93.171 Y95.855 E.03661
G1 X94.573 Y95.17 E.03661
G1 X115.575 Y89.594 E.50976
G1 X117.017 Y89.414 E.03409
G1 X118.208 Y89.474 E.02798
G1 X119.145 Y89.623 E.02226
G1 X120.083 Y89.908 E.023
G1 X121.485 Y90.593 E.03661
G1 X121.969 Y90.916 E.01365
G1 X123.139 Y91.95 E.03663
G1 X123.76 Y92.707 E.02297
G1 X124.546 Y94.056 E.03663
G1 X124.769 Y94.594 E.01366
G1 X130.424 Y115.584 E.50997
G1 X130.607 Y117.037 E.03436
G1 X130.511 Y118.594 E.0366
G1 X130.113 Y120.103 E.03661
G1 X129.89 Y120.641 E.01366
G1 X129.104 Y121.989 E.03661
G1 X128.071 Y123.159 E.03661
G1 X126.829 Y124.104 E.03661
G1 X125.965 Y124.566 E.02298
G1 X124.489 Y125.073 E.03661
G1 X104.388 Y130.405 E.48786
G1 X102.943 Y130.586 E.03416
G1 X101.385 Y130.49 E.03662
G1 X100.814 Y130.377 E.01366
G1 X99.338 Y129.869 E.03662
G1 X97.99 Y129.084 E.03659
G1 X96.821 Y128.05 E.03661
G1 X96.199 Y127.293 E.02298
G1 X95.413 Y125.944 E.03663
G1 X94.906 Y124.468 E.03661
G1 X89.574 Y104.368 E.48784
G1 X89.393 Y102.922 E.03419
G1 X89.489 Y101.364 E.03662
G1 X89.781 Y100.207 E.02799
G1 X90.11 Y99.318 E.02224
G1 X90.896 Y97.969 E.03663
G1 X91.889 Y96.845 E.03518
M204 T2500
G1 X92.175 Y97.1 F15000
G1 F1080
G1 X93.353 Y96.197 E.03482
G1 X94.685 Y95.541 E.03483
G1 X115.674 Y89.969 E.50944
G1 X117.055 Y89.8 E.03264
G1 X118.17 Y89.86 E.0262
G1 X119.032 Y89.995 E.02047
G1 X119.97 Y90.279 E.02299
G1 X121.723 Y91.216 E.04663
G1 X122.481 Y91.838 E.023
G1 X123.461 Y92.953 E.03482
G1 X124.398 Y94.706 E.04663
G1 X130.049 Y115.684 E.50967
G1 X130.221 Y117.075 E.03288
G1 X130.125 Y118.556 E.03482
G1 X129.548 Y120.458 E.04663
G1 X128.805 Y121.743 E.03482
G1 X127.825 Y122.859 E.03484
G1 X126.647 Y123.762 E.03482
G1 X125.782 Y124.224 E.02301
G1 X124.377 Y124.702 E.03482
G1 X104.289 Y130.03 E.48755
G1 X102.905 Y130.2 E.03271
G1 X101.423 Y130.104 E.03484
G1 X99.521 Y129.527 E.04663
G1 X98.236 Y128.784 E.03482
G1 X97.12 Y127.804 E.03484
G1 X96.499 Y127.047 E.02297
G1 X95.755 Y125.761 E.03485
G1 X95.277 Y124.356 E.03482
G1 X89.949 Y104.268 E.48755
G1 X89.779 Y102.884 E.03271
G1 X89.875 Y101.402 E.03484
G1 X90.452 Y99.501 E.04661
G1 X91.195 Y98.215 E.03484
G1 X92.135 Y97.145 E.03341
G1 X92.421 Y97.4 F15000
G1 F1080
G1 X93.536 Y96.539 E.03305
G1 X94.798 Y95.912 E.03306
G1 X115.773 Y90.344 E.5091
G1 X117.093 Y90.186 E.03119
G1 X118.132 Y90.246 E.02441
G1 X118.92 Y90.366 E.0187
G1 X119.858 Y90.65 E.02299
G1 X121.477 Y91.516 E.04307
G1 X122.539 Y92.442 E.03305
G1 X123.161 Y93.199 E.02298
G1 X124.026 Y94.819 E.04308
G1 X129.675 Y115.785 E.50939
G1 X129.835 Y117.113 E.03138
G1 X129.739 Y118.518 E.03304
G1 X129.206 Y120.275 E.04307
G1 X128.505 Y121.497 E.03305
G1 X127.579 Y122.559 E.03305
G1 X126.464 Y123.42 E.03305
G1 X125.599 Y123.882 E.02301
G1 X124.264 Y124.331 E.03304
G1 X104.189 Y129.656 E.48723
G1 X102.867 Y129.814 E.03123
G1 X101.461 Y129.718 E.03306
G1 X99.704 Y129.185 E.04307
G1 X98.482 Y128.484 E.03305
G1 X97.42 Y127.558 E.03305
G1 X96.798 Y126.801 E.02298
G1 X96.097 Y125.579 E.03305
G1 X95.648 Y124.243 E.03306
G1 X90.324 Y104.169 E.4872
G1 X90.165 Y102.846 E.03126
G1 X90.261 Y101.44 E.03306
G1 X90.794 Y99.683 E.04307
G1 X91.495 Y98.461 E.03305
G1 X92.382 Y97.445 E.03164
;WIPE_START
G1 F12000
G1 X92.421 Y97.4 E-.0099
G1 X93.536 Y96.539 E-.2342
G1 X94.798 Y95.912 E-.23428
G1 X103.644 Y93.564 E-1.52162
;WIPE_END
G1 Z.35 F1800
G1 X101.062 Y118.198 F15000
G1 Z.15 F1800
G1 E2 F2100
;TYPE:External perimeter
;WIDTH:0.419999
G1 F540
G1 X100.641 Y118.242 E.00993
G1 X100.562 Y118.21 E.002
;WIDTH:0.407897
G1 X100.53 Y118.129 E.00198
;WIDTH:0.38074
G1 X100.498 Y118.049 E.00182
;WIDTH:0.353583
G1 X100.498 Y106.829 E.21814
;WIDTH:0.386791
G1 X100.471 Y106.58 E.00537
;WIDTH:0.419999
G1 X100.443 Y106.331 E.00588
G1 X100.485 Y106.202 E.00318
G1 X101.246 Y105.238 E.02881
G1 X101.68 Y104.425 E.02162
G1 X101.947 Y103.546 E.02155
G1 X102.037 Y102.631 E.02157
G1 X101.948 Y101.709 E.02173
G1 X101.783 Y101.058 E.01575
G1 X101.738 Y100.621 E.01031
G1 X101.77 Y100.543 E.00198
;WIDTH:0.408025
G1 X101.85 Y100.51 E.00197
;WIDTH:0.381053
G1 X101.931 Y100.478 E.00184
;WIDTH:0.354081
G1 X113.08 Y100.478 E.21709
;WIDTH:0.38704
G1 X113.371 Y100.461 E.00626
;WIDTH:0.419999
G1 X113.662 Y100.444 E.00684
G1 X114.699 Y101.266 E.03104
G1 X115.513 Y101.701 E.02165
G1 X116.393 Y101.967 E.02157
G1 X117.308 Y102.058 E.02157
G1 X118.229 Y101.97 E.0217
G1 X119.261 Y101.732 E.02485
G1 X119.444 Y101.754 E.00432
;WIDTH:0.413538
G1 X119.473 Y101.834 E.00196
;WIDTH:0.383809
G1 X119.501 Y101.914 E.0018
;WIDTH:0.354082
G1 X119.501 Y113.131 E.21842
;WIDTH:0.387041
G1 X119.529 Y113.38 E.00538
;WIDTH:0.419999
G1 X119.556 Y113.629 E.00588
G1 X119.515 Y113.757 E.00315
G1 X118.754 Y114.72 E.02879
G1 X118.32 Y115.533 E.02162
G1 X118.053 Y116.413 E.02157
G1 X117.963 Y117.328 E.02157
G1 X118.052 Y118.249 E.02171
G1 X118.217 Y118.901 E.01578
G1 X118.262 Y119.338 E.01031
G1 X118.231 Y119.417 E.00199
;WIDTH:0.407897
G1 X118.15 Y119.449 E.00198
;WIDTH:0.38074
G1 X118.069 Y119.481 E.00184
;WIDTH:0.353583
G1 X106.85 Y119.481 E.21812
;WIDTH:0.386791
G1 X106.601 Y119.508 E.00537
;WIDTH:0.419999
G1 X106.352 Y119.536 E.00588
G1 X106.223 Y119.494 E.00318
G1 X105.259 Y118.734 E.0288
G1 X104.446 Y118.299 E.02163
G1 X103.566 Y118.033 E.02157
G1 X102.651 Y117.942 E.02157
G1 X101.73 Y118.032 E.02171
G1 X101.121 Y118.186 E.01474
G1 E-2 F2100
G1 Z.35 F1800
G1 X101.099 Y118.319 F15000
G1 X106.226 Y119.584
G1 X118.571 Y119.738
G1 X119.109 Y120.076
G1 X119.362 Y120.245
G1 X119.381 Y120.269
G1 X119.477 Y120.386
G1 X119.86 Y120.072
G1 Z.15 F1800
G1 E2 F2100
;TYPE:Perimeter
G1 F270
G1 X119.032 Y119.202 E.02818
G1 X118.969 Y118.71 E.01164
G1 X118.819 Y118.116 E.01437
G1 X118.742 Y117.329 E.01855
G1 X118.818 Y116.565 E.01801
G1 X119.04 Y115.832 E.01797
G1 X119.406 Y115.147 E.01822
G1 X120.232 Y114.06 E.03203
G1 X121.092 Y113.73 E.02161
G1 X121.886 Y113.494 E.01943
G1 X122.652 Y113.419 E.01806
G1 X123.414 Y113.494 E.01796
G1 X124.148 Y113.716 E.01799
G1 X124.823 Y114.077 E.01796
G1 X125.416 Y114.563 E.01799
G1 X125.902 Y115.156 E.01799
G1 X126.263 Y115.832 E.01798
G1 X126.486 Y116.565 E.01797
G1 X126.561 Y117.328 E.01799
G1 X126.523 Y117.709 E.00898
G1 X126.486 Y118.09 E.00898
G1 X126.263 Y118.824 E.018
G1 X125.902 Y119.499 E.01796
G1 X125.416 Y120.092 E.01799
G1 X124.823 Y120.578 E.01799
G1 X124.148 Y120.939 E.01796
G1 X123.414 Y121.162 E.018
G1 X122.652 Y121.237 E.01796
G1 X121.889 Y121.162 E.01799
G1 X121.156 Y120.939 E.01797
G1 X120.479 Y120.577 E.01801
G1 X119.906 Y120.11 E.01734
G1 X118.631 Y119.427 F15000
G1 F270
G1 X118.649 Y119.374 E.00131
G1 X118.593 Y118.806 E.01339
G1 X118.435 Y118.182 E.0151
G1 X118.353 Y117.328 E.02013
G1 X118.435 Y116.489 E.01978
G1 X118.68 Y115.682 E.01978
G1 X119.08 Y114.934 E.0199
G1 X119.852 Y113.951 E.02932
G1 X119.929 Y113.692 E.00634
G1 X120.198 Y113.666 E.00634
G1 X120.966 Y113.363 E.01937
G1 X121.811 Y113.112 E.02068
G1 X122.652 Y113.029 E.01983
G1 X123.49 Y113.111 E.01975
G1 X124.297 Y113.356 E.01978
G1 X125.04 Y113.753 E.01976
G1 X125.691 Y114.288 E.01977
G1 X126.226 Y114.939 E.01977
G1 X126.623 Y115.683 E.01978
G1 X126.868 Y116.489 E.01976
G1 X126.95 Y117.328 E.01978
G1 X126.909 Y117.747 E.00988
G1 X126.868 Y118.166 E.00988
G1 X126.623 Y118.973 E.01978
G1 X126.226 Y119.716 E.01976
G1 X125.691 Y120.367 E.01977
G1 X125.04 Y120.902 E.01977
G1 X124.297 Y121.299 E.01976
G1 X123.49 Y121.544 E.01978
G1 X122.652 Y121.626 E.01975
G1 X121.813 Y121.544 E.01978
G1 X121.007 Y121.299 E.01976
G1 X120.263 Y120.902 E.01978
G1 X119.594 Y120.356 E.02026
G1 X118.784 Y119.499 E.02766
G1 X118.686 Y119.452 E.00255
;WIPE_START
G1 F12000
G1 X118.631 Y119.427 E-.01004
G1 X118.649 Y119.374 E-.00931
G1 X118.593 Y118.806 E-.09489
G1 X118.435 Y118.182 E-.10701
G1 X118.353 Y117.328 E-.14263
G1 X118.435 Y116.489 E-.14015
G1 X118.68 Y115.682 E-.14021
G1 X119.08 Y114.934 E-.14102
G1 X119.852 Y113.951 E-.2078
G1 X119.929 Y113.692 E-.04492
G1 X120.198 Y113.666 E-.04493
G1 X120.966 Y113.363 E-.13726
G1 X121.811 Y113.112 E-.14655
G1 X122.652 Y113.029 E-.1405
G1 X123.49 Y113.111 E-.13998
G1 X124.297 Y113.356 E-.14021
G1 X125.04 Y113.753 E-.14005
G1 X125.377 Y114.03 E-.07254
;WIPE_END
G1 Z.35 F1800
G1 X125.451 Y113.94 F15000
G1 X119.807 Y113.424
G1 X119.517 Y101.612
G1 X118.466 Y101.61
G1 X116.446 Y101.7
G1 X116.296 Y101.654
G1 X116.442 Y101.172
G1 Z.15 F1800
G1 E2 F2100
G1 F270
G1 X115.812 Y100.981 E.01544
G1 X115.122 Y100.612 E.01836
G1 X114.021 Y99.759 E.03267
G1 X113.711 Y98.932 E.02072
G1 X113.474 Y98.135 E.01951
G1 X113.398 Y97.369 E.01806
G1 X113.474 Y96.606 E.01799
G1 X113.696 Y95.873 E.01797
G1 X114.057 Y95.197 E.01798
G1 X114.543 Y94.605 E.01797
G1 X115.136 Y94.119 E.01799
G1 X115.812 Y93.757 E.01799
G1 X116.545 Y93.535 E.01797
G1 X117.308 Y93.46 E.01799
G1 X118.07 Y93.535 E.01796
G1 X118.804 Y93.757 E.01799
G1 X119.479 Y94.119 E.01797
G1 X120.072 Y94.605 E.01799
G1 X120.558 Y95.197 E.01797
G1 X120.919 Y95.873 E.01798
G1 X121.142 Y96.606 E.01797
G1 X121.217 Y97.369 E.01799
G1 X121.142 Y98.132 E.01799
G1 X120.919 Y98.865 E.01797
G1 X120.557 Y99.543 E.01803
G1 X120.181 Y100.004 E.01396
G1 X119.237 Y100.954 E.03142
G1 X118.092 Y101.204 E.02749
G1 X117.309 Y101.278 E.01845
G1 X116.545 Y101.203 E.01801
G1 X116.5 Y101.189 E.00111
G1 X116.141 Y101.486 F15000
G1 F270
G1 X115.662 Y101.341 E.01174
G1 X114.911 Y100.939 E.01998
G1 X113.907 Y100.138 E.03013
G1 X113.648 Y100.056 E.00637
G1 X113.625 Y99.785 E.00638
G1 X113.343 Y99.058 E.01829
G1 X113.092 Y98.21 E.02075
G1 X113.009 Y97.369 E.01983
G1 X113.091 Y96.53 E.01978
G1 X113.336 Y95.724 E.01976
G1 X113.733 Y94.981 E.01976
G1 X114.268 Y94.329 E.01979
G1 X114.919 Y93.795 E.01975
G1 X115.663 Y93.397 E.01979
G1 X116.469 Y93.153 E.01976
G1 X117.308 Y93.07 E.01978
G1 X118.146 Y93.153 E.01976
G1 X118.953 Y93.397 E.01978
G1 X119.696 Y93.795 E.01977
G1 X120.347 Y94.329 E.01975
G1 X120.882 Y94.981 E.01979
G1 X121.279 Y95.724 E.01976
G1 X121.524 Y96.53 E.01976
G1 X121.606 Y97.369 E.01978
G1 X121.524 Y98.208 E.01978
G1 X121.279 Y99.014 E.01976
G1 X120.881 Y99.758 E.01979
G1 X120.482 Y100.249 E.01484
G1 X120.008 Y100.74 E.01601
G1 X119.57 Y101.156 E.01417
G1 X119.462 Y101.37 E.00562
G1 X119.331 Y101.332 E.0032
G1 X119.183 Y101.352 E.0035
G1 X118.161 Y101.587 E.0246
G1 X117.309 Y101.668 E.02008
G1 X116.469 Y101.585 E.0198
G1 X116.199 Y101.503 E.00662
;WIPE_START
G1 F12000
G1 X116.141 Y101.486 E-.01005
G1 X115.662 Y101.341 E-.0832
G1 X114.911 Y100.939 E-.14162
G1 X113.907 Y100.138 E-.21353
G1 X113.648 Y100.056 E-.04517
G1 X113.625 Y99.785 E-.04522
G1 X113.343 Y99.058 E-.12964
G1 X113.092 Y98.21 E-.14703
G1 X113.009 Y97.369 E-.1405
G1 X113.091 Y96.53 E-.14015
G1 X113.336 Y95.724 E-.14005
G1 X113.733 Y94.981 E-.14005
G1 X114.268 Y94.329 E-.14022
G1 X114.919 Y93.795 E-.13998
G1 X115.663 Y93.397 E-.14028
G1 X116.469 Y93.153 E-.14
G1 X116.848 Y93.116 E-.06331
;WIPE_END
G1 Z.35 F1800
G1 X116.837 Y93 F15000
G1 X113.382 Y100.172
G1 X93.531 Y100.451
G1 X98.21 Y106.961
G1 X98.26 Y106.946
G1 X98.114 Y106.465
G1 Z.15 F1800
G1 E2 F2100
G1 F270
G1 X97.348 Y106.54 E.01806
G1 X96.586 Y106.465 E.01796
G1 X95.852 Y106.243 E.01799
G1 X95.177 Y105.881 E.01797
G1 X94.584 Y105.395 E.01799
G1 X94.098 Y104.803 E.01797
G1 X93.737 Y104.127 E.01798
G1 X93.514 Y103.394 E.01797
G1 X93.439 Y102.631 E.01799
G1 X93.514 Y101.868 E.01799
G1 X93.737 Y101.135 E.01797
G1 X94.098 Y100.459 E.01798
G1 X94.584 Y99.867 E.01797
G1 X95.177 Y99.381 E.01799
G1 X95.852 Y99.019 E.01797
G1 X96.586 Y98.797 E.01799
G1 X97.348 Y98.722 E.01796
G1 X98.111 Y98.797 E.01799
G1 X98.844 Y99.019 E.01797
G1 X99.521 Y99.381 E.01801
G1 X100.14 Y99.887 E.01876
G1 X100.968 Y100.757 E.02818
G1 X101.031 Y101.249 E.01164
G1 X101.181 Y101.843 E.01437
G1 X101.258 Y102.63 E.01855
G1 X101.182 Y103.394 E.01801
G1 X100.96 Y104.127 E.01797
G1 X100.594 Y104.812 E.01822
G1 X99.768 Y105.899 E.03203
G1 X98.908 Y106.229 E.02161
G1 X98.171 Y106.448 E.01804
G1 X98.189 Y106.847 F15000
G1 F270
G1 X97.348 Y106.93 E.01983
G1 X96.51 Y106.847 E.01976
G1 X95.703 Y106.603 E.01978
G1 X94.96 Y106.205 E.01977
G1 X94.309 Y105.671 E.01975
G1 X93.774 Y105.019 E.01979
G1 X93.377 Y104.276 E.01976
G1 X93.132 Y103.47 E.01976
G1 X93.05 Y102.631 E.01978
G1 X93.132 Y101.792 E.01978
G1 X93.377 Y100.986 E.01976
G1 X93.774 Y100.243 E.01976
G1 X94.309 Y99.591 E.01979
G1 X94.96 Y99.057 E.01975
G1 X95.703 Y98.659 E.01977
G1 X96.51 Y98.415 E.01978
G1 X97.348 Y98.332 E.01976
G1 X98.187 Y98.415 E.01978
G1 X98.993 Y98.659 E.01976
G1 X99.737 Y99.057 E.01979
G1 X100.406 Y99.603 E.02026
G1 X101.216 Y100.46 E.02766
G1 X101.369 Y100.532 E.00397
G1 X101.352 Y100.586 E.00133
G1 X101.407 Y101.154 E.01339
G1 X101.565 Y101.776 E.01506
G1 X101.647 Y102.63 E.02013
G1 X101.565 Y103.47 E.0198
G1 X101.32 Y104.276 E.01976
G1 X100.92 Y105.025 E.01992
G1 X100.148 Y106.008 E.02932
G1 X100.071 Y106.267 E.00634
G1 X99.802 Y106.292 E.00634
G1 X99.034 Y106.596 E.01938
G1 X98.246 Y106.83 E.01928
;WIPE_START
G1 F12000
G1 X98.189 Y106.847 E-.00989
G1 X97.348 Y106.93 E-.1405
G1 X96.51 Y106.847 E-.14
G1 X95.703 Y106.603 E-.14016
G1 X94.96 Y106.205 E-.14013
G1 X94.309 Y105.671 E-.13998
G1 X93.774 Y105.019 E-.14022
G1 X93.377 Y104.276 E-.14005
G1 X93.132 Y103.47 E-.14005
G1 X93.05 Y102.631 E-.14015
G1 X93.132 Y101.792 E-.14015
G1 X93.377 Y100.986 E-.14005
G1 X93.774 Y100.243 E-.14005
G1 X94.309 Y99.591 E-.14022
G1 X94.96 Y99.057 E-.13998
G1 X95.111 Y98.976 E-.02842
;WIPE_END
G1 Z.35 F1800
G1 X95.056 Y98.874 F15000
G1 X100.192 Y106.535
G1 X100.483 Y118.29
G1 X101.171 Y118.331
G1 X101.291 Y118.352
G1 X101.19 Y118.959
G1 Z.15 F1800
G1 E2 F2100
G1 F270
G1 X101.269 Y118.949 E.00187
G1 X101.864 Y118.798 E.0144
G1 X102.651 Y118.722 E.01855
G1 X103.414 Y118.797 E.01799
G1 X104.148 Y119.019 E.01799
G1 X104.833 Y119.385 E.01822
G1 X105.919 Y120.211 E.03201
G1 X106.249 Y121.072 E.02163
G1 X106.485 Y121.866 E.01943
G1 X106.561 Y122.631 E.01803
G1 X106.486 Y123.394 E.01799
G1 X106.263 Y124.127 E.01797
G1 X105.902 Y124.803 E.01798
G1 X105.416 Y125.395 E.01797
G1 X104.823 Y125.881 E.01799
G1 X104.148 Y126.243 E.01797
G1 X103.414 Y126.465 E.01799
G1 X102.652 Y126.54 E.01796
G1 X101.889 Y126.465 E.01799
G1 X101.156 Y126.243 E.01797
G1 X100.48 Y125.881 E.01799
G1 X99.887 Y125.395 E.01799
G1 X99.401 Y124.803 E.01797
G1 X99.04 Y124.127 E.01798
G1 X98.818 Y123.394 E.01797
G1 X98.743 Y122.631 E.01799
G1 X98.818 Y121.868 E.01799
G1 X99.04 Y121.135 E.01797
G1 X99.402 Y120.458 E.01801
G1 X99.907 Y119.839 E.01874
G1 X100.777 Y119.011 E.02818
G1 X101.13 Y118.966 E.00835
G1 X101.126 Y118.577 F15000
G1 F270
G1 X101.174 Y118.573 E.00113
G1 X101.797 Y118.415 E.01508
G1 X102.651 Y118.332 E.02013
G1 X103.49 Y118.415 E.01978
G1 X104.297 Y118.659 E.01978
G1 X105.046 Y119.059 E.01992
G1 X106.029 Y119.832 E.02934
G1 X106.287 Y119.909 E.00632
G1 X106.313 Y120.177 E.00632
G1 X106.616 Y120.945 E.01937
G1 X106.868 Y121.791 E.02071
G1 X106.95 Y122.631 E.0198
G1 X106.868 Y123.47 E.01978
G1 X106.623 Y124.276 E.01976
G1 X106.226 Y125.019 E.01976
G1 X105.691 Y125.671 E.01979
G1 X105.04 Y126.205 E.01975
G1 X104.297 Y126.603 E.01977
G1 X103.49 Y126.847 E.01978
G1 X102.652 Y126.93 E.01976
G1 X101.813 Y126.847 E.01978
G1 X101.007 Y126.603 E.01976
G1 X100.263 Y126.205 E.01979
G1 X99.612 Y125.671 E.01975
G1 X99.077 Y125.019 E.01979
G1 X98.68 Y124.276 E.01976
G1 X98.435 Y123.47 E.01976
